(G-CODE GENERATED BY FLATCAM v8.994 - www.flatcam.org - Version Date: 2020/11/7)

(Name: esp8266-sd-file-server-F_Cu.gbr_cutout_cnc)
(Type: G-code from Geometry)
(Units: MM)

(Created on Sunday, 08 December 2024 at 20:52)


G01 F120.00

M5             
G00 Z2.0000
G00 X0.0000 Y0.0000                
T1
(MSG, Change to Tool Dia = 1.0000)
M0
G00 Z2.0000
        
M03 S10000.0
G01 F120.00
G00 X61.6751 Y-47.5250
G01 F60.00
G01 Z-0.6000
G01 F120.00
G01 X0.3250 Y-47.5250 F120.00
G01 X0.2661 Y-47.5222 F120.00
G01 X0.2079 Y-47.5135 F120.00
G01 X0.1508 Y-47.4992 F120.00
G01 X0.0953 Y-47.4794 F120.00
G01 X0.0421 Y-47.4542 F120.00
G01 X-0.0084 Y-47.4239 F120.00
G01 X-0.0557 Y-47.3889 F120.00
G01 X-0.0993 Y-47.3493 F120.00
G01 X-0.1389 Y-47.3057 F120.00
G01 X-0.1739 Y-47.2584 F120.00
G01 X-0.2042 Y-47.2079 F120.00
G01 X-0.2294 Y-47.1547 F120.00
G01 X-0.2492 Y-47.0992 F120.00
G01 X-0.2635 Y-47.0421 F120.00
G01 X-0.2722 Y-46.9839 F120.00
G01 X-0.2750 Y-46.9250 F120.00
G01 X-0.2750 Y-0.3250 F120.00
G01 X-0.2722 Y-0.2661 F120.00
G01 X-0.2635 Y-0.2079 F120.00
G01 X-0.2492 Y-0.1508 F120.00
G01 X-0.2294 Y-0.0953 F120.00
G01 X-0.2042 Y-0.0421 F120.00
G01 X-0.1739 Y0.0084 F120.00
G01 X-0.1389 Y0.0557 F120.00
G01 X-0.0993 Y0.0993 F120.00
G01 X-0.0557 Y0.1389 F120.00
G01 X-0.0084 Y0.1739 F120.00
G01 X0.0421 Y0.2042 F120.00
G01 X0.0953 Y0.2294 F120.00
G01 X0.1508 Y0.2492 F120.00
G01 X0.2079 Y0.2635 F120.00
G01 X0.2661 Y0.2722 F120.00
G01 X0.3250 Y0.2750 F120.00
G01 X61.6751 Y0.2750 F120.00
G01 X61.7339 Y0.2722 F120.00
G01 X61.7921 Y0.2635 F120.00
G01 X61.8492 Y0.2492 F120.00
G01 X61.9047 Y0.2294 F120.00
G01 X61.9579 Y0.2042 F120.00
G01 X62.0084 Y0.1739 F120.00
G01 X62.0557 Y0.1389 F120.00
G01 X62.0993 Y0.0993 F120.00
G01 X62.1389 Y0.0557 F120.00
G01 X62.1739 Y0.0084 F120.00
G01 X62.2042 Y-0.0421 F120.00
G01 X62.2294 Y-0.0953 F120.00
G01 X62.2492 Y-0.1508 F120.00
G01 X62.2635 Y-0.2079 F120.00
G01 X62.2722 Y-0.2661 F120.00
G01 X62.2751 Y-0.3250 F120.00
G01 X62.2751 Y-46.9250 F120.00
G01 X62.2722 Y-46.9839 F120.00
G01 X62.2635 Y-47.0421 F120.00
G01 X62.2492 Y-47.0992 F120.00
G01 X62.2294 Y-47.1547 F120.00
G01 X62.2042 Y-47.2079 F120.00
G01 X62.1739 Y-47.2584 F120.00
G01 X62.1389 Y-47.3057 F120.00
G01 X62.0993 Y-47.3493 F120.00
G01 X62.0557 Y-47.3889 F120.00
G01 X62.0084 Y-47.4239 F120.00
G01 X61.9579 Y-47.4542 F120.00
G01 X61.9047 Y-47.4794 F120.00
G01 X61.8492 Y-47.4992 F120.00
G01 X61.7921 Y-47.5135 F120.00
G01 X61.7339 Y-47.5222 F120.00
G01 X61.6751 Y-47.5250 F120.00
G00 X61.6751 Y-47.5250
G01 F60.00
G01 Z-1.2000
G01 F120.00
G01 X61.7339 Y-47.5222 F120.00
G01 X61.7921 Y-47.5135 F120.00
G01 X61.8492 Y-47.4992 F120.00
G01 X61.9047 Y-47.4794 F120.00
G01 X61.9579 Y-47.4542 F120.00
G01 X62.0084 Y-47.4239 F120.00
G01 X62.0557 Y-47.3889 F120.00
G01 X62.0993 Y-47.3493 F120.00
G01 X62.1389 Y-47.3057 F120.00
G01 X62.1739 Y-47.2584 F120.00
G01 X62.2042 Y-47.2079 F120.00
G01 X62.2294 Y-47.1547 F120.00
G01 X62.2492 Y-47.0992 F120.00
G01 X62.2635 Y-47.0421 F120.00
G01 X62.2722 Y-46.9839 F120.00
G01 X62.2751 Y-46.9250 F120.00
G01 X62.2751 Y-0.3250 F120.00
G01 X62.2722 Y-0.2661 F120.00
G01 X62.2635 Y-0.2079 F120.00
G01 X62.2492 Y-0.1508 F120.00
G01 X62.2294 Y-0.0953 F120.00
G01 X62.2042 Y-0.0421 F120.00
G01 X62.1739 Y0.0084 F120.00
G01 X62.1389 Y0.0557 F120.00
G01 X62.0993 Y0.0993 F120.00
G01 X62.0557 Y0.1389 F120.00
G01 X62.0084 Y0.1739 F120.00
G01 X61.9579 Y0.2042 F120.00
G01 X61.9047 Y0.2294 F120.00
G01 X61.8492 Y0.2492 F120.00
G01 X61.7921 Y0.2635 F120.00
G01 X61.7339 Y0.2722 F120.00
G01 X61.6751 Y0.2750 F120.00
G01 X0.3250 Y0.2750 F120.00
G01 X0.2661 Y0.2722 F120.00
G01 X0.2079 Y0.2635 F120.00
G01 X0.1508 Y0.2492 F120.00
G01 X0.0953 Y0.2294 F120.00
G01 X0.0421 Y0.2042 F120.00
G01 X-0.0084 Y0.1739 F120.00
G01 X-0.0557 Y0.1389 F120.00
G01 X-0.0993 Y0.0993 F120.00
G01 X-0.1389 Y0.0557 F120.00
G01 X-0.1739 Y0.0084 F120.00
G01 X-0.2042 Y-0.0421 F120.00
G01 X-0.2294 Y-0.0953 F120.00
G01 X-0.2492 Y-0.1508 F120.00
G01 X-0.2635 Y-0.2079 F120.00
G01 X-0.2722 Y-0.2661 F120.00
G01 X-0.2750 Y-0.3250 F120.00
G01 X-0.2750 Y-46.9250 F120.00
G01 X-0.2722 Y-46.9839 F120.00
G01 X-0.2635 Y-47.0421 F120.00
G01 X-0.2492 Y-47.0992 F120.00
G01 X-0.2294 Y-47.1547 F120.00
G01 X-0.2042 Y-47.2079 F120.00
G01 X-0.1739 Y-47.2584 F120.00
G01 X-0.1389 Y-47.3057 F120.00
G01 X-0.0993 Y-47.3493 F120.00
G01 X-0.0557 Y-47.3889 F120.00
G01 X-0.0084 Y-47.4239 F120.00
G01 X0.0421 Y-47.4542 F120.00
G01 X0.0953 Y-47.4794 F120.00
G01 X0.1508 Y-47.4992 F120.00
G01 X0.2079 Y-47.5135 F120.00
G01 X0.2661 Y-47.5222 F120.00
G01 X0.3250 Y-47.5250 F120.00
G01 X61.6751 Y-47.5250 F120.00
G00 X61.6751 Y-47.5250
G01 F60.00
G01 Z-1.8000
G01 F120.00
G01 X0.3250 Y-47.5250 F120.00
G01 X0.2661 Y-47.5222 F120.00
G01 X0.2079 Y-47.5135 F120.00
G01 X0.1508 Y-47.4992 F120.00
G01 X0.0953 Y-47.4794 F120.00
G01 X0.0421 Y-47.4542 F120.00
G01 X-0.0084 Y-47.4239 F120.00
G01 X-0.0557 Y-47.3889 F120.00
G01 X-0.0993 Y-47.3493 F120.00
G01 X-0.1389 Y-47.3057 F120.00
G01 X-0.1739 Y-47.2584 F120.00
G01 X-0.2042 Y-47.2079 F120.00
G01 X-0.2294 Y-47.1547 F120.00
G01 X-0.2492 Y-47.0992 F120.00
G01 X-0.2635 Y-47.0421 F120.00
G01 X-0.2722 Y-46.9839 F120.00
G01 X-0.2750 Y-46.9250 F120.00
G01 X-0.2750 Y-0.3250 F120.00
G01 X-0.2722 Y-0.2661 F120.00
G01 X-0.2635 Y-0.2079 F120.00
G01 X-0.2492 Y-0.1508 F120.00
G01 X-0.2294 Y-0.0953 F120.00
G01 X-0.2042 Y-0.0421 F120.00
G01 X-0.1739 Y0.0084 F120.00
G01 X-0.1389 Y0.0557 F120.00
G01 X-0.0993 Y0.0993 F120.00
G01 X-0.0557 Y0.1389 F120.00
G01 X-0.0084 Y0.1739 F120.00
G01 X0.0421 Y0.2042 F120.00
G01 X0.0953 Y0.2294 F120.00
G01 X0.1508 Y0.2492 F120.00
G01 X0.2079 Y0.2635 F120.00
G01 X0.2661 Y0.2722 F120.00
G01 X0.3250 Y0.2750 F120.00
G01 X61.6751 Y0.2750 F120.00
G01 X61.7339 Y0.2722 F120.00
G01 X61.7921 Y0.2635 F120.00
G01 X61.8492 Y0.2492 F120.00
G01 X61.9047 Y0.2294 F120.00
G01 X61.9579 Y0.2042 F120.00
G01 X62.0084 Y0.1739 F120.00
G01 X62.0557 Y0.1389 F120.00
G01 X62.0993 Y0.0993 F120.00
G01 X62.1389 Y0.0557 F120.00
G01 X62.1739 Y0.0084 F120.00
G01 X62.2042 Y-0.0421 F120.00
G01 X62.2294 Y-0.0953 F120.00
G01 X62.2492 Y-0.1508 F120.00
G01 X62.2635 Y-0.2079 F120.00
G01 X62.2722 Y-0.2661 F120.00
G01 X62.2751 Y-0.3250 F120.00
G01 X62.2751 Y-46.9250 F120.00
G01 X62.2722 Y-46.9839 F120.00
G01 X62.2635 Y-47.0421 F120.00
G01 X62.2492 Y-47.0992 F120.00
G01 X62.2294 Y-47.1547 F120.00
G01 X62.2042 Y-47.2079 F120.00
G01 X62.1739 Y-47.2584 F120.00
G01 X62.1389 Y-47.3057 F120.00
G01 X62.0993 Y-47.3493 F120.00
G01 X62.0557 Y-47.3889 F120.00
G01 X62.0084 Y-47.4239 F120.00
G01 X61.9579 Y-47.4542 F120.00
G01 X61.9047 Y-47.4794 F120.00
G01 X61.8492 Y-47.4992 F120.00
G01 X61.7921 Y-47.5135 F120.00
G01 X61.7339 Y-47.5222 F120.00
G01 X61.6751 Y-47.5250 F120.00
G00 Z2.0000
M05
G00 Z2.0000
G00 Z2.00
G00 X0.0 Y0.0


