(G-CODE GENERATED BY FLATCAM v8.994 - www.flatcam.org - Version Date: 2020/11/7)

(Name: esp8266-sd-file-server.drl_edit_cnc)
(Type: G-code from Geometry)
(Units: MM)

(Created on Sunday, 08 December 2024 at 20:58)


G01 F50.00

M5             
G00 Z2.0000
G00 X0.0000 Y0.0000                
T1
(MSG, Change to Tool Dia = 1.0000 ||| Total drills for tool T1 = 24)
M0
G00 Z2.0000
        
G01 F50.00
M03 S10000
G00 X21.6500 Y-31.2500
G01 Z-1.9000
G01 Z0
G00 Z2.0000
G00 X21.6500 Y-34.3500
G01 Z-1.9000
G01 Z0
G00 Z2.0000
G00 X24.5000 Y-32.7500
G01 Z-1.9000
G01 Z0
G00 Z2.0000
G00 X30.6800 Y-42.2500
G01 Z-1.9000
G01 Z0
G00 Z2.0000
G00 X33.2200 Y-42.2500
G01 Z-1.9000
G01 Z0
G00 Z2.0000
G00 X35.7600 Y-42.2500
G01 Z-1.9000
G01 Z0
G00 Z2.0000
G00 X38.3000 Y-42.2500
G01 Z-1.9000
G01 Z0
G00 Z2.0000
G00 X40.8400 Y-42.2500
G01 Z-1.9000
G01 Z0
G00 Z2.0000
G00 X43.3800 Y-42.2500
G01 Z-1.9000
G01 Z0
G00 Z2.0000
G00 X45.9200 Y-42.2500
G01 Z-1.9000
G01 Z0
G00 Z2.0000
G00 X48.4600 Y-42.2500
G01 Z-1.9000
G01 Z0
G00 Z2.0000
G00 X51.0000 Y-42.2500
G01 Z-1.9000
G01 Z0
G00 Z2.0000
G00 X51.0000 Y-34.5000
G01 Z-1.9000
G01 Z0
G00 Z2.0000
G00 X44.7500 Y-31.2500
G01 Z-1.9000
G01 Z0
G00 Z2.0000
G00 X41.7500 Y-32.7500
G01 Z-1.9000
G01 Z0
G00 Z2.0000
G00 X39.2500 Y-29.7500
G01 Z-1.9000
G01 Z0
G00 Z2.0000
G00 X33.5000 Y-22.5400
G01 Z-1.9000
G01 Z0
G00 Z2.0000
G00 X33.5000 Y-20.0000
G01 Z-1.9000
G01 Z0
G00 Z2.0000
G00 X33.5000 Y-7.2500
G01 Z-1.9000
G01 Z0
G00 Z2.0000
G00 X33.5000 Y-4.7100
G01 Z-1.9000
G01 Z0
G00 Z2.0000
G00 X33.5000 Y-2.1700
G01 Z-1.9000
G01 Z0
G00 Z2.0000
G00 X17.0000 Y-24.2500
G01 Z-1.9000
G01 Z0
G00 Z2.0000
G00 X19.5400 Y-24.2500
G01 Z-1.9000
G01 Z0
G00 Z2.0000
G00 X24.5000 Y-29.7500
G01 Z-1.9000
G01 Z0
G00 Z2.0000
M05
G00 Z2.00
G00 X0.0 Y0.0


