(G-CODE GENERATED BY FLATCAM v8.994 - www.flatcam.org - Version Date: 2020/11/7)

(Name: esp8266-sd-file-server-F_Cu.gbr_ncc_cnc)
(Type: G-code from Geometry)
(Units: MM)

(Created on Sunday, 08 December 2024 at 20:51)


G01 F100.00

M5             
G00 Z2.0000
G00 X0.0000 Y0.0000                
T1
(MSG, Change to Tool Dia = 1.0000)
M0
G00 Z2.0000
        
M03 S10000.0
G01 F100.00
G00 X1.2500 Y-2.8708
G01 F60.00
G01 Z-0.6000
G01 F100.00
G01 X1.3480 Y-2.6342 F100.00
G01 X1.4903 Y-2.4213 F100.00
G01 X1.6713 Y-2.2403 F100.00
G01 X1.8842 Y-2.0980 F100.00
G01 X2.1208 Y-2.0000 F100.00
G01 X2.3720 Y-1.9500 F100.00
G01 X2.6280 Y-1.9500 F100.00
G01 X2.8792 Y-2.0000 F100.00
G01 X3.1158 Y-2.0980 F100.00
G01 X3.3287 Y-2.2403 F100.00
G01 X3.5097 Y-2.4213 F100.00
G01 X3.6520 Y-2.6342 F100.00
G01 X3.7500 Y-2.8708 F100.00
G01 X3.8000 Y-3.1220 F100.00
G01 X3.8000 Y-3.3780 F100.00
G01 X3.7500 Y-3.6292 F100.00
G01 X3.6520 Y-3.8658 F100.00
G01 X3.5097 Y-4.0787 F100.00
G01 X3.3287 Y-4.2597 F100.00
G01 X3.1158 Y-4.4020 F100.00
G01 X2.8792 Y-4.5000 F100.00
G01 X2.6280 Y-4.5500 F100.00
G01 X2.3720 Y-4.5500 F100.00
G01 X2.1208 Y-4.5000 F100.00
G01 X1.8842 Y-4.4020 F100.00
G01 X1.6713 Y-4.2597 F100.00
G01 X1.4903 Y-4.0787 F100.00
G01 X1.3480 Y-3.8658 F100.00
G01 X1.2500 Y-3.6292 F100.00
G01 X1.2000 Y-3.3780 F100.00
G01 X1.2000 Y-3.1220 F100.00
G01 X1.2500 Y-2.8708 F100.00
G01 X2.8000 Y-3.2500 F100.00
G01 X2.7996 Y-3.2647 F100.00
G01 X2.7977 Y-3.2867 F100.00
G01 X2.7956 Y-3.3013 F100.00
G01 X2.7927 Y-3.3157 F100.00
G01 X2.7891 Y-3.3300 F100.00
G01 X2.7849 Y-3.3441 F100.00
G01 X2.7772 Y-3.3648 F100.00
G01 X2.7712 Y-3.3783 F100.00
G01 X2.7646 Y-3.3914 F100.00
G01 X2.7573 Y-3.4042 F100.00
G01 X2.7494 Y-3.4167 F100.00
G01 X2.7410 Y-3.4287 F100.00
G01 X2.7272 Y-3.4460 F100.00
G01 X2.7173 Y-3.4569 F100.00
G01 X2.7069 Y-3.4673 F100.00
G01 X2.6960 Y-3.4772 F100.00
G01 X2.6787 Y-3.4910 F100.00
G01 X2.6667 Y-3.4994 F100.00
G01 X2.6542 Y-3.5073 F100.00
G01 X2.6414 Y-3.5146 F100.00
G01 X2.6216 Y-3.5243 F100.00
G01 X2.6080 Y-3.5299 F100.00
G01 X2.5941 Y-3.5349 F100.00
G01 X2.5800 Y-3.5391 F100.00
G01 X2.5585 Y-3.5442 F100.00
G01 X2.5440 Y-3.5468 F100.00
G01 X2.5294 Y-3.5486 F100.00
G01 X2.5147 Y-3.5496 F100.00
G01 X2.5000 Y-3.5500 F100.00
G01 X2.4853 Y-3.5496 F100.00
G01 X2.4633 Y-3.5477 F100.00
G01 X2.4487 Y-3.5456 F100.00
G01 X2.4271 Y-3.5410 F100.00
G01 X2.4129 Y-3.5371 F100.00
G01 X2.3989 Y-3.5325 F100.00
G01 X2.3852 Y-3.5272 F100.00
G01 X2.3717 Y-3.5212 F100.00
G01 X2.3521 Y-3.5110 F100.00
G01 X2.3333 Y-3.4994 F100.00
G01 X2.3213 Y-3.4910 F100.00
G01 X2.3097 Y-3.4819 F100.00
G01 X2.2985 Y-3.4723 F100.00
G01 X2.2879 Y-3.4621 F100.00
G01 X2.2728 Y-3.4460 F100.00
G01 X2.2590 Y-3.4287 F100.00
G01 X2.2506 Y-3.4167 F100.00
G01 X2.2427 Y-3.4042 F100.00
G01 X2.2320 Y-3.3849 F100.00
G01 X2.2228 Y-3.3648 F100.00
G01 X2.2151 Y-3.3441 F100.00
G01 X2.2109 Y-3.3300 F100.00
G01 X2.2073 Y-3.3157 F100.00
G01 X2.2044 Y-3.3013 F100.00
G01 X2.2023 Y-3.2867 F100.00
G01 X2.2004 Y-3.2647 F100.00
G01 X2.2000 Y-3.2500 F100.00
G01 X2.2004 Y-3.2353 F100.00
G01 X2.2023 Y-3.2133 F100.00
G01 X2.2058 Y-3.1915 F100.00
G01 X2.2090 Y-3.1771 F100.00
G01 X2.2129 Y-3.1629 F100.00
G01 X2.2201 Y-3.1420 F100.00
G01 X2.2288 Y-3.1217 F100.00
G01 X2.2320 Y-3.1151 F100.00
G01 X2.2354 Y-3.1086 F100.00
G01 X2.2390 Y-3.1021 F100.00
G01 X2.2465 Y-3.0895 F100.00
G01 X2.2547 Y-3.0773 F100.00
G01 X2.2681 Y-3.0597 F100.00
G01 X2.2827 Y-3.0431 F100.00
G01 X2.2985 Y-3.0277 F100.00
G01 X2.3097 Y-3.0181 F100.00
G01 X2.3213 Y-3.0090 F100.00
G01 X2.3395 Y-2.9965 F100.00
G01 X2.3521 Y-2.9890 F100.00
G01 X2.3651 Y-2.9820 F100.00
G01 X2.3852 Y-2.9728 F100.00
G01 X2.3989 Y-2.9675 F100.00
G01 X2.4129 Y-2.9629 F100.00
G01 X2.4343 Y-2.9573 F100.00
G01 X2.4487 Y-2.9544 F100.00
G01 X2.4633 Y-2.9523 F100.00
G01 X2.4853 Y-2.9504 F100.00
G01 X2.5000 Y-2.9500 F100.00
G01 X2.5147 Y-2.9504 F100.00
G01 X2.5367 Y-2.9523 F100.00
G01 X2.5513 Y-2.9544 F100.00
G01 X2.5657 Y-2.9573 F100.00
G01 X2.5800 Y-2.9609 F100.00
G01 X2.5941 Y-2.9651 F100.00
G01 X2.6148 Y-2.9728 F100.00
G01 X2.6349 Y-2.9820 F100.00
G01 X2.6479 Y-2.9890 F100.00
G01 X2.6667 Y-3.0006 F100.00
G01 X2.6787 Y-3.0090 F100.00
G01 X2.6960 Y-3.0228 F100.00
G01 X2.7069 Y-3.0327 F100.00
G01 X2.7223 Y-3.0485 F100.00
G01 X2.7319 Y-3.0597 F100.00
G01 X2.7410 Y-3.0713 F100.00
G01 X2.7535 Y-3.0895 F100.00
G01 X2.7610 Y-3.1021 F100.00
G01 X2.7680 Y-3.1151 F100.00
G01 X2.7743 Y-3.1284 F100.00
G01 X2.7799 Y-3.1420 F100.00
G01 X2.7871 Y-3.1629 F100.00
G01 X2.7910 Y-3.1771 F100.00
G01 X2.7942 Y-3.1915 F100.00
G01 X2.7977 Y-3.2133 F100.00
G01 X2.7996 Y-3.2353 F100.00
G01 X2.8000 Y-3.2500 F100.00
G01 X3.4000 Y-3.2500 F100.00
G01 X3.3997 Y-3.2721 F100.00
G01 X3.3989 Y-3.2942 F100.00
G01 X3.3976 Y-3.3162 F100.00
G01 X3.3957 Y-3.3382 F100.00
G01 X3.3932 Y-3.3602 F100.00
G01 X3.3903 Y-3.3821 F100.00
G01 X3.3867 Y-3.4039 F100.00
G01 X3.3827 Y-3.4256 F100.00
G01 X3.3781 Y-3.4472 F100.00
G01 X3.3730 Y-3.4687 F100.00
G01 X3.3674 Y-3.4900 F100.00
G01 X3.3612 Y-3.5113 F100.00
G01 X3.3546 Y-3.5323 F100.00
G01 X3.3474 Y-3.5532 F100.00
G01 X3.3397 Y-3.5739 F100.00
G01 X3.3315 Y-3.5944 F100.00
G01 X3.3228 Y-3.6147 F100.00
G01 X3.3136 Y-3.6348 F100.00
G01 X3.3039 Y-3.6547 F100.00
G01 X3.2937 Y-3.6743 F100.00
G01 X3.2831 Y-3.6936 F100.00
G01 X3.2720 Y-3.7127 F100.00
G01 X3.2604 Y-3.7315 F100.00
G01 X3.2483 Y-3.7500 F100.00
G01 X3.2358 Y-3.7682 F100.00
G01 X3.2229 Y-3.7861 F100.00
G01 X3.2095 Y-3.8037 F100.00
G01 X3.1957 Y-3.8210 F100.00
G01 X3.1815 Y-3.8379 F100.00
G01 X3.1669 Y-3.8544 F100.00
G01 X3.1518 Y-3.8706 F100.00
G01 X3.1364 Y-3.8864 F100.00
G01 X3.1206 Y-3.9018 F100.00
G01 X3.1044 Y-3.9169 F100.00
G01 X3.0879 Y-3.9315 F100.00
G01 X3.0710 Y-3.9457 F100.00
G01 X3.0537 Y-3.9595 F100.00
G01 X3.0361 Y-3.9729 F100.00
G01 X3.0182 Y-3.9858 F100.00
G01 X3.0000 Y-3.9983 F100.00
G01 X2.9815 Y-4.0104 F100.00
G01 X2.9627 Y-4.0220 F100.00
G01 X2.9436 Y-4.0331 F100.00
G01 X2.9243 Y-4.0437 F100.00
G01 X2.9047 Y-4.0539 F100.00
G01 X2.8848 Y-4.0636 F100.00
G01 X2.8647 Y-4.0728 F100.00
G01 X2.8444 Y-4.0815 F100.00
G01 X2.8239 Y-4.0897 F100.00
G01 X2.8032 Y-4.0974 F100.00
G01 X2.7823 Y-4.1046 F100.00
G01 X2.7613 Y-4.1112 F100.00
G01 X2.7400 Y-4.1174 F100.00
G01 X2.7187 Y-4.1230 F100.00
G01 X2.6972 Y-4.1281 F100.00
G01 X2.6756 Y-4.1327 F100.00
G01 X2.6539 Y-4.1367 F100.00
G01 X2.6321 Y-4.1403 F100.00
G01 X2.6102 Y-4.1432 F100.00
G01 X2.5882 Y-4.1457 F100.00
G01 X2.5662 Y-4.1476 F100.00
G01 X2.5442 Y-4.1489 F100.00
G01 X2.5221 Y-4.1497 F100.00
G01 X2.5000 Y-4.1500 F100.00
G01 X2.4779 Y-4.1497 F100.00
G01 X2.4558 Y-4.1489 F100.00
G01 X2.4338 Y-4.1476 F100.00
G01 X2.4118 Y-4.1457 F100.00
G01 X2.3898 Y-4.1432 F100.00
G01 X2.3679 Y-4.1403 F100.00
G01 X2.3461 Y-4.1367 F100.00
G01 X2.3244 Y-4.1327 F100.00
G01 X2.3028 Y-4.1281 F100.00
G01 X2.2813 Y-4.1230 F100.00
G01 X2.2600 Y-4.1174 F100.00
G01 X2.2387 Y-4.1112 F100.00
G01 X2.2177 Y-4.1046 F100.00
G01 X2.1968 Y-4.0974 F100.00
G01 X2.1761 Y-4.0897 F100.00
G01 X2.1556 Y-4.0815 F100.00
G01 X2.1353 Y-4.0728 F100.00
G01 X2.1152 Y-4.0636 F100.00
G01 X2.0953 Y-4.0539 F100.00
G01 X2.0757 Y-4.0437 F100.00
G01 X2.0564 Y-4.0331 F100.00
G01 X2.0373 Y-4.0220 F100.00
G01 X2.0185 Y-4.0104 F100.00
G01 X2.0000 Y-3.9983 F100.00
G01 X1.9818 Y-3.9858 F100.00
G01 X1.9639 Y-3.9729 F100.00
G01 X1.9463 Y-3.9595 F100.00
G01 X1.9290 Y-3.9457 F100.00
G01 X1.9121 Y-3.9315 F100.00
G01 X1.8956 Y-3.9169 F100.00
G01 X1.8794 Y-3.9018 F100.00
G01 X1.8636 Y-3.8864 F100.00
G01 X1.8482 Y-3.8706 F100.00
G01 X1.8331 Y-3.8544 F100.00
G01 X1.8185 Y-3.8379 F100.00
G01 X1.8043 Y-3.8210 F100.00
G01 X1.7905 Y-3.8037 F100.00
G01 X1.7771 Y-3.7861 F100.00
G01 X1.7642 Y-3.7682 F100.00
G01 X1.7517 Y-3.7500 F100.00
G01 X1.7396 Y-3.7315 F100.00
G01 X1.7280 Y-3.7127 F100.00
G01 X1.7169 Y-3.6936 F100.00
G01 X1.7063 Y-3.6743 F100.00
G01 X1.6961 Y-3.6547 F100.00
G01 X1.6864 Y-3.6348 F100.00
G01 X1.6772 Y-3.6147 F100.00
G01 X1.6685 Y-3.5944 F100.00
G01 X1.6603 Y-3.5739 F100.00
G01 X1.6526 Y-3.5532 F100.00
G01 X1.6454 Y-3.5323 F100.00
G01 X1.6388 Y-3.5113 F100.00
G01 X1.6326 Y-3.4900 F100.00
G01 X1.6270 Y-3.4687 F100.00
G01 X1.6219 Y-3.4472 F100.00
G01 X1.6173 Y-3.4256 F100.00
G01 X1.6133 Y-3.4039 F100.00
G01 X1.6097 Y-3.3821 F100.00
G01 X1.6068 Y-3.3602 F100.00
G01 X1.6043 Y-3.3382 F100.00
G01 X1.6024 Y-3.3162 F100.00
G01 X1.6011 Y-3.2942 F100.00
G01 X1.6003 Y-3.2721 F100.00
G01 X1.6000 Y-3.2500 F100.00
G01 X1.6003 Y-3.2279 F100.00
G01 X1.6011 Y-3.2058 F100.00
G01 X1.6024 Y-3.1838 F100.00
G01 X1.6043 Y-3.1618 F100.00
G01 X1.6068 Y-3.1398 F100.00
G01 X1.6097 Y-3.1179 F100.00
G01 X1.6133 Y-3.0961 F100.00
G01 X1.6173 Y-3.0744 F100.00
G01 X1.6219 Y-3.0528 F100.00
G01 X1.6270 Y-3.0313 F100.00
G01 X1.6326 Y-3.0100 F100.00
G01 X1.6388 Y-2.9887 F100.00
G01 X1.6454 Y-2.9677 F100.00
G01 X1.6526 Y-2.9468 F100.00
G01 X1.6603 Y-2.9261 F100.00
G01 X1.6685 Y-2.9056 F100.00
G01 X1.6772 Y-2.8853 F100.00
G01 X1.6864 Y-2.8652 F100.00
G01 X1.6961 Y-2.8453 F100.00
G01 X1.7063 Y-2.8257 F100.00
G01 X1.7169 Y-2.8064 F100.00
G01 X1.7280 Y-2.7873 F100.00
G01 X1.7396 Y-2.7685 F100.00
G01 X1.7517 Y-2.7500 F100.00
G01 X1.7642 Y-2.7318 F100.00
G01 X1.7771 Y-2.7139 F100.00
G01 X1.7905 Y-2.6963 F100.00
G01 X1.8043 Y-2.6790 F100.00
G01 X1.8185 Y-2.6621 F100.00
G01 X1.8331 Y-2.6456 F100.00
G01 X1.8482 Y-2.6294 F100.00
G01 X1.8636 Y-2.6136 F100.00
G01 X1.8794 Y-2.5982 F100.00
G01 X1.8956 Y-2.5831 F100.00
G01 X1.9121 Y-2.5685 F100.00
G01 X1.9290 Y-2.5543 F100.00
G01 X1.9463 Y-2.5405 F100.00
G01 X1.9639 Y-2.5271 F100.00
G01 X1.9818 Y-2.5142 F100.00
G01 X2.0000 Y-2.5017 F100.00
G01 X2.0185 Y-2.4896 F100.00
G01 X2.0373 Y-2.4780 F100.00
G01 X2.0564 Y-2.4669 F100.00
G01 X2.0757 Y-2.4563 F100.00
G01 X2.0953 Y-2.4461 F100.00
G01 X2.1152 Y-2.4364 F100.00
G01 X2.1353 Y-2.4272 F100.00
G01 X2.1556 Y-2.4185 F100.00
G01 X2.1761 Y-2.4103 F100.00
G01 X2.1968 Y-2.4026 F100.00
G01 X2.2177 Y-2.3954 F100.00
G01 X2.2387 Y-2.3888 F100.00
G01 X2.2600 Y-2.3826 F100.00
G01 X2.2813 Y-2.3770 F100.00
G01 X2.3028 Y-2.3719 F100.00
G01 X2.3244 Y-2.3673 F100.00
G01 X2.3461 Y-2.3633 F100.00
G01 X2.3679 Y-2.3597 F100.00
G01 X2.3898 Y-2.3568 F100.00
G01 X2.4118 Y-2.3543 F100.00
G01 X2.4338 Y-2.3524 F100.00
G01 X2.4558 Y-2.3511 F100.00
G01 X2.4779 Y-2.3503 F100.00
G01 X2.5000 Y-2.3500 F100.00
G01 X2.5221 Y-2.3503 F100.00
G01 X2.5442 Y-2.3511 F100.00
G01 X2.5662 Y-2.3524 F100.00
G01 X2.5882 Y-2.3543 F100.00
G01 X2.6102 Y-2.3568 F100.00
G01 X2.6321 Y-2.3597 F100.00
G01 X2.6539 Y-2.3633 F100.00
G01 X2.6756 Y-2.3673 F100.00
G01 X2.6972 Y-2.3719 F100.00
G01 X2.7187 Y-2.3770 F100.00
G01 X2.7400 Y-2.3826 F100.00
G01 X2.7613 Y-2.3888 F100.00
G01 X2.7823 Y-2.3954 F100.00
G01 X2.8032 Y-2.4026 F100.00
G01 X2.8239 Y-2.4103 F100.00
G01 X2.8444 Y-2.4185 F100.00
G01 X2.8647 Y-2.4272 F100.00
G01 X2.8848 Y-2.4364 F100.00
G01 X2.9047 Y-2.4461 F100.00
G01 X2.9243 Y-2.4563 F100.00
G01 X2.9436 Y-2.4669 F100.00
G01 X2.9627 Y-2.4780 F100.00
G01 X2.9815 Y-2.4896 F100.00
G01 X3.0000 Y-2.5017 F100.00
G01 X3.0182 Y-2.5142 F100.00
G01 X3.0361 Y-2.5271 F100.00
G01 X3.0537 Y-2.5405 F100.00
G01 X3.0710 Y-2.5543 F100.00
G01 X3.0879 Y-2.5685 F100.00
G01 X3.1044 Y-2.5831 F100.00
G01 X3.1206 Y-2.5982 F100.00
G01 X3.1364 Y-2.6136 F100.00
G01 X3.1518 Y-2.6294 F100.00
G01 X3.1669 Y-2.6456 F100.00
G01 X3.1815 Y-2.6621 F100.00
G01 X3.1957 Y-2.6790 F100.00
G01 X3.2095 Y-2.6963 F100.00
G01 X3.2229 Y-2.7139 F100.00
G01 X3.2358 Y-2.7318 F100.00
G01 X3.2483 Y-2.7500 F100.00
G01 X3.2604 Y-2.7685 F100.00
G01 X3.2720 Y-2.7873 F100.00
G01 X3.2831 Y-2.8064 F100.00
G01 X3.2937 Y-2.8257 F100.00
G01 X3.3039 Y-2.8453 F100.00
G01 X3.3136 Y-2.8652 F100.00
G01 X3.3228 Y-2.8853 F100.00
G01 X3.3315 Y-2.9056 F100.00
G01 X3.3397 Y-2.9261 F100.00
G01 X3.3474 Y-2.9468 F100.00
G01 X3.3546 Y-2.9677 F100.00
G01 X3.3612 Y-2.9887 F100.00
G01 X3.3674 Y-3.0100 F100.00
G01 X3.3730 Y-3.0313 F100.00
G01 X3.3781 Y-3.0528 F100.00
G01 X3.3827 Y-3.0744 F100.00
G01 X3.3867 Y-3.0961 F100.00
G01 X3.3903 Y-3.1179 F100.00
G01 X3.3932 Y-3.1398 F100.00
G01 X3.3957 Y-3.1618 F100.00
G01 X3.3976 Y-3.1838 F100.00
G01 X3.3989 Y-3.2058 F100.00
G01 X3.3997 Y-3.2279 F100.00
G01 X3.4000 Y-3.2500 F100.00
G00 X3.4000 Y-3.2500
G01 F60.00
G01 Z-1.2000
G01 F100.00
G01 X3.3997 Y-3.2279 F100.00
G01 X3.3989 Y-3.2058 F100.00
G01 X3.3976 Y-3.1838 F100.00
G01 X3.3957 Y-3.1618 F100.00
G01 X3.3932 Y-3.1398 F100.00
G01 X3.3903 Y-3.1179 F100.00
G01 X3.3867 Y-3.0961 F100.00
G01 X3.3827 Y-3.0744 F100.00
G01 X3.3781 Y-3.0528 F100.00
G01 X3.3730 Y-3.0313 F100.00
G01 X3.3674 Y-3.0100 F100.00
G01 X3.3612 Y-2.9887 F100.00
G01 X3.3546 Y-2.9677 F100.00
G01 X3.3474 Y-2.9468 F100.00
G01 X3.3397 Y-2.9261 F100.00
G01 X3.3315 Y-2.9056 F100.00
G01 X3.3228 Y-2.8853 F100.00
G01 X3.3136 Y-2.8652 F100.00
G01 X3.3039 Y-2.8453 F100.00
G01 X3.2937 Y-2.8257 F100.00
G01 X3.2831 Y-2.8064 F100.00
G01 X3.2720 Y-2.7873 F100.00
G01 X3.2604 Y-2.7685 F100.00
G01 X3.2483 Y-2.7500 F100.00
G01 X3.2358 Y-2.7318 F100.00
G01 X3.2229 Y-2.7139 F100.00
G01 X3.2095 Y-2.6963 F100.00
G01 X3.1957 Y-2.6790 F100.00
G01 X3.1815 Y-2.6621 F100.00
G01 X3.1669 Y-2.6456 F100.00
G01 X3.1518 Y-2.6294 F100.00
G01 X3.1364 Y-2.6136 F100.00
G01 X3.1206 Y-2.5982 F100.00
G01 X3.1044 Y-2.5831 F100.00
G01 X3.0879 Y-2.5685 F100.00
G01 X3.0710 Y-2.5543 F100.00
G01 X3.0537 Y-2.5405 F100.00
G01 X3.0361 Y-2.5271 F100.00
G01 X3.0182 Y-2.5142 F100.00
G01 X3.0000 Y-2.5017 F100.00
G01 X2.9815 Y-2.4896 F100.00
G01 X2.9627 Y-2.4780 F100.00
G01 X2.9436 Y-2.4669 F100.00
G01 X2.9243 Y-2.4563 F100.00
G01 X2.9047 Y-2.4461 F100.00
G01 X2.8848 Y-2.4364 F100.00
G01 X2.8647 Y-2.4272 F100.00
G01 X2.8444 Y-2.4185 F100.00
G01 X2.8239 Y-2.4103 F100.00
G01 X2.8032 Y-2.4026 F100.00
G01 X2.7823 Y-2.3954 F100.00
G01 X2.7613 Y-2.3888 F100.00
G01 X2.7400 Y-2.3826 F100.00
G01 X2.7187 Y-2.3770 F100.00
G01 X2.6972 Y-2.3719 F100.00
G01 X2.6756 Y-2.3673 F100.00
G01 X2.6539 Y-2.3633 F100.00
G01 X2.6321 Y-2.3597 F100.00
G01 X2.6102 Y-2.3568 F100.00
G01 X2.5882 Y-2.3543 F100.00
G01 X2.5662 Y-2.3524 F100.00
G01 X2.5442 Y-2.3511 F100.00
G01 X2.5221 Y-2.3503 F100.00
G01 X2.5000 Y-2.3500 F100.00
G01 X2.4779 Y-2.3503 F100.00
G01 X2.4558 Y-2.3511 F100.00
G01 X2.4338 Y-2.3524 F100.00
G01 X2.4118 Y-2.3543 F100.00
G01 X2.3898 Y-2.3568 F100.00
G01 X2.3679 Y-2.3597 F100.00
G01 X2.3461 Y-2.3633 F100.00
G01 X2.3244 Y-2.3673 F100.00
G01 X2.3028 Y-2.3719 F100.00
G01 X2.2813 Y-2.3770 F100.00
G01 X2.2600 Y-2.3826 F100.00
G01 X2.2387 Y-2.3888 F100.00
G01 X2.2177 Y-2.3954 F100.00
G01 X2.1968 Y-2.4026 F100.00
G01 X2.1761 Y-2.4103 F100.00
G01 X2.1556 Y-2.4185 F100.00
G01 X2.1353 Y-2.4272 F100.00
G01 X2.1152 Y-2.4364 F100.00
G01 X2.0953 Y-2.4461 F100.00
G01 X2.0757 Y-2.4563 F100.00
G01 X2.0564 Y-2.4669 F100.00
G01 X2.0373 Y-2.4780 F100.00
G01 X2.0185 Y-2.4896 F100.00
G01 X2.0000 Y-2.5017 F100.00
G01 X1.9818 Y-2.5142 F100.00
G01 X1.9639 Y-2.5271 F100.00
G01 X1.9463 Y-2.5405 F100.00
G01 X1.9290 Y-2.5543 F100.00
G01 X1.9121 Y-2.5685 F100.00
G01 X1.8956 Y-2.5831 F100.00
G01 X1.8794 Y-2.5982 F100.00
G01 X1.8636 Y-2.6136 F100.00
G01 X1.8482 Y-2.6294 F100.00
G01 X1.8331 Y-2.6456 F100.00
G01 X1.8185 Y-2.6621 F100.00
G01 X1.8043 Y-2.6790 F100.00
G01 X1.7905 Y-2.6963 F100.00
G01 X1.7771 Y-2.7139 F100.00
G01 X1.7642 Y-2.7318 F100.00
G01 X1.7517 Y-2.7500 F100.00
G01 X1.7396 Y-2.7685 F100.00
G01 X1.7280 Y-2.7873 F100.00
G01 X1.7169 Y-2.8064 F100.00
G01 X1.7063 Y-2.8257 F100.00
G01 X1.6961 Y-2.8453 F100.00
G01 X1.6864 Y-2.8652 F100.00
G01 X1.6772 Y-2.8853 F100.00
G01 X1.6685 Y-2.9056 F100.00
G01 X1.6603 Y-2.9261 F100.00
G01 X1.6526 Y-2.9468 F100.00
G01 X1.6454 Y-2.9677 F100.00
G01 X1.6388 Y-2.9887 F100.00
G01 X1.6326 Y-3.0100 F100.00
G01 X1.6270 Y-3.0313 F100.00
G01 X1.6219 Y-3.0528 F100.00
G01 X1.6173 Y-3.0744 F100.00
G01 X1.6133 Y-3.0961 F100.00
G01 X1.6097 Y-3.1179 F100.00
G01 X1.6068 Y-3.1398 F100.00
G01 X1.6043 Y-3.1618 F100.00
G01 X1.6024 Y-3.1838 F100.00
G01 X1.6011 Y-3.2058 F100.00
G01 X1.6003 Y-3.2279 F100.00
G01 X1.6000 Y-3.2500 F100.00
G01 X1.6003 Y-3.2721 F100.00
G01 X1.6011 Y-3.2942 F100.00
G01 X1.6024 Y-3.3162 F100.00
G01 X1.6043 Y-3.3382 F100.00
G01 X1.6068 Y-3.3602 F100.00
G01 X1.6097 Y-3.3821 F100.00
G01 X1.6133 Y-3.4039 F100.00
G01 X1.6173 Y-3.4256 F100.00
G01 X1.6219 Y-3.4472 F100.00
G01 X1.6270 Y-3.4687 F100.00
G01 X1.6326 Y-3.4900 F100.00
G01 X1.6388 Y-3.5113 F100.00
G01 X1.6454 Y-3.5323 F100.00
G01 X1.6526 Y-3.5532 F100.00
G01 X1.6603 Y-3.5739 F100.00
G01 X1.6685 Y-3.5944 F100.00
G01 X1.6772 Y-3.6147 F100.00
G01 X1.6864 Y-3.6348 F100.00
G01 X1.6961 Y-3.6547 F100.00
G01 X1.7063 Y-3.6743 F100.00
G01 X1.7169 Y-3.6936 F100.00
G01 X1.7280 Y-3.7127 F100.00
G01 X1.7396 Y-3.7315 F100.00
G01 X1.7517 Y-3.7500 F100.00
G01 X1.7642 Y-3.7682 F100.00
G01 X1.7771 Y-3.7861 F100.00
G01 X1.7905 Y-3.8037 F100.00
G01 X1.8043 Y-3.8210 F100.00
G01 X1.8185 Y-3.8379 F100.00
G01 X1.8331 Y-3.8544 F100.00
G01 X1.8482 Y-3.8706 F100.00
G01 X1.8636 Y-3.8864 F100.00
G01 X1.8794 Y-3.9018 F100.00
G01 X1.8956 Y-3.9169 F100.00
G01 X1.9121 Y-3.9315 F100.00
G01 X1.9290 Y-3.9457 F100.00
G01 X1.9463 Y-3.9595 F100.00
G01 X1.9639 Y-3.9729 F100.00
G01 X1.9818 Y-3.9858 F100.00
G01 X2.0000 Y-3.9983 F100.00
G01 X2.0185 Y-4.0104 F100.00
G01 X2.0373 Y-4.0220 F100.00
G01 X2.0564 Y-4.0331 F100.00
G01 X2.0757 Y-4.0437 F100.00
G01 X2.0953 Y-4.0539 F100.00
G01 X2.1152 Y-4.0636 F100.00
G01 X2.1353 Y-4.0728 F100.00
G01 X2.1556 Y-4.0815 F100.00
G01 X2.1761 Y-4.0897 F100.00
G01 X2.1968 Y-4.0974 F100.00
G01 X2.2177 Y-4.1046 F100.00
G01 X2.2387 Y-4.1112 F100.00
G01 X2.2600 Y-4.1174 F100.00
G01 X2.2813 Y-4.1230 F100.00
G01 X2.3028 Y-4.1281 F100.00
G01 X2.3244 Y-4.1327 F100.00
G01 X2.3461 Y-4.1367 F100.00
G01 X2.3679 Y-4.1403 F100.00
G01 X2.3898 Y-4.1432 F100.00
G01 X2.4118 Y-4.1457 F100.00
G01 X2.4338 Y-4.1476 F100.00
G01 X2.4558 Y-4.1489 F100.00
G01 X2.4779 Y-4.1497 F100.00
G01 X2.5000 Y-4.1500 F100.00
G01 X2.5221 Y-4.1497 F100.00
G01 X2.5442 Y-4.1489 F100.00
G01 X2.5662 Y-4.1476 F100.00
G01 X2.5882 Y-4.1457 F100.00
G01 X2.6102 Y-4.1432 F100.00
G01 X2.6321 Y-4.1403 F100.00
G01 X2.6539 Y-4.1367 F100.00
G01 X2.6756 Y-4.1327 F100.00
G01 X2.6972 Y-4.1281 F100.00
G01 X2.7187 Y-4.1230 F100.00
G01 X2.7400 Y-4.1174 F100.00
G01 X2.7613 Y-4.1112 F100.00
G01 X2.7823 Y-4.1046 F100.00
G01 X2.8032 Y-4.0974 F100.00
G01 X2.8239 Y-4.0897 F100.00
G01 X2.8444 Y-4.0815 F100.00
G01 X2.8647 Y-4.0728 F100.00
G01 X2.8848 Y-4.0636 F100.00
G01 X2.9047 Y-4.0539 F100.00
G01 X2.9243 Y-4.0437 F100.00
G01 X2.9436 Y-4.0331 F100.00
G01 X2.9627 Y-4.0220 F100.00
G01 X2.9815 Y-4.0104 F100.00
G01 X3.0000 Y-3.9983 F100.00
G01 X3.0182 Y-3.9858 F100.00
G01 X3.0361 Y-3.9729 F100.00
G01 X3.0537 Y-3.9595 F100.00
G01 X3.0710 Y-3.9457 F100.00
G01 X3.0879 Y-3.9315 F100.00
G01 X3.1044 Y-3.9169 F100.00
G01 X3.1206 Y-3.9018 F100.00
G01 X3.1364 Y-3.8864 F100.00
G01 X3.1518 Y-3.8706 F100.00
G01 X3.1669 Y-3.8544 F100.00
G01 X3.1815 Y-3.8379 F100.00
G01 X3.1957 Y-3.8210 F100.00
G01 X3.2095 Y-3.8037 F100.00
G01 X3.2229 Y-3.7861 F100.00
G01 X3.2358 Y-3.7682 F100.00
G01 X3.2483 Y-3.7500 F100.00
G01 X3.2604 Y-3.7315 F100.00
G01 X3.2720 Y-3.7127 F100.00
G01 X3.2831 Y-3.6936 F100.00
G01 X3.2937 Y-3.6743 F100.00
G01 X3.3039 Y-3.6547 F100.00
G01 X3.3136 Y-3.6348 F100.00
G01 X3.3228 Y-3.6147 F100.00
G01 X3.3315 Y-3.5944 F100.00
G01 X3.3397 Y-3.5739 F100.00
G01 X3.3474 Y-3.5532 F100.00
G01 X3.3546 Y-3.5323 F100.00
G01 X3.3612 Y-3.5113 F100.00
G01 X3.3674 Y-3.4900 F100.00
G01 X3.3730 Y-3.4687 F100.00
G01 X3.3781 Y-3.4472 F100.00
G01 X3.3827 Y-3.4256 F100.00
G01 X3.3867 Y-3.4039 F100.00
G01 X3.3903 Y-3.3821 F100.00
G01 X3.3932 Y-3.3602 F100.00
G01 X3.3957 Y-3.3382 F100.00
G01 X3.3976 Y-3.3162 F100.00
G01 X3.3989 Y-3.2942 F100.00
G01 X3.3997 Y-3.2721 F100.00
G01 X3.4000 Y-3.2500 F100.00
G01 X2.8000 Y-3.2500 F100.00
G01 X2.7996 Y-3.2353 F100.00
G01 X2.7977 Y-3.2133 F100.00
G01 X2.7942 Y-3.1915 F100.00
G01 X2.7910 Y-3.1771 F100.00
G01 X2.7871 Y-3.1629 F100.00
G01 X2.7799 Y-3.1420 F100.00
G01 X2.7743 Y-3.1284 F100.00
G01 X2.7680 Y-3.1151 F100.00
G01 X2.7610 Y-3.1021 F100.00
G01 X2.7535 Y-3.0895 F100.00
G01 X2.7410 Y-3.0713 F100.00
G01 X2.7319 Y-3.0597 F100.00
G01 X2.7223 Y-3.0485 F100.00
G01 X2.7069 Y-3.0327 F100.00
G01 X2.6960 Y-3.0228 F100.00
G01 X2.6787 Y-3.0090 F100.00
G01 X2.6667 Y-3.0006 F100.00
G01 X2.6479 Y-2.9890 F100.00
G01 X2.6349 Y-2.9820 F100.00
G01 X2.6148 Y-2.9728 F100.00
G01 X2.5941 Y-2.9651 F100.00
G01 X2.5800 Y-2.9609 F100.00
G01 X2.5657 Y-2.9573 F100.00
G01 X2.5513 Y-2.9544 F100.00
G01 X2.5367 Y-2.9523 F100.00
G01 X2.5147 Y-2.9504 F100.00
G01 X2.5000 Y-2.9500 F100.00
G01 X2.4853 Y-2.9504 F100.00
G01 X2.4633 Y-2.9523 F100.00
G01 X2.4487 Y-2.9544 F100.00
G01 X2.4343 Y-2.9573 F100.00
G01 X2.4129 Y-2.9629 F100.00
G01 X2.3989 Y-2.9675 F100.00
G01 X2.3852 Y-2.9728 F100.00
G01 X2.3651 Y-2.9820 F100.00
G01 X2.3521 Y-2.9890 F100.00
G01 X2.3395 Y-2.9965 F100.00
G01 X2.3213 Y-3.0090 F100.00
G01 X2.3097 Y-3.0181 F100.00
G01 X2.2985 Y-3.0277 F100.00
G01 X2.2827 Y-3.0431 F100.00
G01 X2.2681 Y-3.0597 F100.00
G01 X2.2547 Y-3.0773 F100.00
G01 X2.2465 Y-3.0895 F100.00
G01 X2.2390 Y-3.1021 F100.00
G01 X2.2354 Y-3.1086 F100.00
G01 X2.2320 Y-3.1151 F100.00
G01 X2.2288 Y-3.1217 F100.00
G01 X2.2201 Y-3.1420 F100.00
G01 X2.2129 Y-3.1629 F100.00
G01 X2.2090 Y-3.1771 F100.00
G01 X2.2058 Y-3.1915 F100.00
G01 X2.2023 Y-3.2133 F100.00
G01 X2.2004 Y-3.2353 F100.00
G01 X2.2000 Y-3.2500 F100.00
G01 X2.2004 Y-3.2647 F100.00
G01 X2.2023 Y-3.2867 F100.00
G01 X2.2044 Y-3.3013 F100.00
G01 X2.2073 Y-3.3157 F100.00
G01 X2.2109 Y-3.3300 F100.00
G01 X2.2151 Y-3.3441 F100.00
G01 X2.2228 Y-3.3648 F100.00
G01 X2.2320 Y-3.3849 F100.00
G01 X2.2427 Y-3.4042 F100.00
G01 X2.2506 Y-3.4167 F100.00
G01 X2.2590 Y-3.4287 F100.00
G01 X2.2728 Y-3.4460 F100.00
G01 X2.2879 Y-3.4621 F100.00
G01 X2.2985 Y-3.4723 F100.00
G01 X2.3097 Y-3.4819 F100.00
G01 X2.3213 Y-3.4910 F100.00
G01 X2.3333 Y-3.4994 F100.00
G01 X2.3521 Y-3.5110 F100.00
G01 X2.3717 Y-3.5212 F100.00
G01 X2.3852 Y-3.5272 F100.00
G01 X2.3989 Y-3.5325 F100.00
G01 X2.4129 Y-3.5371 F100.00
G01 X2.4271 Y-3.5410 F100.00
G01 X2.4487 Y-3.5456 F100.00
G01 X2.4633 Y-3.5477 F100.00
G01 X2.4853 Y-3.5496 F100.00
G01 X2.5000 Y-3.5500 F100.00
G01 X2.5147 Y-3.5496 F100.00
G01 X2.5294 Y-3.5486 F100.00
G01 X2.5440 Y-3.5468 F100.00
G01 X2.5585 Y-3.5442 F100.00
G01 X2.5800 Y-3.5391 F100.00
G01 X2.5941 Y-3.5349 F100.00
G01 X2.6080 Y-3.5299 F100.00
G01 X2.6216 Y-3.5243 F100.00
G01 X2.6414 Y-3.5146 F100.00
G01 X2.6542 Y-3.5073 F100.00
G01 X2.6667 Y-3.4994 F100.00
G01 X2.6787 Y-3.4910 F100.00
G01 X2.6960 Y-3.4772 F100.00
G01 X2.7069 Y-3.4673 F100.00
G01 X2.7173 Y-3.4569 F100.00
G01 X2.7272 Y-3.4460 F100.00
G01 X2.7410 Y-3.4287 F100.00
G01 X2.7494 Y-3.4167 F100.00
G01 X2.7573 Y-3.4042 F100.00
G01 X2.7646 Y-3.3914 F100.00
G01 X2.7712 Y-3.3783 F100.00
G01 X2.7772 Y-3.3648 F100.00
G01 X2.7849 Y-3.3441 F100.00
G01 X2.7891 Y-3.3300 F100.00
G01 X2.7927 Y-3.3157 F100.00
G01 X2.7956 Y-3.3013 F100.00
G01 X2.7977 Y-3.2867 F100.00
G01 X2.7996 Y-3.2647 F100.00
G01 X2.8000 Y-3.2500 F100.00
G01 X1.2500 Y-2.8708 F100.00
G01 X1.2000 Y-3.1220 F100.00
G01 X1.2000 Y-3.3780 F100.00
G01 X1.2500 Y-3.6292 F100.00
G01 X1.3480 Y-3.8658 F100.00
G01 X1.4903 Y-4.0787 F100.00
G01 X1.6713 Y-4.2597 F100.00
G01 X1.8842 Y-4.4020 F100.00
G01 X2.1208 Y-4.5000 F100.00
G01 X2.3720 Y-4.5500 F100.00
G01 X2.6280 Y-4.5500 F100.00
G01 X2.8792 Y-4.5000 F100.00
G01 X3.1158 Y-4.4020 F100.00
G01 X3.3287 Y-4.2597 F100.00
G01 X3.5097 Y-4.0787 F100.00
G01 X3.6520 Y-3.8658 F100.00
G01 X3.7500 Y-3.6292 F100.00
G01 X3.8000 Y-3.3780 F100.00
G01 X3.8000 Y-3.1220 F100.00
G01 X3.7500 Y-2.8708 F100.00
G01 X3.6520 Y-2.6342 F100.00
G01 X3.5097 Y-2.4213 F100.00
G01 X3.3287 Y-2.2403 F100.00
G01 X3.1158 Y-2.0980 F100.00
G01 X2.8792 Y-2.0000 F100.00
G01 X2.6280 Y-1.9500 F100.00
G01 X2.3720 Y-1.9500 F100.00
G01 X2.1208 Y-2.0000 F100.00
G01 X1.8842 Y-2.0980 F100.00
G01 X1.6713 Y-2.2403 F100.00
G01 X1.4903 Y-2.4213 F100.00
G01 X1.3480 Y-2.6342 F100.00
G01 X1.2500 Y-2.8708 F100.00
G00 X1.2500 Y-2.8708
G01 F60.00
G01 Z-1.8000
G01 F100.00
G01 X1.3480 Y-2.6342 F100.00
G01 X1.4903 Y-2.4213 F100.00
G01 X1.6713 Y-2.2403 F100.00
G01 X1.8842 Y-2.0980 F100.00
G01 X2.1208 Y-2.0000 F100.00
G01 X2.3720 Y-1.9500 F100.00
G01 X2.6280 Y-1.9500 F100.00
G01 X2.8792 Y-2.0000 F100.00
G01 X3.1158 Y-2.0980 F100.00
G01 X3.3287 Y-2.2403 F100.00
G01 X3.5097 Y-2.4213 F100.00
G01 X3.6520 Y-2.6342 F100.00
G01 X3.7500 Y-2.8708 F100.00
G01 X3.8000 Y-3.1220 F100.00
G01 X3.8000 Y-3.3780 F100.00
G01 X3.7500 Y-3.6292 F100.00
G01 X3.6520 Y-3.8658 F100.00
G01 X3.5097 Y-4.0787 F100.00
G01 X3.3287 Y-4.2597 F100.00
G01 X3.1158 Y-4.4020 F100.00
G01 X2.8792 Y-4.5000 F100.00
G01 X2.6280 Y-4.5500 F100.00
G01 X2.3720 Y-4.5500 F100.00
G01 X2.1208 Y-4.5000 F100.00
G01 X1.8842 Y-4.4020 F100.00
G01 X1.6713 Y-4.2597 F100.00
G01 X1.4903 Y-4.0787 F100.00
G01 X1.3480 Y-3.8658 F100.00
G01 X1.2500 Y-3.6292 F100.00
G01 X1.2000 Y-3.3780 F100.00
G01 X1.2000 Y-3.1220 F100.00
G01 X1.2500 Y-2.8708 F100.00
G01 X2.8000 Y-3.2500 F100.00
G01 X2.7996 Y-3.2647 F100.00
G01 X2.7977 Y-3.2867 F100.00
G01 X2.7956 Y-3.3013 F100.00
G01 X2.7927 Y-3.3157 F100.00
G01 X2.7891 Y-3.3300 F100.00
G01 X2.7849 Y-3.3441 F100.00
G01 X2.7772 Y-3.3648 F100.00
G01 X2.7712 Y-3.3783 F100.00
G01 X2.7646 Y-3.3914 F100.00
G01 X2.7573 Y-3.4042 F100.00
G01 X2.7494 Y-3.4167 F100.00
G01 X2.7410 Y-3.4287 F100.00
G01 X2.7272 Y-3.4460 F100.00
G01 X2.7173 Y-3.4569 F100.00
G01 X2.7069 Y-3.4673 F100.00
G01 X2.6960 Y-3.4772 F100.00
G01 X2.6787 Y-3.4910 F100.00
G01 X2.6667 Y-3.4994 F100.00
G01 X2.6542 Y-3.5073 F100.00
G01 X2.6414 Y-3.5146 F100.00
G01 X2.6216 Y-3.5243 F100.00
G01 X2.6080 Y-3.5299 F100.00
G01 X2.5941 Y-3.5349 F100.00
G01 X2.5800 Y-3.5391 F100.00
G01 X2.5585 Y-3.5442 F100.00
G01 X2.5440 Y-3.5468 F100.00
G01 X2.5294 Y-3.5486 F100.00
G01 X2.5147 Y-3.5496 F100.00
G01 X2.5000 Y-3.5500 F100.00
G01 X2.4853 Y-3.5496 F100.00
G01 X2.4633 Y-3.5477 F100.00
G01 X2.4487 Y-3.5456 F100.00
G01 X2.4271 Y-3.5410 F100.00
G01 X2.4129 Y-3.5371 F100.00
G01 X2.3989 Y-3.5325 F100.00
G01 X2.3852 Y-3.5272 F100.00
G01 X2.3717 Y-3.5212 F100.00
G01 X2.3521 Y-3.5110 F100.00
G01 X2.3333 Y-3.4994 F100.00
G01 X2.3213 Y-3.4910 F100.00
G01 X2.3097 Y-3.4819 F100.00
G01 X2.2985 Y-3.4723 F100.00
G01 X2.2879 Y-3.4621 F100.00
G01 X2.2728 Y-3.4460 F100.00
G01 X2.2590 Y-3.4287 F100.00
G01 X2.2506 Y-3.4167 F100.00
G01 X2.2427 Y-3.4042 F100.00
G01 X2.2320 Y-3.3849 F100.00
G01 X2.2228 Y-3.3648 F100.00
G01 X2.2151 Y-3.3441 F100.00
G01 X2.2109 Y-3.3300 F100.00
G01 X2.2073 Y-3.3157 F100.00
G01 X2.2044 Y-3.3013 F100.00
G01 X2.2023 Y-3.2867 F100.00
G01 X2.2004 Y-3.2647 F100.00
G01 X2.2000 Y-3.2500 F100.00
G01 X2.2004 Y-3.2353 F100.00
G01 X2.2023 Y-3.2133 F100.00
G01 X2.2058 Y-3.1915 F100.00
G01 X2.2090 Y-3.1771 F100.00
G01 X2.2129 Y-3.1629 F100.00
G01 X2.2201 Y-3.1420 F100.00
G01 X2.2288 Y-3.1217 F100.00
G01 X2.2320 Y-3.1151 F100.00
G01 X2.2354 Y-3.1086 F100.00
G01 X2.2390 Y-3.1021 F100.00
G01 X2.2465 Y-3.0895 F100.00
G01 X2.2547 Y-3.0773 F100.00
G01 X2.2681 Y-3.0597 F100.00
G01 X2.2827 Y-3.0431 F100.00
G01 X2.2985 Y-3.0277 F100.00
G01 X2.3097 Y-3.0181 F100.00
G01 X2.3213 Y-3.0090 F100.00
G01 X2.3395 Y-2.9965 F100.00
G01 X2.3521 Y-2.9890 F100.00
G01 X2.3651 Y-2.9820 F100.00
G01 X2.3852 Y-2.9728 F100.00
G01 X2.3989 Y-2.9675 F100.00
G01 X2.4129 Y-2.9629 F100.00
G01 X2.4343 Y-2.9573 F100.00
G01 X2.4487 Y-2.9544 F100.00
G01 X2.4633 Y-2.9523 F100.00
G01 X2.4853 Y-2.9504 F100.00
G01 X2.5000 Y-2.9500 F100.00
G01 X2.5147 Y-2.9504 F100.00
G01 X2.5367 Y-2.9523 F100.00
G01 X2.5513 Y-2.9544 F100.00
G01 X2.5657 Y-2.9573 F100.00
G01 X2.5800 Y-2.9609 F100.00
G01 X2.5941 Y-2.9651 F100.00
G01 X2.6148 Y-2.9728 F100.00
G01 X2.6349 Y-2.9820 F100.00
G01 X2.6479 Y-2.9890 F100.00
G01 X2.6667 Y-3.0006 F100.00
G01 X2.6787 Y-3.0090 F100.00
G01 X2.6960 Y-3.0228 F100.00
G01 X2.7069 Y-3.0327 F100.00
G01 X2.7223 Y-3.0485 F100.00
G01 X2.7319 Y-3.0597 F100.00
G01 X2.7410 Y-3.0713 F100.00
G01 X2.7535 Y-3.0895 F100.00
G01 X2.7610 Y-3.1021 F100.00
G01 X2.7680 Y-3.1151 F100.00
G01 X2.7743 Y-3.1284 F100.00
G01 X2.7799 Y-3.1420 F100.00
G01 X2.7871 Y-3.1629 F100.00
G01 X2.7910 Y-3.1771 F100.00
G01 X2.7942 Y-3.1915 F100.00
G01 X2.7977 Y-3.2133 F100.00
G01 X2.7996 Y-3.2353 F100.00
G01 X2.8000 Y-3.2500 F100.00
G01 X3.4000 Y-3.2500 F100.00
G01 X3.3997 Y-3.2721 F100.00
G01 X3.3989 Y-3.2942 F100.00
G01 X3.3976 Y-3.3162 F100.00
G01 X3.3957 Y-3.3382 F100.00
G01 X3.3932 Y-3.3602 F100.00
G01 X3.3903 Y-3.3821 F100.00
G01 X3.3867 Y-3.4039 F100.00
G01 X3.3827 Y-3.4256 F100.00
G01 X3.3781 Y-3.4472 F100.00
G01 X3.3730 Y-3.4687 F100.00
G01 X3.3674 Y-3.4900 F100.00
G01 X3.3612 Y-3.5113 F100.00
G01 X3.3546 Y-3.5323 F100.00
G01 X3.3474 Y-3.5532 F100.00
G01 X3.3397 Y-3.5739 F100.00
G01 X3.3315 Y-3.5944 F100.00
G01 X3.3228 Y-3.6147 F100.00
G01 X3.3136 Y-3.6348 F100.00
G01 X3.3039 Y-3.6547 F100.00
G01 X3.2937 Y-3.6743 F100.00
G01 X3.2831 Y-3.6936 F100.00
G01 X3.2720 Y-3.7127 F100.00
G01 X3.2604 Y-3.7315 F100.00
G01 X3.2483 Y-3.7500 F100.00
G01 X3.2358 Y-3.7682 F100.00
G01 X3.2229 Y-3.7861 F100.00
G01 X3.2095 Y-3.8037 F100.00
G01 X3.1957 Y-3.8210 F100.00
G01 X3.1815 Y-3.8379 F100.00
G01 X3.1669 Y-3.8544 F100.00
G01 X3.1518 Y-3.8706 F100.00
G01 X3.1364 Y-3.8864 F100.00
G01 X3.1206 Y-3.9018 F100.00
G01 X3.1044 Y-3.9169 F100.00
G01 X3.0879 Y-3.9315 F100.00
G01 X3.0710 Y-3.9457 F100.00
G01 X3.0537 Y-3.9595 F100.00
G01 X3.0361 Y-3.9729 F100.00
G01 X3.0182 Y-3.9858 F100.00
G01 X3.0000 Y-3.9983 F100.00
G01 X2.9815 Y-4.0104 F100.00
G01 X2.9627 Y-4.0220 F100.00
G01 X2.9436 Y-4.0331 F100.00
G01 X2.9243 Y-4.0437 F100.00
G01 X2.9047 Y-4.0539 F100.00
G01 X2.8848 Y-4.0636 F100.00
G01 X2.8647 Y-4.0728 F100.00
G01 X2.8444 Y-4.0815 F100.00
G01 X2.8239 Y-4.0897 F100.00
G01 X2.8032 Y-4.0974 F100.00
G01 X2.7823 Y-4.1046 F100.00
G01 X2.7613 Y-4.1112 F100.00
G01 X2.7400 Y-4.1174 F100.00
G01 X2.7187 Y-4.1230 F100.00
G01 X2.6972 Y-4.1281 F100.00
G01 X2.6756 Y-4.1327 F100.00
G01 X2.6539 Y-4.1367 F100.00
G01 X2.6321 Y-4.1403 F100.00
G01 X2.6102 Y-4.1432 F100.00
G01 X2.5882 Y-4.1457 F100.00
G01 X2.5662 Y-4.1476 F100.00
G01 X2.5442 Y-4.1489 F100.00
G01 X2.5221 Y-4.1497 F100.00
G01 X2.5000 Y-4.1500 F100.00
G01 X2.4779 Y-4.1497 F100.00
G01 X2.4558 Y-4.1489 F100.00
G01 X2.4338 Y-4.1476 F100.00
G01 X2.4118 Y-4.1457 F100.00
G01 X2.3898 Y-4.1432 F100.00
G01 X2.3679 Y-4.1403 F100.00
G01 X2.3461 Y-4.1367 F100.00
G01 X2.3244 Y-4.1327 F100.00
G01 X2.3028 Y-4.1281 F100.00
G01 X2.2813 Y-4.1230 F100.00
G01 X2.2600 Y-4.1174 F100.00
G01 X2.2387 Y-4.1112 F100.00
G01 X2.2177 Y-4.1046 F100.00
G01 X2.1968 Y-4.0974 F100.00
G01 X2.1761 Y-4.0897 F100.00
G01 X2.1556 Y-4.0815 F100.00
G01 X2.1353 Y-4.0728 F100.00
G01 X2.1152 Y-4.0636 F100.00
G01 X2.0953 Y-4.0539 F100.00
G01 X2.0757 Y-4.0437 F100.00
G01 X2.0564 Y-4.0331 F100.00
G01 X2.0373 Y-4.0220 F100.00
G01 X2.0185 Y-4.0104 F100.00
G01 X2.0000 Y-3.9983 F100.00
G01 X1.9818 Y-3.9858 F100.00
G01 X1.9639 Y-3.9729 F100.00
G01 X1.9463 Y-3.9595 F100.00
G01 X1.9290 Y-3.9457 F100.00
G01 X1.9121 Y-3.9315 F100.00
G01 X1.8956 Y-3.9169 F100.00
G01 X1.8794 Y-3.9018 F100.00
G01 X1.8636 Y-3.8864 F100.00
G01 X1.8482 Y-3.8706 F100.00
G01 X1.8331 Y-3.8544 F100.00
G01 X1.8185 Y-3.8379 F100.00
G01 X1.8043 Y-3.8210 F100.00
G01 X1.7905 Y-3.8037 F100.00
G01 X1.7771 Y-3.7861 F100.00
G01 X1.7642 Y-3.7682 F100.00
G01 X1.7517 Y-3.7500 F100.00
G01 X1.7396 Y-3.7315 F100.00
G01 X1.7280 Y-3.7127 F100.00
G01 X1.7169 Y-3.6936 F100.00
G01 X1.7063 Y-3.6743 F100.00
G01 X1.6961 Y-3.6547 F100.00
G01 X1.6864 Y-3.6348 F100.00
G01 X1.6772 Y-3.6147 F100.00
G01 X1.6685 Y-3.5944 F100.00
G01 X1.6603 Y-3.5739 F100.00
G01 X1.6526 Y-3.5532 F100.00
G01 X1.6454 Y-3.5323 F100.00
G01 X1.6388 Y-3.5113 F100.00
G01 X1.6326 Y-3.4900 F100.00
G01 X1.6270 Y-3.4687 F100.00
G01 X1.6219 Y-3.4472 F100.00
G01 X1.6173 Y-3.4256 F100.00
G01 X1.6133 Y-3.4039 F100.00
G01 X1.6097 Y-3.3821 F100.00
G01 X1.6068 Y-3.3602 F100.00
G01 X1.6043 Y-3.3382 F100.00
G01 X1.6024 Y-3.3162 F100.00
G01 X1.6011 Y-3.2942 F100.00
G01 X1.6003 Y-3.2721 F100.00
G01 X1.6000 Y-3.2500 F100.00
G01 X1.6003 Y-3.2279 F100.00
G01 X1.6011 Y-3.2058 F100.00
G01 X1.6024 Y-3.1838 F100.00
G01 X1.6043 Y-3.1618 F100.00
G01 X1.6068 Y-3.1398 F100.00
G01 X1.6097 Y-3.1179 F100.00
G01 X1.6133 Y-3.0961 F100.00
G01 X1.6173 Y-3.0744 F100.00
G01 X1.6219 Y-3.0528 F100.00
G01 X1.6270 Y-3.0313 F100.00
G01 X1.6326 Y-3.0100 F100.00
G01 X1.6388 Y-2.9887 F100.00
G01 X1.6454 Y-2.9677 F100.00
G01 X1.6526 Y-2.9468 F100.00
G01 X1.6603 Y-2.9261 F100.00
G01 X1.6685 Y-2.9056 F100.00
G01 X1.6772 Y-2.8853 F100.00
G01 X1.6864 Y-2.8652 F100.00
G01 X1.6961 Y-2.8453 F100.00
G01 X1.7063 Y-2.8257 F100.00
G01 X1.7169 Y-2.8064 F100.00
G01 X1.7280 Y-2.7873 F100.00
G01 X1.7396 Y-2.7685 F100.00
G01 X1.7517 Y-2.7500 F100.00
G01 X1.7642 Y-2.7318 F100.00
G01 X1.7771 Y-2.7139 F100.00
G01 X1.7905 Y-2.6963 F100.00
G01 X1.8043 Y-2.6790 F100.00
G01 X1.8185 Y-2.6621 F100.00
G01 X1.8331 Y-2.6456 F100.00
G01 X1.8482 Y-2.6294 F100.00
G01 X1.8636 Y-2.6136 F100.00
G01 X1.8794 Y-2.5982 F100.00
G01 X1.8956 Y-2.5831 F100.00
G01 X1.9121 Y-2.5685 F100.00
G01 X1.9290 Y-2.5543 F100.00
G01 X1.9463 Y-2.5405 F100.00
G01 X1.9639 Y-2.5271 F100.00
G01 X1.9818 Y-2.5142 F100.00
G01 X2.0000 Y-2.5017 F100.00
G01 X2.0185 Y-2.4896 F100.00
G01 X2.0373 Y-2.4780 F100.00
G01 X2.0564 Y-2.4669 F100.00
G01 X2.0757 Y-2.4563 F100.00
G01 X2.0953 Y-2.4461 F100.00
G01 X2.1152 Y-2.4364 F100.00
G01 X2.1353 Y-2.4272 F100.00
G01 X2.1556 Y-2.4185 F100.00
G01 X2.1761 Y-2.4103 F100.00
G01 X2.1968 Y-2.4026 F100.00
G01 X2.2177 Y-2.3954 F100.00
G01 X2.2387 Y-2.3888 F100.00
G01 X2.2600 Y-2.3826 F100.00
G01 X2.2813 Y-2.3770 F100.00
G01 X2.3028 Y-2.3719 F100.00
G01 X2.3244 Y-2.3673 F100.00
G01 X2.3461 Y-2.3633 F100.00
G01 X2.3679 Y-2.3597 F100.00
G01 X2.3898 Y-2.3568 F100.00
G01 X2.4118 Y-2.3543 F100.00
G01 X2.4338 Y-2.3524 F100.00
G01 X2.4558 Y-2.3511 F100.00
G01 X2.4779 Y-2.3503 F100.00
G01 X2.5000 Y-2.3500 F100.00
G01 X2.5221 Y-2.3503 F100.00
G01 X2.5442 Y-2.3511 F100.00
G01 X2.5662 Y-2.3524 F100.00
G01 X2.5882 Y-2.3543 F100.00
G01 X2.6102 Y-2.3568 F100.00
G01 X2.6321 Y-2.3597 F100.00
G01 X2.6539 Y-2.3633 F100.00
G01 X2.6756 Y-2.3673 F100.00
G01 X2.6972 Y-2.3719 F100.00
G01 X2.7187 Y-2.3770 F100.00
G01 X2.7400 Y-2.3826 F100.00
G01 X2.7613 Y-2.3888 F100.00
G01 X2.7823 Y-2.3954 F100.00
G01 X2.8032 Y-2.4026 F100.00
G01 X2.8239 Y-2.4103 F100.00
G01 X2.8444 Y-2.4185 F100.00
G01 X2.8647 Y-2.4272 F100.00
G01 X2.8848 Y-2.4364 F100.00
G01 X2.9047 Y-2.4461 F100.00
G01 X2.9243 Y-2.4563 F100.00
G01 X2.9436 Y-2.4669 F100.00
G01 X2.9627 Y-2.4780 F100.00
G01 X2.9815 Y-2.4896 F100.00
G01 X3.0000 Y-2.5017 F100.00
G01 X3.0182 Y-2.5142 F100.00
G01 X3.0361 Y-2.5271 F100.00
G01 X3.0537 Y-2.5405 F100.00
G01 X3.0710 Y-2.5543 F100.00
G01 X3.0879 Y-2.5685 F100.00
G01 X3.1044 Y-2.5831 F100.00
G01 X3.1206 Y-2.5982 F100.00
G01 X3.1364 Y-2.6136 F100.00
G01 X3.1518 Y-2.6294 F100.00
G01 X3.1669 Y-2.6456 F100.00
G01 X3.1815 Y-2.6621 F100.00
G01 X3.1957 Y-2.6790 F100.00
G01 X3.2095 Y-2.6963 F100.00
G01 X3.2229 Y-2.7139 F100.00
G01 X3.2358 Y-2.7318 F100.00
G01 X3.2483 Y-2.7500 F100.00
G01 X3.2604 Y-2.7685 F100.00
G01 X3.2720 Y-2.7873 F100.00
G01 X3.2831 Y-2.8064 F100.00
G01 X3.2937 Y-2.8257 F100.00
G01 X3.3039 Y-2.8453 F100.00
G01 X3.3136 Y-2.8652 F100.00
G01 X3.3228 Y-2.8853 F100.00
G01 X3.3315 Y-2.9056 F100.00
G01 X3.3397 Y-2.9261 F100.00
G01 X3.3474 Y-2.9468 F100.00
G01 X3.3546 Y-2.9677 F100.00
G01 X3.3612 Y-2.9887 F100.00
G01 X3.3674 Y-3.0100 F100.00
G01 X3.3730 Y-3.0313 F100.00
G01 X3.3781 Y-3.0528 F100.00
G01 X3.3827 Y-3.0744 F100.00
G01 X3.3867 Y-3.0961 F100.00
G01 X3.3903 Y-3.1179 F100.00
G01 X3.3932 Y-3.1398 F100.00
G01 X3.3957 Y-3.1618 F100.00
G01 X3.3976 Y-3.1838 F100.00
G01 X3.3989 Y-3.2058 F100.00
G01 X3.3997 Y-3.2279 F100.00
G01 X3.4000 Y-3.2500 F100.00
G00 Z2.0000
G00 X1.2500 Y-43.8708
G01 F60.00
G01 Z-0.6000
G01 F100.00
G01 X1.3480 Y-43.6342 F100.00
G01 X1.4903 Y-43.4213 F100.00
G01 X1.6713 Y-43.2403 F100.00
G01 X1.8842 Y-43.0980 F100.00
G01 X2.1208 Y-43.0000 F100.00
G01 X2.3720 Y-42.9500 F100.00
G01 X2.6280 Y-42.9500 F100.00
G01 X2.8792 Y-43.0000 F100.00
G01 X3.1158 Y-43.0980 F100.00
G01 X3.3287 Y-43.2403 F100.00
G01 X3.5097 Y-43.4213 F100.00
G01 X3.6520 Y-43.6342 F100.00
G01 X3.7500 Y-43.8708 F100.00
G01 X3.8000 Y-44.1220 F100.00
G01 X3.8000 Y-44.3780 F100.00
G01 X3.7500 Y-44.6292 F100.00
G01 X3.6520 Y-44.8658 F100.00
G01 X3.5097 Y-45.0787 F100.00
G01 X3.3287 Y-45.2597 F100.00
G01 X3.1158 Y-45.4020 F100.00
G01 X2.8792 Y-45.5000 F100.00
G01 X2.6280 Y-45.5500 F100.00
G01 X2.3720 Y-45.5500 F100.00
G01 X2.1208 Y-45.5000 F100.00
G01 X1.8842 Y-45.4020 F100.00
G01 X1.6713 Y-45.2597 F100.00
G01 X1.4903 Y-45.0787 F100.00
G01 X1.3480 Y-44.8658 F100.00
G01 X1.2500 Y-44.6292 F100.00
G01 X1.2000 Y-44.3780 F100.00
G01 X1.2000 Y-44.1220 F100.00
G01 X1.2500 Y-43.8708 F100.00
G01 X2.8000 Y-44.2500 F100.00
G01 X2.7996 Y-44.2647 F100.00
G01 X2.7986 Y-44.2794 F100.00
G01 X2.7968 Y-44.2940 F100.00
G01 X2.7927 Y-44.3157 F100.00
G01 X2.7891 Y-44.3300 F100.00
G01 X2.7849 Y-44.3441 F100.00
G01 X2.7799 Y-44.3580 F100.00
G01 X2.7743 Y-44.3716 F100.00
G01 X2.7646 Y-44.3914 F100.00
G01 X2.7573 Y-44.4042 F100.00
G01 X2.7494 Y-44.4167 F100.00
G01 X2.7410 Y-44.4287 F100.00
G01 X2.7319 Y-44.4403 F100.00
G01 X2.7223 Y-44.4515 F100.00
G01 X2.7069 Y-44.4673 F100.00
G01 X2.6960 Y-44.4772 F100.00
G01 X2.6787 Y-44.4910 F100.00
G01 X2.6667 Y-44.4994 F100.00
G01 X2.6542 Y-44.5073 F100.00
G01 X2.6414 Y-44.5146 F100.00
G01 X2.6283 Y-44.5212 F100.00
G01 X2.6080 Y-44.5299 F100.00
G01 X2.5941 Y-44.5349 F100.00
G01 X2.5800 Y-44.5391 F100.00
G01 X2.5657 Y-44.5427 F100.00
G01 X2.5513 Y-44.5456 F100.00
G01 X2.5294 Y-44.5486 F100.00
G01 X2.5147 Y-44.5496 F100.00
G01 X2.5000 Y-44.5500 F100.00
G01 X2.4853 Y-44.5496 F100.00
G01 X2.4706 Y-44.5486 F100.00
G01 X2.4487 Y-44.5456 F100.00
G01 X2.4271 Y-44.5410 F100.00
G01 X2.4059 Y-44.5349 F100.00
G01 X2.3920 Y-44.5299 F100.00
G01 X2.3784 Y-44.5243 F100.00
G01 X2.3586 Y-44.5146 F100.00
G01 X2.3458 Y-44.5073 F100.00
G01 X2.3333 Y-44.4994 F100.00
G01 X2.3154 Y-44.4865 F100.00
G01 X2.3040 Y-44.4772 F100.00
G01 X2.2931 Y-44.4673 F100.00
G01 X2.2777 Y-44.4515 F100.00
G01 X2.2635 Y-44.4346 F100.00
G01 X2.2547 Y-44.4227 F100.00
G01 X2.2465 Y-44.4105 F100.00
G01 X2.2354 Y-44.3914 F100.00
G01 X2.2288 Y-44.3783 F100.00
G01 X2.2228 Y-44.3648 F100.00
G01 X2.2151 Y-44.3441 F100.00
G01 X2.2109 Y-44.3300 F100.00
G01 X2.2073 Y-44.3157 F100.00
G01 X2.2032 Y-44.2940 F100.00
G01 X2.2014 Y-44.2794 F100.00
G01 X2.2004 Y-44.2647 F100.00
G01 X2.2000 Y-44.2500 F100.00
G01 X2.2004 Y-44.2353 F100.00
G01 X2.2023 Y-44.2133 F100.00
G01 X2.2058 Y-44.1915 F100.00
G01 X2.2090 Y-44.1771 F100.00
G01 X2.2129 Y-44.1629 F100.00
G01 X2.2201 Y-44.1420 F100.00
G01 X2.2288 Y-44.1217 F100.00
G01 X2.2320 Y-44.1151 F100.00
G01 X2.2354 Y-44.1086 F100.00
G01 X2.2427 Y-44.0958 F100.00
G01 X2.2547 Y-44.0773 F100.00
G01 X2.2681 Y-44.0597 F100.00
G01 X2.2827 Y-44.0431 F100.00
G01 X2.2985 Y-44.0277 F100.00
G01 X2.3097 Y-44.0181 F100.00
G01 X2.3213 Y-44.0090 F100.00
G01 X2.3395 Y-43.9965 F100.00
G01 X2.3521 Y-43.9890 F100.00
G01 X2.3651 Y-43.9820 F100.00
G01 X2.3784 Y-43.9757 F100.00
G01 X2.3920 Y-43.9701 F100.00
G01 X2.4129 Y-43.9629 F100.00
G01 X2.4343 Y-43.9573 F100.00
G01 X2.4487 Y-43.9544 F100.00
G01 X2.4706 Y-43.9514 F100.00
G01 X2.4853 Y-43.9504 F100.00
G01 X2.5000 Y-43.9500 F100.00
G01 X2.5147 Y-43.9504 F100.00
G01 X2.5294 Y-43.9514 F100.00
G01 X2.5513 Y-43.9544 F100.00
G01 X2.5657 Y-43.9573 F100.00
G01 X2.5871 Y-43.9629 F100.00
G01 X2.6080 Y-43.9701 F100.00
G01 X2.6216 Y-43.9757 F100.00
G01 X2.6349 Y-43.9820 F100.00
G01 X2.6479 Y-43.9890 F100.00
G01 X2.6605 Y-43.9965 F100.00
G01 X2.6787 Y-44.0090 F100.00
G01 X2.6903 Y-44.0181 F100.00
G01 X2.7069 Y-44.0327 F100.00
G01 X2.7223 Y-44.0485 F100.00
G01 X2.7319 Y-44.0597 F100.00
G01 X2.7453 Y-44.0773 F100.00
G01 X2.7535 Y-44.0895 F100.00
G01 X2.7610 Y-44.1021 F100.00
G01 X2.7680 Y-44.1151 F100.00
G01 X2.7743 Y-44.1284 F100.00
G01 X2.7825 Y-44.1489 F100.00
G01 X2.7871 Y-44.1629 F100.00
G01 X2.7910 Y-44.1771 F100.00
G01 X2.7956 Y-44.1987 F100.00
G01 X2.7977 Y-44.2133 F100.00
G01 X2.7996 Y-44.2353 F100.00
G01 X2.8000 Y-44.2500 F100.00
G01 X3.4000 Y-44.2500 F100.00
G01 X3.3997 Y-44.2721 F100.00
G01 X3.3989 Y-44.2942 F100.00
G01 X3.3976 Y-44.3162 F100.00
G01 X3.3957 Y-44.3382 F100.00
G01 X3.3932 Y-44.3602 F100.00
G01 X3.3903 Y-44.3821 F100.00
G01 X3.3867 Y-44.4039 F100.00
G01 X3.3827 Y-44.4256 F100.00
G01 X3.3781 Y-44.4472 F100.00
G01 X3.3730 Y-44.4687 F100.00
G01 X3.3674 Y-44.4900 F100.00
G01 X3.3612 Y-44.5113 F100.00
G01 X3.3546 Y-44.5323 F100.00
G01 X3.3474 Y-44.5532 F100.00
G01 X3.3397 Y-44.5739 F100.00
G01 X3.3315 Y-44.5944 F100.00
G01 X3.3228 Y-44.6147 F100.00
G01 X3.3136 Y-44.6348 F100.00
G01 X3.3039 Y-44.6547 F100.00
G01 X3.2937 Y-44.6743 F100.00
G01 X3.2831 Y-44.6936 F100.00
G01 X3.2720 Y-44.7127 F100.00
G01 X3.2604 Y-44.7315 F100.00
G01 X3.2483 Y-44.7500 F100.00
G01 X3.2358 Y-44.7682 F100.00
G01 X3.2229 Y-44.7861 F100.00
G01 X3.2095 Y-44.8037 F100.00
G01 X3.1957 Y-44.8210 F100.00
G01 X3.1815 Y-44.8379 F100.00
G01 X3.1669 Y-44.8544 F100.00
G01 X3.1518 Y-44.8706 F100.00
G01 X3.1364 Y-44.8864 F100.00
G01 X3.1206 Y-44.9018 F100.00
G01 X3.1044 Y-44.9169 F100.00
G01 X3.0879 Y-44.9315 F100.00
G01 X3.0710 Y-44.9457 F100.00
G01 X3.0537 Y-44.9595 F100.00
G01 X3.0361 Y-44.9729 F100.00
G01 X3.0182 Y-44.9858 F100.00
G01 X3.0000 Y-44.9983 F100.00
G01 X2.9815 Y-45.0104 F100.00
G01 X2.9627 Y-45.0220 F100.00
G01 X2.9436 Y-45.0331 F100.00
G01 X2.9243 Y-45.0437 F100.00
G01 X2.9047 Y-45.0539 F100.00
G01 X2.8848 Y-45.0636 F100.00
G01 X2.8647 Y-45.0728 F100.00
G01 X2.8444 Y-45.0815 F100.00
G01 X2.8239 Y-45.0897 F100.00
G01 X2.8032 Y-45.0974 F100.00
G01 X2.7823 Y-45.1046 F100.00
G01 X2.7613 Y-45.1112 F100.00
G01 X2.7400 Y-45.1174 F100.00
G01 X2.7187 Y-45.1230 F100.00
G01 X2.6972 Y-45.1281 F100.00
G01 X2.6756 Y-45.1327 F100.00
G01 X2.6539 Y-45.1367 F100.00
G01 X2.6321 Y-45.1403 F100.00
G01 X2.6102 Y-45.1432 F100.00
G01 X2.5882 Y-45.1457 F100.00
G01 X2.5662 Y-45.1476 F100.00
G01 X2.5442 Y-45.1489 F100.00
G01 X2.5221 Y-45.1497 F100.00
G01 X2.5000 Y-45.1500 F100.00
G01 X2.4779 Y-45.1497 F100.00
G01 X2.4558 Y-45.1489 F100.00
G01 X2.4338 Y-45.1476 F100.00
G01 X2.4118 Y-45.1457 F100.00
G01 X2.3898 Y-45.1432 F100.00
G01 X2.3679 Y-45.1403 F100.00
G01 X2.3461 Y-45.1367 F100.00
G01 X2.3244 Y-45.1327 F100.00
G01 X2.3028 Y-45.1281 F100.00
G01 X2.2813 Y-45.1230 F100.00
G01 X2.2600 Y-45.1174 F100.00
G01 X2.2387 Y-45.1112 F100.00
G01 X2.2177 Y-45.1046 F100.00
G01 X2.1968 Y-45.0974 F100.00
G01 X2.1761 Y-45.0897 F100.00
G01 X2.1556 Y-45.0815 F100.00
G01 X2.1353 Y-45.0728 F100.00
G01 X2.1152 Y-45.0636 F100.00
G01 X2.0953 Y-45.0539 F100.00
G01 X2.0757 Y-45.0437 F100.00
G01 X2.0564 Y-45.0331 F100.00
G01 X2.0373 Y-45.0220 F100.00
G01 X2.0185 Y-45.0104 F100.00
G01 X2.0000 Y-44.9983 F100.00
G01 X1.9818 Y-44.9858 F100.00
G01 X1.9639 Y-44.9729 F100.00
G01 X1.9463 Y-44.9595 F100.00
G01 X1.9290 Y-44.9457 F100.00
G01 X1.9121 Y-44.9315 F100.00
G01 X1.8956 Y-44.9169 F100.00
G01 X1.8794 Y-44.9018 F100.00
G01 X1.8636 Y-44.8864 F100.00
G01 X1.8482 Y-44.8706 F100.00
G01 X1.8331 Y-44.8544 F100.00
G01 X1.8185 Y-44.8379 F100.00
G01 X1.8043 Y-44.8210 F100.00
G01 X1.7905 Y-44.8037 F100.00
G01 X1.7771 Y-44.7861 F100.00
G01 X1.7642 Y-44.7682 F100.00
G01 X1.7517 Y-44.7500 F100.00
G01 X1.7396 Y-44.7315 F100.00
G01 X1.7280 Y-44.7127 F100.00
G01 X1.7169 Y-44.6936 F100.00
G01 X1.7063 Y-44.6743 F100.00
G01 X1.6961 Y-44.6547 F100.00
G01 X1.6864 Y-44.6348 F100.00
G01 X1.6772 Y-44.6147 F100.00
G01 X1.6685 Y-44.5944 F100.00
G01 X1.6603 Y-44.5739 F100.00
G01 X1.6526 Y-44.5532 F100.00
G01 X1.6454 Y-44.5323 F100.00
G01 X1.6388 Y-44.5113 F100.00
G01 X1.6326 Y-44.4900 F100.00
G01 X1.6270 Y-44.4687 F100.00
G01 X1.6219 Y-44.4472 F100.00
G01 X1.6173 Y-44.4256 F100.00
G01 X1.6133 Y-44.4039 F100.00
G01 X1.6097 Y-44.3821 F100.00
G01 X1.6068 Y-44.3602 F100.00
G01 X1.6043 Y-44.3382 F100.00
G01 X1.6024 Y-44.3162 F100.00
G01 X1.6011 Y-44.2942 F100.00
G01 X1.6003 Y-44.2721 F100.00
G01 X1.6000 Y-44.2500 F100.00
G01 X1.6003 Y-44.2279 F100.00
G01 X1.6011 Y-44.2058 F100.00
G01 X1.6024 Y-44.1838 F100.00
G01 X1.6043 Y-44.1618 F100.00
G01 X1.6068 Y-44.1398 F100.00
G01 X1.6097 Y-44.1179 F100.00
G01 X1.6133 Y-44.0961 F100.00
G01 X1.6173 Y-44.0744 F100.00
G01 X1.6219 Y-44.0528 F100.00
G01 X1.6270 Y-44.0313 F100.00
G01 X1.6326 Y-44.0100 F100.00
G01 X1.6388 Y-43.9887 F100.00
G01 X1.6454 Y-43.9677 F100.00
G01 X1.6526 Y-43.9468 F100.00
G01 X1.6603 Y-43.9261 F100.00
G01 X1.6685 Y-43.9056 F100.00
G01 X1.6772 Y-43.8853 F100.00
G01 X1.6864 Y-43.8652 F100.00
G01 X1.6961 Y-43.8453 F100.00
G01 X1.7063 Y-43.8257 F100.00
G01 X1.7169 Y-43.8064 F100.00
G01 X1.7280 Y-43.7873 F100.00
G01 X1.7396 Y-43.7685 F100.00
G01 X1.7517 Y-43.7500 F100.00
G01 X1.7642 Y-43.7318 F100.00
G01 X1.7771 Y-43.7139 F100.00
G01 X1.7905 Y-43.6963 F100.00
G01 X1.8043 Y-43.6790 F100.00
G01 X1.8185 Y-43.6621 F100.00
G01 X1.8331 Y-43.6456 F100.00
G01 X1.8482 Y-43.6294 F100.00
G01 X1.8636 Y-43.6136 F100.00
G01 X1.8794 Y-43.5982 F100.00
G01 X1.8956 Y-43.5831 F100.00
G01 X1.9121 Y-43.5685 F100.00
G01 X1.9290 Y-43.5543 F100.00
G01 X1.9463 Y-43.5405 F100.00
G01 X1.9639 Y-43.5271 F100.00
G01 X1.9818 Y-43.5142 F100.00
G01 X2.0000 Y-43.5017 F100.00
G01 X2.0185 Y-43.4896 F100.00
G01 X2.0373 Y-43.4780 F100.00
G01 X2.0564 Y-43.4669 F100.00
G01 X2.0757 Y-43.4563 F100.00
G01 X2.0953 Y-43.4461 F100.00
G01 X2.1152 Y-43.4364 F100.00
G01 X2.1353 Y-43.4272 F100.00
G01 X2.1556 Y-43.4185 F100.00
G01 X2.1761 Y-43.4103 F100.00
G01 X2.1968 Y-43.4026 F100.00
G01 X2.2177 Y-43.3954 F100.00
G01 X2.2387 Y-43.3888 F100.00
G01 X2.2600 Y-43.3826 F100.00
G01 X2.2813 Y-43.3770 F100.00
G01 X2.3028 Y-43.3719 F100.00
G01 X2.3244 Y-43.3673 F100.00
G01 X2.3461 Y-43.3633 F100.00
G01 X2.3679 Y-43.3597 F100.00
G01 X2.3898 Y-43.3568 F100.00
G01 X2.4118 Y-43.3543 F100.00
G01 X2.4338 Y-43.3524 F100.00
G01 X2.4558 Y-43.3511 F100.00
G01 X2.4779 Y-43.3503 F100.00
G01 X2.5000 Y-43.3500 F100.00
G01 X2.5221 Y-43.3503 F100.00
G01 X2.5442 Y-43.3511 F100.00
G01 X2.5662 Y-43.3524 F100.00
G01 X2.5882 Y-43.3543 F100.00
G01 X2.6102 Y-43.3568 F100.00
G01 X2.6321 Y-43.3597 F100.00
G01 X2.6539 Y-43.3633 F100.00
G01 X2.6756 Y-43.3673 F100.00
G01 X2.6972 Y-43.3719 F100.00
G01 X2.7187 Y-43.3770 F100.00
G01 X2.7400 Y-43.3826 F100.00
G01 X2.7613 Y-43.3888 F100.00
G01 X2.7823 Y-43.3954 F100.00
G01 X2.8032 Y-43.4026 F100.00
G01 X2.8239 Y-43.4103 F100.00
G01 X2.8444 Y-43.4185 F100.00
G01 X2.8647 Y-43.4272 F100.00
G01 X2.8848 Y-43.4364 F100.00
G01 X2.9047 Y-43.4461 F100.00
G01 X2.9243 Y-43.4563 F100.00
G01 X2.9436 Y-43.4669 F100.00
G01 X2.9627 Y-43.4780 F100.00
G01 X2.9815 Y-43.4896 F100.00
G01 X3.0000 Y-43.5017 F100.00
G01 X3.0182 Y-43.5142 F100.00
G01 X3.0361 Y-43.5271 F100.00
G01 X3.0537 Y-43.5405 F100.00
G01 X3.0710 Y-43.5543 F100.00
G01 X3.0879 Y-43.5685 F100.00
G01 X3.1044 Y-43.5831 F100.00
G01 X3.1206 Y-43.5982 F100.00
G01 X3.1364 Y-43.6136 F100.00
G01 X3.1518 Y-43.6294 F100.00
G01 X3.1669 Y-43.6456 F100.00
G01 X3.1815 Y-43.6621 F100.00
G01 X3.1957 Y-43.6790 F100.00
G01 X3.2095 Y-43.6963 F100.00
G01 X3.2229 Y-43.7139 F100.00
G01 X3.2358 Y-43.7318 F100.00
G01 X3.2483 Y-43.7500 F100.00
G01 X3.2604 Y-43.7685 F100.00
G01 X3.2720 Y-43.7873 F100.00
G01 X3.2831 Y-43.8064 F100.00
G01 X3.2937 Y-43.8257 F100.00
G01 X3.3039 Y-43.8453 F100.00
G01 X3.3136 Y-43.8652 F100.00
G01 X3.3228 Y-43.8853 F100.00
G01 X3.3315 Y-43.9056 F100.00
G01 X3.3397 Y-43.9261 F100.00
G01 X3.3474 Y-43.9468 F100.00
G01 X3.3546 Y-43.9677 F100.00
G01 X3.3612 Y-43.9887 F100.00
G01 X3.3674 Y-44.0100 F100.00
G01 X3.3730 Y-44.0313 F100.00
G01 X3.3781 Y-44.0528 F100.00
G01 X3.3827 Y-44.0744 F100.00
G01 X3.3867 Y-44.0961 F100.00
G01 X3.3903 Y-44.1179 F100.00
G01 X3.3932 Y-44.1398 F100.00
G01 X3.3957 Y-44.1618 F100.00
G01 X3.3976 Y-44.1838 F100.00
G01 X3.3989 Y-44.2058 F100.00
G01 X3.3997 Y-44.2279 F100.00
G01 X3.4000 Y-44.2500 F100.00
G00 X3.4000 Y-44.2500
G01 F60.00
G01 Z-1.2000
G01 F100.00
G01 X3.3997 Y-44.2279 F100.00
G01 X3.3989 Y-44.2058 F100.00
G01 X3.3976 Y-44.1838 F100.00
G01 X3.3957 Y-44.1618 F100.00
G01 X3.3932 Y-44.1398 F100.00
G01 X3.3903 Y-44.1179 F100.00
G01 X3.3867 Y-44.0961 F100.00
G01 X3.3827 Y-44.0744 F100.00
G01 X3.3781 Y-44.0528 F100.00
G01 X3.3730 Y-44.0313 F100.00
G01 X3.3674 Y-44.0100 F100.00
G01 X3.3612 Y-43.9887 F100.00
G01 X3.3546 Y-43.9677 F100.00
G01 X3.3474 Y-43.9468 F100.00
G01 X3.3397 Y-43.9261 F100.00
G01 X3.3315 Y-43.9056 F100.00
G01 X3.3228 Y-43.8853 F100.00
G01 X3.3136 Y-43.8652 F100.00
G01 X3.3039 Y-43.8453 F100.00
G01 X3.2937 Y-43.8257 F100.00
G01 X3.2831 Y-43.8064 F100.00
G01 X3.2720 Y-43.7873 F100.00
G01 X3.2604 Y-43.7685 F100.00
G01 X3.2483 Y-43.7500 F100.00
G01 X3.2358 Y-43.7318 F100.00
G01 X3.2229 Y-43.7139 F100.00
G01 X3.2095 Y-43.6963 F100.00
G01 X3.1957 Y-43.6790 F100.00
G01 X3.1815 Y-43.6621 F100.00
G01 X3.1669 Y-43.6456 F100.00
G01 X3.1518 Y-43.6294 F100.00
G01 X3.1364 Y-43.6136 F100.00
G01 X3.1206 Y-43.5982 F100.00
G01 X3.1044 Y-43.5831 F100.00
G01 X3.0879 Y-43.5685 F100.00
G01 X3.0710 Y-43.5543 F100.00
G01 X3.0537 Y-43.5405 F100.00
G01 X3.0361 Y-43.5271 F100.00
G01 X3.0182 Y-43.5142 F100.00
G01 X3.0000 Y-43.5017 F100.00
G01 X2.9815 Y-43.4896 F100.00
G01 X2.9627 Y-43.4780 F100.00
G01 X2.9436 Y-43.4669 F100.00
G01 X2.9243 Y-43.4563 F100.00
G01 X2.9047 Y-43.4461 F100.00
G01 X2.8848 Y-43.4364 F100.00
G01 X2.8647 Y-43.4272 F100.00
G01 X2.8444 Y-43.4185 F100.00
G01 X2.8239 Y-43.4103 F100.00
G01 X2.8032 Y-43.4026 F100.00
G01 X2.7823 Y-43.3954 F100.00
G01 X2.7613 Y-43.3888 F100.00
G01 X2.7400 Y-43.3826 F100.00
G01 X2.7187 Y-43.3770 F100.00
G01 X2.6972 Y-43.3719 F100.00
G01 X2.6756 Y-43.3673 F100.00
G01 X2.6539 Y-43.3633 F100.00
G01 X2.6321 Y-43.3597 F100.00
G01 X2.6102 Y-43.3568 F100.00
G01 X2.5882 Y-43.3543 F100.00
G01 X2.5662 Y-43.3524 F100.00
G01 X2.5442 Y-43.3511 F100.00
G01 X2.5221 Y-43.3503 F100.00
G01 X2.5000 Y-43.3500 F100.00
G01 X2.4779 Y-43.3503 F100.00
G01 X2.4558 Y-43.3511 F100.00
G01 X2.4338 Y-43.3524 F100.00
G01 X2.4118 Y-43.3543 F100.00
G01 X2.3898 Y-43.3568 F100.00
G01 X2.3679 Y-43.3597 F100.00
G01 X2.3461 Y-43.3633 F100.00
G01 X2.3244 Y-43.3673 F100.00
G01 X2.3028 Y-43.3719 F100.00
G01 X2.2813 Y-43.3770 F100.00
G01 X2.2600 Y-43.3826 F100.00
G01 X2.2387 Y-43.3888 F100.00
G01 X2.2177 Y-43.3954 F100.00
G01 X2.1968 Y-43.4026 F100.00
G01 X2.1761 Y-43.4103 F100.00
G01 X2.1556 Y-43.4185 F100.00
G01 X2.1353 Y-43.4272 F100.00
G01 X2.1152 Y-43.4364 F100.00
G01 X2.0953 Y-43.4461 F100.00
G01 X2.0757 Y-43.4563 F100.00
G01 X2.0564 Y-43.4669 F100.00
G01 X2.0373 Y-43.4780 F100.00
G01 X2.0185 Y-43.4896 F100.00
G01 X2.0000 Y-43.5017 F100.00
G01 X1.9818 Y-43.5142 F100.00
G01 X1.9639 Y-43.5271 F100.00
G01 X1.9463 Y-43.5405 F100.00
G01 X1.9290 Y-43.5543 F100.00
G01 X1.9121 Y-43.5685 F100.00
G01 X1.8956 Y-43.5831 F100.00
G01 X1.8794 Y-43.5982 F100.00
G01 X1.8636 Y-43.6136 F100.00
G01 X1.8482 Y-43.6294 F100.00
G01 X1.8331 Y-43.6456 F100.00
G01 X1.8185 Y-43.6621 F100.00
G01 X1.8043 Y-43.6790 F100.00
G01 X1.7905 Y-43.6963 F100.00
G01 X1.7771 Y-43.7139 F100.00
G01 X1.7642 Y-43.7318 F100.00
G01 X1.7517 Y-43.7500 F100.00
G01 X1.7396 Y-43.7685 F100.00
G01 X1.7280 Y-43.7873 F100.00
G01 X1.7169 Y-43.8064 F100.00
G01 X1.7063 Y-43.8257 F100.00
G01 X1.6961 Y-43.8453 F100.00
G01 X1.6864 Y-43.8652 F100.00
G01 X1.6772 Y-43.8853 F100.00
G01 X1.6685 Y-43.9056 F100.00
G01 X1.6603 Y-43.9261 F100.00
G01 X1.6526 Y-43.9468 F100.00
G01 X1.6454 Y-43.9677 F100.00
G01 X1.6388 Y-43.9887 F100.00
G01 X1.6326 Y-44.0100 F100.00
G01 X1.6270 Y-44.0313 F100.00
G01 X1.6219 Y-44.0528 F100.00
G01 X1.6173 Y-44.0744 F100.00
G01 X1.6133 Y-44.0961 F100.00
G01 X1.6097 Y-44.1179 F100.00
G01 X1.6068 Y-44.1398 F100.00
G01 X1.6043 Y-44.1618 F100.00
G01 X1.6024 Y-44.1838 F100.00
G01 X1.6011 Y-44.2058 F100.00
G01 X1.6003 Y-44.2279 F100.00
G01 X1.6000 Y-44.2500 F100.00
G01 X1.6003 Y-44.2721 F100.00
G01 X1.6011 Y-44.2942 F100.00
G01 X1.6024 Y-44.3162 F100.00
G01 X1.6043 Y-44.3382 F100.00
G01 X1.6068 Y-44.3602 F100.00
G01 X1.6097 Y-44.3821 F100.00
G01 X1.6133 Y-44.4039 F100.00
G01 X1.6173 Y-44.4256 F100.00
G01 X1.6219 Y-44.4472 F100.00
G01 X1.6270 Y-44.4687 F100.00
G01 X1.6326 Y-44.4900 F100.00
G01 X1.6388 Y-44.5113 F100.00
G01 X1.6454 Y-44.5323 F100.00
G01 X1.6526 Y-44.5532 F100.00
G01 X1.6603 Y-44.5739 F100.00
G01 X1.6685 Y-44.5944 F100.00
G01 X1.6772 Y-44.6147 F100.00
G01 X1.6864 Y-44.6348 F100.00
G01 X1.6961 Y-44.6547 F100.00
G01 X1.7063 Y-44.6743 F100.00
G01 X1.7169 Y-44.6936 F100.00
G01 X1.7280 Y-44.7127 F100.00
G01 X1.7396 Y-44.7315 F100.00
G01 X1.7517 Y-44.7500 F100.00
G01 X1.7642 Y-44.7682 F100.00
G01 X1.7771 Y-44.7861 F100.00
G01 X1.7905 Y-44.8037 F100.00
G01 X1.8043 Y-44.8210 F100.00
G01 X1.8185 Y-44.8379 F100.00
G01 X1.8331 Y-44.8544 F100.00
G01 X1.8482 Y-44.8706 F100.00
G01 X1.8636 Y-44.8864 F100.00
G01 X1.8794 Y-44.9018 F100.00
G01 X1.8956 Y-44.9169 F100.00
G01 X1.9121 Y-44.9315 F100.00
G01 X1.9290 Y-44.9457 F100.00
G01 X1.9463 Y-44.9595 F100.00
G01 X1.9639 Y-44.9729 F100.00
G01 X1.9818 Y-44.9858 F100.00
G01 X2.0000 Y-44.9983 F100.00
G01 X2.0185 Y-45.0104 F100.00
G01 X2.0373 Y-45.0220 F100.00
G01 X2.0564 Y-45.0331 F100.00
G01 X2.0757 Y-45.0437 F100.00
G01 X2.0953 Y-45.0539 F100.00
G01 X2.1152 Y-45.0636 F100.00
G01 X2.1353 Y-45.0728 F100.00
G01 X2.1556 Y-45.0815 F100.00
G01 X2.1761 Y-45.0897 F100.00
G01 X2.1968 Y-45.0974 F100.00
G01 X2.2177 Y-45.1046 F100.00
G01 X2.2387 Y-45.1112 F100.00
G01 X2.2600 Y-45.1174 F100.00
G01 X2.2813 Y-45.1230 F100.00
G01 X2.3028 Y-45.1281 F100.00
G01 X2.3244 Y-45.1327 F100.00
G01 X2.3461 Y-45.1367 F100.00
G01 X2.3679 Y-45.1403 F100.00
G01 X2.3898 Y-45.1432 F100.00
G01 X2.4118 Y-45.1457 F100.00
G01 X2.4338 Y-45.1476 F100.00
G01 X2.4558 Y-45.1489 F100.00
G01 X2.4779 Y-45.1497 F100.00
G01 X2.5000 Y-45.1500 F100.00
G01 X2.5221 Y-45.1497 F100.00
G01 X2.5442 Y-45.1489 F100.00
G01 X2.5662 Y-45.1476 F100.00
G01 X2.5882 Y-45.1457 F100.00
G01 X2.6102 Y-45.1432 F100.00
G01 X2.6321 Y-45.1403 F100.00
G01 X2.6539 Y-45.1367 F100.00
G01 X2.6756 Y-45.1327 F100.00
G01 X2.6972 Y-45.1281 F100.00
G01 X2.7187 Y-45.1230 F100.00
G01 X2.7400 Y-45.1174 F100.00
G01 X2.7613 Y-45.1112 F100.00
G01 X2.7823 Y-45.1046 F100.00
G01 X2.8032 Y-45.0974 F100.00
G01 X2.8239 Y-45.0897 F100.00
G01 X2.8444 Y-45.0815 F100.00
G01 X2.8647 Y-45.0728 F100.00
G01 X2.8848 Y-45.0636 F100.00
G01 X2.9047 Y-45.0539 F100.00
G01 X2.9243 Y-45.0437 F100.00
G01 X2.9436 Y-45.0331 F100.00
G01 X2.9627 Y-45.0220 F100.00
G01 X2.9815 Y-45.0104 F100.00
G01 X3.0000 Y-44.9983 F100.00
G01 X3.0182 Y-44.9858 F100.00
G01 X3.0361 Y-44.9729 F100.00
G01 X3.0537 Y-44.9595 F100.00
G01 X3.0710 Y-44.9457 F100.00
G01 X3.0879 Y-44.9315 F100.00
G01 X3.1044 Y-44.9169 F100.00
G01 X3.1206 Y-44.9018 F100.00
G01 X3.1364 Y-44.8864 F100.00
G01 X3.1518 Y-44.8706 F100.00
G01 X3.1669 Y-44.8544 F100.00
G01 X3.1815 Y-44.8379 F100.00
G01 X3.1957 Y-44.8210 F100.00
G01 X3.2095 Y-44.8037 F100.00
G01 X3.2229 Y-44.7861 F100.00
G01 X3.2358 Y-44.7682 F100.00
G01 X3.2483 Y-44.7500 F100.00
G01 X3.2604 Y-44.7315 F100.00
G01 X3.2720 Y-44.7127 F100.00
G01 X3.2831 Y-44.6936 F100.00
G01 X3.2937 Y-44.6743 F100.00
G01 X3.3039 Y-44.6547 F100.00
G01 X3.3136 Y-44.6348 F100.00
G01 X3.3228 Y-44.6147 F100.00
G01 X3.3315 Y-44.5944 F100.00
G01 X3.3397 Y-44.5739 F100.00
G01 X3.3474 Y-44.5532 F100.00
G01 X3.3546 Y-44.5323 F100.00
G01 X3.3612 Y-44.5113 F100.00
G01 X3.3674 Y-44.4900 F100.00
G01 X3.3730 Y-44.4687 F100.00
G01 X3.3781 Y-44.4472 F100.00
G01 X3.3827 Y-44.4256 F100.00
G01 X3.3867 Y-44.4039 F100.00
G01 X3.3903 Y-44.3821 F100.00
G01 X3.3932 Y-44.3602 F100.00
G01 X3.3957 Y-44.3382 F100.00
G01 X3.3976 Y-44.3162 F100.00
G01 X3.3989 Y-44.2942 F100.00
G01 X3.3997 Y-44.2721 F100.00
G01 X3.4000 Y-44.2500 F100.00
G01 X2.8000 Y-44.2500 F100.00
G01 X2.7996 Y-44.2353 F100.00
G01 X2.7977 Y-44.2133 F100.00
G01 X2.7956 Y-44.1987 F100.00
G01 X2.7910 Y-44.1771 F100.00
G01 X2.7871 Y-44.1629 F100.00
G01 X2.7825 Y-44.1489 F100.00
G01 X2.7743 Y-44.1284 F100.00
G01 X2.7680 Y-44.1151 F100.00
G01 X2.7610 Y-44.1021 F100.00
G01 X2.7535 Y-44.0895 F100.00
G01 X2.7453 Y-44.0773 F100.00
G01 X2.7319 Y-44.0597 F100.00
G01 X2.7223 Y-44.0485 F100.00
G01 X2.7069 Y-44.0327 F100.00
G01 X2.6903 Y-44.0181 F100.00
G01 X2.6787 Y-44.0090 F100.00
G01 X2.6605 Y-43.9965 F100.00
G01 X2.6479 Y-43.9890 F100.00
G01 X2.6349 Y-43.9820 F100.00
G01 X2.6216 Y-43.9757 F100.00
G01 X2.6080 Y-43.9701 F100.00
G01 X2.5871 Y-43.9629 F100.00
G01 X2.5657 Y-43.9573 F100.00
G01 X2.5513 Y-43.9544 F100.00
G01 X2.5294 Y-43.9514 F100.00
G01 X2.5147 Y-43.9504 F100.00
G01 X2.5000 Y-43.9500 F100.00
G01 X2.4853 Y-43.9504 F100.00
G01 X2.4706 Y-43.9514 F100.00
G01 X2.4487 Y-43.9544 F100.00
G01 X2.4343 Y-43.9573 F100.00
G01 X2.4129 Y-43.9629 F100.00
G01 X2.3920 Y-43.9701 F100.00
G01 X2.3784 Y-43.9757 F100.00
G01 X2.3651 Y-43.9820 F100.00
G01 X2.3521 Y-43.9890 F100.00
G01 X2.3395 Y-43.9965 F100.00
G01 X2.3213 Y-44.0090 F100.00
G01 X2.3097 Y-44.0181 F100.00
G01 X2.2985 Y-44.0277 F100.00
G01 X2.2827 Y-44.0431 F100.00
G01 X2.2681 Y-44.0597 F100.00
G01 X2.2547 Y-44.0773 F100.00
G01 X2.2427 Y-44.0958 F100.00
G01 X2.2354 Y-44.1086 F100.00
G01 X2.2320 Y-44.1151 F100.00
G01 X2.2288 Y-44.1217 F100.00
G01 X2.2201 Y-44.1420 F100.00
G01 X2.2129 Y-44.1629 F100.00
G01 X2.2090 Y-44.1771 F100.00
G01 X2.2058 Y-44.1915 F100.00
G01 X2.2023 Y-44.2133 F100.00
G01 X2.2004 Y-44.2353 F100.00
G01 X2.2000 Y-44.2500 F100.00
G01 X2.2004 Y-44.2647 F100.00
G01 X2.2014 Y-44.2794 F100.00
G01 X2.2032 Y-44.2940 F100.00
G01 X2.2073 Y-44.3157 F100.00
G01 X2.2109 Y-44.3300 F100.00
G01 X2.2151 Y-44.3441 F100.00
G01 X2.2228 Y-44.3648 F100.00
G01 X2.2288 Y-44.3783 F100.00
G01 X2.2354 Y-44.3914 F100.00
G01 X2.2465 Y-44.4105 F100.00
G01 X2.2547 Y-44.4227 F100.00
G01 X2.2635 Y-44.4346 F100.00
G01 X2.2777 Y-44.4515 F100.00
G01 X2.2931 Y-44.4673 F100.00
G01 X2.3040 Y-44.4772 F100.00
G01 X2.3154 Y-44.4865 F100.00
G01 X2.3333 Y-44.4994 F100.00
G01 X2.3458 Y-44.5073 F100.00
G01 X2.3586 Y-44.5146 F100.00
G01 X2.3784 Y-44.5243 F100.00
G01 X2.3920 Y-44.5299 F100.00
G01 X2.4059 Y-44.5349 F100.00
G01 X2.4271 Y-44.5410 F100.00
G01 X2.4487 Y-44.5456 F100.00
G01 X2.4706 Y-44.5486 F100.00
G01 X2.4853 Y-44.5496 F100.00
G01 X2.5000 Y-44.5500 F100.00
G01 X2.5147 Y-44.5496 F100.00
G01 X2.5294 Y-44.5486 F100.00
G01 X2.5513 Y-44.5456 F100.00
G01 X2.5657 Y-44.5427 F100.00
G01 X2.5800 Y-44.5391 F100.00
G01 X2.5941 Y-44.5349 F100.00
G01 X2.6080 Y-44.5299 F100.00
G01 X2.6283 Y-44.5212 F100.00
G01 X2.6414 Y-44.5146 F100.00
G01 X2.6542 Y-44.5073 F100.00
G01 X2.6667 Y-44.4994 F100.00
G01 X2.6787 Y-44.4910 F100.00
G01 X2.6960 Y-44.4772 F100.00
G01 X2.7069 Y-44.4673 F100.00
G01 X2.7223 Y-44.4515 F100.00
G01 X2.7319 Y-44.4403 F100.00
G01 X2.7410 Y-44.4287 F100.00
G01 X2.7494 Y-44.4167 F100.00
G01 X2.7573 Y-44.4042 F100.00
G01 X2.7646 Y-44.3914 F100.00
G01 X2.7743 Y-44.3716 F100.00
G01 X2.7799 Y-44.3580 F100.00
G01 X2.7849 Y-44.3441 F100.00
G01 X2.7891 Y-44.3300 F100.00
G01 X2.7927 Y-44.3157 F100.00
G01 X2.7968 Y-44.2940 F100.00
G01 X2.7986 Y-44.2794 F100.00
G01 X2.7996 Y-44.2647 F100.00
G01 X2.8000 Y-44.2500 F100.00
G01 X1.2500 Y-43.8708 F100.00
G01 X1.2000 Y-44.1220 F100.00
G01 X1.2000 Y-44.3780 F100.00
G01 X1.2500 Y-44.6292 F100.00
G01 X1.3480 Y-44.8658 F100.00
G01 X1.4903 Y-45.0787 F100.00
G01 X1.6713 Y-45.2597 F100.00
G01 X1.8842 Y-45.4020 F100.00
G01 X2.1208 Y-45.5000 F100.00
G01 X2.3720 Y-45.5500 F100.00
G01 X2.6280 Y-45.5500 F100.00
G01 X2.8792 Y-45.5000 F100.00
G01 X3.1158 Y-45.4020 F100.00
G01 X3.3287 Y-45.2597 F100.00
G01 X3.5097 Y-45.0787 F100.00
G01 X3.6520 Y-44.8658 F100.00
G01 X3.7500 Y-44.6292 F100.00
G01 X3.8000 Y-44.3780 F100.00
G01 X3.8000 Y-44.1220 F100.00
G01 X3.7500 Y-43.8708 F100.00
G01 X3.6520 Y-43.6342 F100.00
G01 X3.5097 Y-43.4213 F100.00
G01 X3.3287 Y-43.2403 F100.00
G01 X3.1158 Y-43.0980 F100.00
G01 X2.8792 Y-43.0000 F100.00
G01 X2.6280 Y-42.9500 F100.00
G01 X2.3720 Y-42.9500 F100.00
G01 X2.1208 Y-43.0000 F100.00
G01 X1.8842 Y-43.0980 F100.00
G01 X1.6713 Y-43.2403 F100.00
G01 X1.4903 Y-43.4213 F100.00
G01 X1.3480 Y-43.6342 F100.00
G01 X1.2500 Y-43.8708 F100.00
G00 X1.2500 Y-43.8708
G01 F60.00
G01 Z-1.8000
G01 F100.00
G01 X1.3480 Y-43.6342 F100.00
G01 X1.4903 Y-43.4213 F100.00
G01 X1.6713 Y-43.2403 F100.00
G01 X1.8842 Y-43.0980 F100.00
G01 X2.1208 Y-43.0000 F100.00
G01 X2.3720 Y-42.9500 F100.00
G01 X2.6280 Y-42.9500 F100.00
G01 X2.8792 Y-43.0000 F100.00
G01 X3.1158 Y-43.0980 F100.00
G01 X3.3287 Y-43.2403 F100.00
G01 X3.5097 Y-43.4213 F100.00
G01 X3.6520 Y-43.6342 F100.00
G01 X3.7500 Y-43.8708 F100.00
G01 X3.8000 Y-44.1220 F100.00
G01 X3.8000 Y-44.3780 F100.00
G01 X3.7500 Y-44.6292 F100.00
G01 X3.6520 Y-44.8658 F100.00
G01 X3.5097 Y-45.0787 F100.00
G01 X3.3287 Y-45.2597 F100.00
G01 X3.1158 Y-45.4020 F100.00
G01 X2.8792 Y-45.5000 F100.00
G01 X2.6280 Y-45.5500 F100.00
G01 X2.3720 Y-45.5500 F100.00
G01 X2.1208 Y-45.5000 F100.00
G01 X1.8842 Y-45.4020 F100.00
G01 X1.6713 Y-45.2597 F100.00
G01 X1.4903 Y-45.0787 F100.00
G01 X1.3480 Y-44.8658 F100.00
G01 X1.2500 Y-44.6292 F100.00
G01 X1.2000 Y-44.3780 F100.00
G01 X1.2000 Y-44.1220 F100.00
G01 X1.2500 Y-43.8708 F100.00
G01 X2.8000 Y-44.2500 F100.00
G01 X2.7996 Y-44.2647 F100.00
G01 X2.7986 Y-44.2794 F100.00
G01 X2.7968 Y-44.2940 F100.00
G01 X2.7927 Y-44.3157 F100.00
G01 X2.7891 Y-44.3300 F100.00
G01 X2.7849 Y-44.3441 F100.00
G01 X2.7799 Y-44.3580 F100.00
G01 X2.7743 Y-44.3716 F100.00
G01 X2.7646 Y-44.3914 F100.00
G01 X2.7573 Y-44.4042 F100.00
G01 X2.7494 Y-44.4167 F100.00
G01 X2.7410 Y-44.4287 F100.00
G01 X2.7319 Y-44.4403 F100.00
G01 X2.7223 Y-44.4515 F100.00
G01 X2.7069 Y-44.4673 F100.00
G01 X2.6960 Y-44.4772 F100.00
G01 X2.6787 Y-44.4910 F100.00
G01 X2.6667 Y-44.4994 F100.00
G01 X2.6542 Y-44.5073 F100.00
G01 X2.6414 Y-44.5146 F100.00
G01 X2.6283 Y-44.5212 F100.00
G01 X2.6080 Y-44.5299 F100.00
G01 X2.5941 Y-44.5349 F100.00
G01 X2.5800 Y-44.5391 F100.00
G01 X2.5657 Y-44.5427 F100.00
G01 X2.5513 Y-44.5456 F100.00
G01 X2.5294 Y-44.5486 F100.00
G01 X2.5147 Y-44.5496 F100.00
G01 X2.5000 Y-44.5500 F100.00
G01 X2.4853 Y-44.5496 F100.00
G01 X2.4706 Y-44.5486 F100.00
G01 X2.4487 Y-44.5456 F100.00
G01 X2.4271 Y-44.5410 F100.00
G01 X2.4059 Y-44.5349 F100.00
G01 X2.3920 Y-44.5299 F100.00
G01 X2.3784 Y-44.5243 F100.00
G01 X2.3586 Y-44.5146 F100.00
G01 X2.3458 Y-44.5073 F100.00
G01 X2.3333 Y-44.4994 F100.00
G01 X2.3154 Y-44.4865 F100.00
G01 X2.3040 Y-44.4772 F100.00
G01 X2.2931 Y-44.4673 F100.00
G01 X2.2777 Y-44.4515 F100.00
G01 X2.2635 Y-44.4346 F100.00
G01 X2.2547 Y-44.4227 F100.00
G01 X2.2465 Y-44.4105 F100.00
G01 X2.2354 Y-44.3914 F100.00
G01 X2.2288 Y-44.3783 F100.00
G01 X2.2228 Y-44.3648 F100.00
G01 X2.2151 Y-44.3441 F100.00
G01 X2.2109 Y-44.3300 F100.00
G01 X2.2073 Y-44.3157 F100.00
G01 X2.2032 Y-44.2940 F100.00
G01 X2.2014 Y-44.2794 F100.00
G01 X2.2004 Y-44.2647 F100.00
G01 X2.2000 Y-44.2500 F100.00
G01 X2.2004 Y-44.2353 F100.00
G01 X2.2023 Y-44.2133 F100.00
G01 X2.2058 Y-44.1915 F100.00
G01 X2.2090 Y-44.1771 F100.00
G01 X2.2129 Y-44.1629 F100.00
G01 X2.2201 Y-44.1420 F100.00
G01 X2.2288 Y-44.1217 F100.00
G01 X2.2320 Y-44.1151 F100.00
G01 X2.2354 Y-44.1086 F100.00
G01 X2.2427 Y-44.0958 F100.00
G01 X2.2547 Y-44.0773 F100.00
G01 X2.2681 Y-44.0597 F100.00
G01 X2.2827 Y-44.0431 F100.00
G01 X2.2985 Y-44.0277 F100.00
G01 X2.3097 Y-44.0181 F100.00
G01 X2.3213 Y-44.0090 F100.00
G01 X2.3395 Y-43.9965 F100.00
G01 X2.3521 Y-43.9890 F100.00
G01 X2.3651 Y-43.9820 F100.00
G01 X2.3784 Y-43.9757 F100.00
G01 X2.3920 Y-43.9701 F100.00
G01 X2.4129 Y-43.9629 F100.00
G01 X2.4343 Y-43.9573 F100.00
G01 X2.4487 Y-43.9544 F100.00
G01 X2.4706 Y-43.9514 F100.00
G01 X2.4853 Y-43.9504 F100.00
G01 X2.5000 Y-43.9500 F100.00
G01 X2.5147 Y-43.9504 F100.00
G01 X2.5294 Y-43.9514 F100.00
G01 X2.5513 Y-43.9544 F100.00
G01 X2.5657 Y-43.9573 F100.00
G01 X2.5871 Y-43.9629 F100.00
G01 X2.6080 Y-43.9701 F100.00
G01 X2.6216 Y-43.9757 F100.00
G01 X2.6349 Y-43.9820 F100.00
G01 X2.6479 Y-43.9890 F100.00
G01 X2.6605 Y-43.9965 F100.00
G01 X2.6787 Y-44.0090 F100.00
G01 X2.6903 Y-44.0181 F100.00
G01 X2.7069 Y-44.0327 F100.00
G01 X2.7223 Y-44.0485 F100.00
G01 X2.7319 Y-44.0597 F100.00
G01 X2.7453 Y-44.0773 F100.00
G01 X2.7535 Y-44.0895 F100.00
G01 X2.7610 Y-44.1021 F100.00
G01 X2.7680 Y-44.1151 F100.00
G01 X2.7743 Y-44.1284 F100.00
G01 X2.7825 Y-44.1489 F100.00
G01 X2.7871 Y-44.1629 F100.00
G01 X2.7910 Y-44.1771 F100.00
G01 X2.7956 Y-44.1987 F100.00
G01 X2.7977 Y-44.2133 F100.00
G01 X2.7996 Y-44.2353 F100.00
G01 X2.8000 Y-44.2500 F100.00
G01 X3.4000 Y-44.2500 F100.00
G01 X3.3997 Y-44.2721 F100.00
G01 X3.3989 Y-44.2942 F100.00
G01 X3.3976 Y-44.3162 F100.00
G01 X3.3957 Y-44.3382 F100.00
G01 X3.3932 Y-44.3602 F100.00
G01 X3.3903 Y-44.3821 F100.00
G01 X3.3867 Y-44.4039 F100.00
G01 X3.3827 Y-44.4256 F100.00
G01 X3.3781 Y-44.4472 F100.00
G01 X3.3730 Y-44.4687 F100.00
G01 X3.3674 Y-44.4900 F100.00
G01 X3.3612 Y-44.5113 F100.00
G01 X3.3546 Y-44.5323 F100.00
G01 X3.3474 Y-44.5532 F100.00
G01 X3.3397 Y-44.5739 F100.00
G01 X3.3315 Y-44.5944 F100.00
G01 X3.3228 Y-44.6147 F100.00
G01 X3.3136 Y-44.6348 F100.00
G01 X3.3039 Y-44.6547 F100.00
G01 X3.2937 Y-44.6743 F100.00
G01 X3.2831 Y-44.6936 F100.00
G01 X3.2720 Y-44.7127 F100.00
G01 X3.2604 Y-44.7315 F100.00
G01 X3.2483 Y-44.7500 F100.00
G01 X3.2358 Y-44.7682 F100.00
G01 X3.2229 Y-44.7861 F100.00
G01 X3.2095 Y-44.8037 F100.00
G01 X3.1957 Y-44.8210 F100.00
G01 X3.1815 Y-44.8379 F100.00
G01 X3.1669 Y-44.8544 F100.00
G01 X3.1518 Y-44.8706 F100.00
G01 X3.1364 Y-44.8864 F100.00
G01 X3.1206 Y-44.9018 F100.00
G01 X3.1044 Y-44.9169 F100.00
G01 X3.0879 Y-44.9315 F100.00
G01 X3.0710 Y-44.9457 F100.00
G01 X3.0537 Y-44.9595 F100.00
G01 X3.0361 Y-44.9729 F100.00
G01 X3.0182 Y-44.9858 F100.00
G01 X3.0000 Y-44.9983 F100.00
G01 X2.9815 Y-45.0104 F100.00
G01 X2.9627 Y-45.0220 F100.00
G01 X2.9436 Y-45.0331 F100.00
G01 X2.9243 Y-45.0437 F100.00
G01 X2.9047 Y-45.0539 F100.00
G01 X2.8848 Y-45.0636 F100.00
G01 X2.8647 Y-45.0728 F100.00
G01 X2.8444 Y-45.0815 F100.00
G01 X2.8239 Y-45.0897 F100.00
G01 X2.8032 Y-45.0974 F100.00
G01 X2.7823 Y-45.1046 F100.00
G01 X2.7613 Y-45.1112 F100.00
G01 X2.7400 Y-45.1174 F100.00
G01 X2.7187 Y-45.1230 F100.00
G01 X2.6972 Y-45.1281 F100.00
G01 X2.6756 Y-45.1327 F100.00
G01 X2.6539 Y-45.1367 F100.00
G01 X2.6321 Y-45.1403 F100.00
G01 X2.6102 Y-45.1432 F100.00
G01 X2.5882 Y-45.1457 F100.00
G01 X2.5662 Y-45.1476 F100.00
G01 X2.5442 Y-45.1489 F100.00
G01 X2.5221 Y-45.1497 F100.00
G01 X2.5000 Y-45.1500 F100.00
G01 X2.4779 Y-45.1497 F100.00
G01 X2.4558 Y-45.1489 F100.00
G01 X2.4338 Y-45.1476 F100.00
G01 X2.4118 Y-45.1457 F100.00
G01 X2.3898 Y-45.1432 F100.00
G01 X2.3679 Y-45.1403 F100.00
G01 X2.3461 Y-45.1367 F100.00
G01 X2.3244 Y-45.1327 F100.00
G01 X2.3028 Y-45.1281 F100.00
G01 X2.2813 Y-45.1230 F100.00
G01 X2.2600 Y-45.1174 F100.00
G01 X2.2387 Y-45.1112 F100.00
G01 X2.2177 Y-45.1046 F100.00
G01 X2.1968 Y-45.0974 F100.00
G01 X2.1761 Y-45.0897 F100.00
G01 X2.1556 Y-45.0815 F100.00
G01 X2.1353 Y-45.0728 F100.00
G01 X2.1152 Y-45.0636 F100.00
G01 X2.0953 Y-45.0539 F100.00
G01 X2.0757 Y-45.0437 F100.00
G01 X2.0564 Y-45.0331 F100.00
G01 X2.0373 Y-45.0220 F100.00
G01 X2.0185 Y-45.0104 F100.00
G01 X2.0000 Y-44.9983 F100.00
G01 X1.9818 Y-44.9858 F100.00
G01 X1.9639 Y-44.9729 F100.00
G01 X1.9463 Y-44.9595 F100.00
G01 X1.9290 Y-44.9457 F100.00
G01 X1.9121 Y-44.9315 F100.00
G01 X1.8956 Y-44.9169 F100.00
G01 X1.8794 Y-44.9018 F100.00
G01 X1.8636 Y-44.8864 F100.00
G01 X1.8482 Y-44.8706 F100.00
G01 X1.8331 Y-44.8544 F100.00
G01 X1.8185 Y-44.8379 F100.00
G01 X1.8043 Y-44.8210 F100.00
G01 X1.7905 Y-44.8037 F100.00
G01 X1.7771 Y-44.7861 F100.00
G01 X1.7642 Y-44.7682 F100.00
G01 X1.7517 Y-44.7500 F100.00
G01 X1.7396 Y-44.7315 F100.00
G01 X1.7280 Y-44.7127 F100.00
G01 X1.7169 Y-44.6936 F100.00
G01 X1.7063 Y-44.6743 F100.00
G01 X1.6961 Y-44.6547 F100.00
G01 X1.6864 Y-44.6348 F100.00
G01 X1.6772 Y-44.6147 F100.00
G01 X1.6685 Y-44.5944 F100.00
G01 X1.6603 Y-44.5739 F100.00
G01 X1.6526 Y-44.5532 F100.00
G01 X1.6454 Y-44.5323 F100.00
G01 X1.6388 Y-44.5113 F100.00
G01 X1.6326 Y-44.4900 F100.00
G01 X1.6270 Y-44.4687 F100.00
G01 X1.6219 Y-44.4472 F100.00
G01 X1.6173 Y-44.4256 F100.00
G01 X1.6133 Y-44.4039 F100.00
G01 X1.6097 Y-44.3821 F100.00
G01 X1.6068 Y-44.3602 F100.00
G01 X1.6043 Y-44.3382 F100.00
G01 X1.6024 Y-44.3162 F100.00
G01 X1.6011 Y-44.2942 F100.00
G01 X1.6003 Y-44.2721 F100.00
G01 X1.6000 Y-44.2500 F100.00
G01 X1.6003 Y-44.2279 F100.00
G01 X1.6011 Y-44.2058 F100.00
G01 X1.6024 Y-44.1838 F100.00
G01 X1.6043 Y-44.1618 F100.00
G01 X1.6068 Y-44.1398 F100.00
G01 X1.6097 Y-44.1179 F100.00
G01 X1.6133 Y-44.0961 F100.00
G01 X1.6173 Y-44.0744 F100.00
G01 X1.6219 Y-44.0528 F100.00
G01 X1.6270 Y-44.0313 F100.00
G01 X1.6326 Y-44.0100 F100.00
G01 X1.6388 Y-43.9887 F100.00
G01 X1.6454 Y-43.9677 F100.00
G01 X1.6526 Y-43.9468 F100.00
G01 X1.6603 Y-43.9261 F100.00
G01 X1.6685 Y-43.9056 F100.00
G01 X1.6772 Y-43.8853 F100.00
G01 X1.6864 Y-43.8652 F100.00
G01 X1.6961 Y-43.8453 F100.00
G01 X1.7063 Y-43.8257 F100.00
G01 X1.7169 Y-43.8064 F100.00
G01 X1.7280 Y-43.7873 F100.00
G01 X1.7396 Y-43.7685 F100.00
G01 X1.7517 Y-43.7500 F100.00
G01 X1.7642 Y-43.7318 F100.00
G01 X1.7771 Y-43.7139 F100.00
G01 X1.7905 Y-43.6963 F100.00
G01 X1.8043 Y-43.6790 F100.00
G01 X1.8185 Y-43.6621 F100.00
G01 X1.8331 Y-43.6456 F100.00
G01 X1.8482 Y-43.6294 F100.00
G01 X1.8636 Y-43.6136 F100.00
G01 X1.8794 Y-43.5982 F100.00
G01 X1.8956 Y-43.5831 F100.00
G01 X1.9121 Y-43.5685 F100.00
G01 X1.9290 Y-43.5543 F100.00
G01 X1.9463 Y-43.5405 F100.00
G01 X1.9639 Y-43.5271 F100.00
G01 X1.9818 Y-43.5142 F100.00
G01 X2.0000 Y-43.5017 F100.00
G01 X2.0185 Y-43.4896 F100.00
G01 X2.0373 Y-43.4780 F100.00
G01 X2.0564 Y-43.4669 F100.00
G01 X2.0757 Y-43.4563 F100.00
G01 X2.0953 Y-43.4461 F100.00
G01 X2.1152 Y-43.4364 F100.00
G01 X2.1353 Y-43.4272 F100.00
G01 X2.1556 Y-43.4185 F100.00
G01 X2.1761 Y-43.4103 F100.00
G01 X2.1968 Y-43.4026 F100.00
G01 X2.2177 Y-43.3954 F100.00
G01 X2.2387 Y-43.3888 F100.00
G01 X2.2600 Y-43.3826 F100.00
G01 X2.2813 Y-43.3770 F100.00
G01 X2.3028 Y-43.3719 F100.00
G01 X2.3244 Y-43.3673 F100.00
G01 X2.3461 Y-43.3633 F100.00
G01 X2.3679 Y-43.3597 F100.00
G01 X2.3898 Y-43.3568 F100.00
G01 X2.4118 Y-43.3543 F100.00
G01 X2.4338 Y-43.3524 F100.00
G01 X2.4558 Y-43.3511 F100.00
G01 X2.4779 Y-43.3503 F100.00
G01 X2.5000 Y-43.3500 F100.00
G01 X2.5221 Y-43.3503 F100.00
G01 X2.5442 Y-43.3511 F100.00
G01 X2.5662 Y-43.3524 F100.00
G01 X2.5882 Y-43.3543 F100.00
G01 X2.6102 Y-43.3568 F100.00
G01 X2.6321 Y-43.3597 F100.00
G01 X2.6539 Y-43.3633 F100.00
G01 X2.6756 Y-43.3673 F100.00
G01 X2.6972 Y-43.3719 F100.00
G01 X2.7187 Y-43.3770 F100.00
G01 X2.7400 Y-43.3826 F100.00
G01 X2.7613 Y-43.3888 F100.00
G01 X2.7823 Y-43.3954 F100.00
G01 X2.8032 Y-43.4026 F100.00
G01 X2.8239 Y-43.4103 F100.00
G01 X2.8444 Y-43.4185 F100.00
G01 X2.8647 Y-43.4272 F100.00
G01 X2.8848 Y-43.4364 F100.00
G01 X2.9047 Y-43.4461 F100.00
G01 X2.9243 Y-43.4563 F100.00
G01 X2.9436 Y-43.4669 F100.00
G01 X2.9627 Y-43.4780 F100.00
G01 X2.9815 Y-43.4896 F100.00
G01 X3.0000 Y-43.5017 F100.00
G01 X3.0182 Y-43.5142 F100.00
G01 X3.0361 Y-43.5271 F100.00
G01 X3.0537 Y-43.5405 F100.00
G01 X3.0710 Y-43.5543 F100.00
G01 X3.0879 Y-43.5685 F100.00
G01 X3.1044 Y-43.5831 F100.00
G01 X3.1206 Y-43.5982 F100.00
G01 X3.1364 Y-43.6136 F100.00
G01 X3.1518 Y-43.6294 F100.00
G01 X3.1669 Y-43.6456 F100.00
G01 X3.1815 Y-43.6621 F100.00
G01 X3.1957 Y-43.6790 F100.00
G01 X3.2095 Y-43.6963 F100.00
G01 X3.2229 Y-43.7139 F100.00
G01 X3.2358 Y-43.7318 F100.00
G01 X3.2483 Y-43.7500 F100.00
G01 X3.2604 Y-43.7685 F100.00
G01 X3.2720 Y-43.7873 F100.00
G01 X3.2831 Y-43.8064 F100.00
G01 X3.2937 Y-43.8257 F100.00
G01 X3.3039 Y-43.8453 F100.00
G01 X3.3136 Y-43.8652 F100.00
G01 X3.3228 Y-43.8853 F100.00
G01 X3.3315 Y-43.9056 F100.00
G01 X3.3397 Y-43.9261 F100.00
G01 X3.3474 Y-43.9468 F100.00
G01 X3.3546 Y-43.9677 F100.00
G01 X3.3612 Y-43.9887 F100.00
G01 X3.3674 Y-44.0100 F100.00
G01 X3.3730 Y-44.0313 F100.00
G01 X3.3781 Y-44.0528 F100.00
G01 X3.3827 Y-44.0744 F100.00
G01 X3.3867 Y-44.0961 F100.00
G01 X3.3903 Y-44.1179 F100.00
G01 X3.3932 Y-44.1398 F100.00
G01 X3.3957 Y-44.1618 F100.00
G01 X3.3976 Y-44.1838 F100.00
G01 X3.3989 Y-44.2058 F100.00
G01 X3.3997 Y-44.2279 F100.00
G01 X3.4000 Y-44.2500 F100.00
G00 Z2.0000
G00 X57.7500 Y-43.8708
G01 F60.00
G01 Z-0.6000
G01 F100.00
G01 X57.8480 Y-43.6342 F100.00
G01 X57.9903 Y-43.4213 F100.00
G01 X58.1713 Y-43.2403 F100.00
G01 X58.3842 Y-43.0980 F100.00
G01 X58.6208 Y-43.0000 F100.00
G01 X58.8720 Y-42.9500 F100.00
G01 X59.1280 Y-42.9500 F100.00
G01 X59.3792 Y-43.0000 F100.00
G01 X59.6158 Y-43.0980 F100.00
G01 X59.8287 Y-43.2403 F100.00
G01 X60.0097 Y-43.4213 F100.00
G01 X60.1520 Y-43.6342 F100.00
G01 X60.2500 Y-43.8708 F100.00
G01 X60.3000 Y-44.1220 F100.00
G01 X60.3000 Y-44.3780 F100.00
G01 X60.2500 Y-44.6292 F100.00
G01 X60.1520 Y-44.8658 F100.00
G01 X60.0097 Y-45.0787 F100.00
G01 X59.8287 Y-45.2597 F100.00
G01 X59.6158 Y-45.4020 F100.00
G01 X59.3792 Y-45.5000 F100.00
G01 X59.1280 Y-45.5500 F100.00
G01 X58.8720 Y-45.5500 F100.00
G01 X58.6208 Y-45.5000 F100.00
G01 X58.3842 Y-45.4020 F100.00
G01 X58.1713 Y-45.2597 F100.00
G01 X57.9903 Y-45.0787 F100.00
G01 X57.8480 Y-44.8658 F100.00
G01 X57.7500 Y-44.6292 F100.00
G01 X57.7000 Y-44.3780 F100.00
G01 X57.7000 Y-44.1220 F100.00
G01 X57.7500 Y-43.8708 F100.00
G01 X59.3000 Y-44.2500 F100.00
G01 X59.2996 Y-44.2647 F100.00
G01 X59.2986 Y-44.2794 F100.00
G01 X59.2956 Y-44.3013 F100.00
G01 X59.2927 Y-44.3157 F100.00
G01 X59.2871 Y-44.3371 F100.00
G01 X59.2825 Y-44.3511 F100.00
G01 X59.2772 Y-44.3648 F100.00
G01 X59.2712 Y-44.3783 F100.00
G01 X59.2646 Y-44.3914 F100.00
G01 X59.2573 Y-44.4042 F100.00
G01 X59.2494 Y-44.4167 F100.00
G01 X59.2365 Y-44.4346 F100.00
G01 X59.2223 Y-44.4515 F100.00
G01 X59.2121 Y-44.4621 F100.00
G01 X59.2015 Y-44.4723 F100.00
G01 X59.1903 Y-44.4819 F100.00
G01 X59.1787 Y-44.4910 F100.00
G01 X59.1667 Y-44.4994 F100.00
G01 X59.1542 Y-44.5073 F100.00
G01 X59.1414 Y-44.5146 F100.00
G01 X59.1283 Y-44.5212 F100.00
G01 X59.1080 Y-44.5299 F100.00
G01 X59.0941 Y-44.5349 F100.00
G01 X59.0800 Y-44.5391 F100.00
G01 X59.0657 Y-44.5427 F100.00
G01 X59.0513 Y-44.5456 F100.00
G01 X59.0294 Y-44.5486 F100.00
G01 X59.0147 Y-44.5496 F100.00
G01 X59.0000 Y-44.5500 F100.00
G01 X58.9853 Y-44.5496 F100.00
G01 X58.9706 Y-44.5486 F100.00
G01 X58.9487 Y-44.5456 F100.00
G01 X58.9271 Y-44.5410 F100.00
G01 X58.9059 Y-44.5349 F100.00
G01 X58.8852 Y-44.5272 F100.00
G01 X58.8717 Y-44.5212 F100.00
G01 X58.8586 Y-44.5146 F100.00
G01 X58.8458 Y-44.5073 F100.00
G01 X58.8333 Y-44.4994 F100.00
G01 X58.8154 Y-44.4865 F100.00
G01 X58.8040 Y-44.4772 F100.00
G01 X58.7931 Y-44.4673 F100.00
G01 X58.7777 Y-44.4515 F100.00
G01 X58.7681 Y-44.4403 F100.00
G01 X58.7590 Y-44.4287 F100.00
G01 X58.7465 Y-44.4105 F100.00
G01 X58.7354 Y-44.3914 F100.00
G01 X58.7288 Y-44.3783 F100.00
G01 X58.7228 Y-44.3648 F100.00
G01 X58.7175 Y-44.3511 F100.00
G01 X58.7129 Y-44.3371 F100.00
G01 X58.7073 Y-44.3157 F100.00
G01 X58.7032 Y-44.2940 F100.00
G01 X58.7014 Y-44.2794 F100.00
G01 X58.7004 Y-44.2647 F100.00
G01 X58.7001 Y-44.2426 F100.00
G01 X58.7008 Y-44.2279 F100.00
G01 X58.7023 Y-44.2133 F100.00
G01 X58.7044 Y-44.1987 F100.00
G01 X58.7073 Y-44.1843 F100.00
G01 X58.7129 Y-44.1629 F100.00
G01 X58.7201 Y-44.1420 F100.00
G01 X58.7288 Y-44.1217 F100.00
G01 X58.7320 Y-44.1151 F100.00
G01 X58.7354 Y-44.1086 F100.00
G01 X58.7427 Y-44.0958 F100.00
G01 X58.7547 Y-44.0773 F100.00
G01 X58.7681 Y-44.0597 F100.00
G01 X58.7777 Y-44.0485 F100.00
G01 X58.7879 Y-44.0379 F100.00
G01 X58.8040 Y-44.0228 F100.00
G01 X58.8154 Y-44.0135 F100.00
G01 X58.8273 Y-44.0047 F100.00
G01 X58.8458 Y-43.9927 F100.00
G01 X58.8651 Y-43.9820 F100.00
G01 X58.8784 Y-43.9757 F100.00
G01 X58.8920 Y-43.9701 F100.00
G01 X58.9129 Y-43.9629 F100.00
G01 X58.9343 Y-43.9573 F100.00
G01 X58.9487 Y-43.9544 F100.00
G01 X58.9706 Y-43.9514 F100.00
G01 X58.9853 Y-43.9504 F100.00
G01 X59.0000 Y-43.9500 F100.00
G01 X59.0147 Y-43.9504 F100.00
G01 X59.0294 Y-43.9514 F100.00
G01 X59.0513 Y-43.9544 F100.00
G01 X59.0657 Y-43.9573 F100.00
G01 X59.0871 Y-43.9629 F100.00
G01 X59.1080 Y-43.9701 F100.00
G01 X59.1216 Y-43.9757 F100.00
G01 X59.1414 Y-43.9854 F100.00
G01 X59.1542 Y-43.9927 F100.00
G01 X59.1667 Y-44.0006 F100.00
G01 X59.1787 Y-44.0090 F100.00
G01 X59.1903 Y-44.0181 F100.00
G01 X59.2069 Y-44.0327 F100.00
G01 X59.2173 Y-44.0431 F100.00
G01 X59.2319 Y-44.0597 F100.00
G01 X59.2453 Y-44.0773 F100.00
G01 X59.2535 Y-44.0895 F100.00
G01 X59.2610 Y-44.1021 F100.00
G01 X59.2680 Y-44.1151 F100.00
G01 X59.2743 Y-44.1284 F100.00
G01 X59.2825 Y-44.1489 F100.00
G01 X59.2871 Y-44.1629 F100.00
G01 X59.2927 Y-44.1843 F100.00
G01 X59.2956 Y-44.1987 F100.00
G01 X59.2986 Y-44.2206 F100.00
G01 X59.2996 Y-44.2353 F100.00
G01 X59.3000 Y-44.2500 F100.00
G01 X59.9000 Y-44.2500 F100.00
G01 X59.8997 Y-44.2721 F100.00
G01 X59.8989 Y-44.2942 F100.00
G01 X59.8976 Y-44.3162 F100.00
G01 X59.8957 Y-44.3382 F100.00
G01 X59.8932 Y-44.3602 F100.00
G01 X59.8903 Y-44.3821 F100.00
G01 X59.8867 Y-44.4039 F100.00
G01 X59.8827 Y-44.4256 F100.00
G01 X59.8781 Y-44.4472 F100.00
G01 X59.8730 Y-44.4687 F100.00
G01 X59.8674 Y-44.4900 F100.00
G01 X59.8612 Y-44.5113 F100.00
G01 X59.8546 Y-44.5323 F100.00
G01 X59.8474 Y-44.5532 F100.00
G01 X59.8397 Y-44.5739 F100.00
G01 X59.8315 Y-44.5944 F100.00
G01 X59.8228 Y-44.6147 F100.00
G01 X59.8136 Y-44.6348 F100.00
G01 X59.8039 Y-44.6547 F100.00
G01 X59.7937 Y-44.6743 F100.00
G01 X59.7831 Y-44.6936 F100.00
G01 X59.7720 Y-44.7127 F100.00
G01 X59.7604 Y-44.7315 F100.00
G01 X59.7483 Y-44.7500 F100.00
G01 X59.7358 Y-44.7682 F100.00
G01 X59.7229 Y-44.7861 F100.00
G01 X59.7095 Y-44.8037 F100.00
G01 X59.6957 Y-44.8210 F100.00
G01 X59.6815 Y-44.8379 F100.00
G01 X59.6669 Y-44.8544 F100.00
G01 X59.6518 Y-44.8706 F100.00
G01 X59.6364 Y-44.8864 F100.00
G01 X59.6206 Y-44.9018 F100.00
G01 X59.6044 Y-44.9169 F100.00
G01 X59.5879 Y-44.9315 F100.00
G01 X59.5710 Y-44.9457 F100.00
G01 X59.5537 Y-44.9595 F100.00
G01 X59.5361 Y-44.9729 F100.00
G01 X59.5182 Y-44.9858 F100.00
G01 X59.5000 Y-44.9983 F100.00
G01 X59.4815 Y-45.0104 F100.00
G01 X59.4627 Y-45.0220 F100.00
G01 X59.4436 Y-45.0331 F100.00
G01 X59.4243 Y-45.0437 F100.00
G01 X59.4047 Y-45.0539 F100.00
G01 X59.3848 Y-45.0636 F100.00
G01 X59.3647 Y-45.0728 F100.00
G01 X59.3444 Y-45.0815 F100.00
G01 X59.3239 Y-45.0897 F100.00
G01 X59.3032 Y-45.0974 F100.00
G01 X59.2823 Y-45.1046 F100.00
G01 X59.2613 Y-45.1112 F100.00
G01 X59.2400 Y-45.1174 F100.00
G01 X59.2187 Y-45.1230 F100.00
G01 X59.1972 Y-45.1281 F100.00
G01 X59.1756 Y-45.1327 F100.00
G01 X59.1539 Y-45.1367 F100.00
G01 X59.1321 Y-45.1403 F100.00
G01 X59.1102 Y-45.1432 F100.00
G01 X59.0882 Y-45.1457 F100.00
G01 X59.0662 Y-45.1476 F100.00
G01 X59.0442 Y-45.1489 F100.00
G01 X59.0221 Y-45.1497 F100.00
G01 X59.0000 Y-45.1500 F100.00
G01 X58.9779 Y-45.1497 F100.00
G01 X58.9558 Y-45.1489 F100.00
G01 X58.9338 Y-45.1476 F100.00
G01 X58.9118 Y-45.1457 F100.00
G01 X58.8898 Y-45.1432 F100.00
G01 X58.8679 Y-45.1403 F100.00
G01 X58.8461 Y-45.1367 F100.00
G01 X58.8244 Y-45.1327 F100.00
G01 X58.8028 Y-45.1281 F100.00
G01 X58.7813 Y-45.1230 F100.00
G01 X58.7600 Y-45.1174 F100.00
G01 X58.7387 Y-45.1112 F100.00
G01 X58.7177 Y-45.1046 F100.00
G01 X58.6968 Y-45.0974 F100.00
G01 X58.6761 Y-45.0897 F100.00
G01 X58.6556 Y-45.0815 F100.00
G01 X58.6353 Y-45.0728 F100.00
G01 X58.6152 Y-45.0636 F100.00
G01 X58.5953 Y-45.0539 F100.00
G01 X58.5757 Y-45.0437 F100.00
G01 X58.5564 Y-45.0331 F100.00
G01 X58.5373 Y-45.0220 F100.00
G01 X58.5185 Y-45.0104 F100.00
G01 X58.5000 Y-44.9983 F100.00
G01 X58.4818 Y-44.9858 F100.00
G01 X58.4639 Y-44.9729 F100.00
G01 X58.4463 Y-44.9595 F100.00
G01 X58.4290 Y-44.9457 F100.00
G01 X58.4121 Y-44.9315 F100.00
G01 X58.3956 Y-44.9169 F100.00
G01 X58.3794 Y-44.9018 F100.00
G01 X58.3636 Y-44.8864 F100.00
G01 X58.3482 Y-44.8706 F100.00
G01 X58.3331 Y-44.8544 F100.00
G01 X58.3185 Y-44.8379 F100.00
G01 X58.3043 Y-44.8210 F100.00
G01 X58.2905 Y-44.8037 F100.00
G01 X58.2771 Y-44.7861 F100.00
G01 X58.2642 Y-44.7682 F100.00
G01 X58.2517 Y-44.7500 F100.00
G01 X58.2396 Y-44.7315 F100.00
G01 X58.2280 Y-44.7127 F100.00
G01 X58.2169 Y-44.6936 F100.00
G01 X58.2063 Y-44.6743 F100.00
G01 X58.1961 Y-44.6547 F100.00
G01 X58.1864 Y-44.6348 F100.00
G01 X58.1772 Y-44.6147 F100.00
G01 X58.1685 Y-44.5944 F100.00
G01 X58.1603 Y-44.5739 F100.00
G01 X58.1526 Y-44.5532 F100.00
G01 X58.1454 Y-44.5323 F100.00
G01 X58.1388 Y-44.5113 F100.00
G01 X58.1326 Y-44.4900 F100.00
G01 X58.1270 Y-44.4687 F100.00
G01 X58.1219 Y-44.4472 F100.00
G01 X58.1173 Y-44.4256 F100.00
G01 X58.1133 Y-44.4039 F100.00
G01 X58.1097 Y-44.3821 F100.00
G01 X58.1068 Y-44.3602 F100.00
G01 X58.1043 Y-44.3382 F100.00
G01 X58.1024 Y-44.3162 F100.00
G01 X58.1011 Y-44.2942 F100.00
G01 X58.1003 Y-44.2721 F100.00
G01 X58.1000 Y-44.2500 F100.00
G01 X58.1003 Y-44.2279 F100.00
G01 X58.1011 Y-44.2058 F100.00
G01 X58.1024 Y-44.1838 F100.00
G01 X58.1043 Y-44.1618 F100.00
G01 X58.1068 Y-44.1398 F100.00
G01 X58.1097 Y-44.1179 F100.00
G01 X58.1133 Y-44.0961 F100.00
G01 X58.1173 Y-44.0744 F100.00
G01 X58.1219 Y-44.0528 F100.00
G01 X58.1270 Y-44.0313 F100.00
G01 X58.1326 Y-44.0100 F100.00
G01 X58.1388 Y-43.9887 F100.00
G01 X58.1454 Y-43.9677 F100.00
G01 X58.1526 Y-43.9468 F100.00
G01 X58.1603 Y-43.9261 F100.00
G01 X58.1685 Y-43.9056 F100.00
G01 X58.1772 Y-43.8853 F100.00
G01 X58.1864 Y-43.8652 F100.00
G01 X58.1961 Y-43.8453 F100.00
G01 X58.2063 Y-43.8257 F100.00
G01 X58.2169 Y-43.8064 F100.00
G01 X58.2280 Y-43.7873 F100.00
G01 X58.2396 Y-43.7685 F100.00
G01 X58.2517 Y-43.7500 F100.00
G01 X58.2642 Y-43.7318 F100.00
G01 X58.2771 Y-43.7139 F100.00
G01 X58.2905 Y-43.6963 F100.00
G01 X58.3043 Y-43.6790 F100.00
G01 X58.3185 Y-43.6621 F100.00
G01 X58.3331 Y-43.6456 F100.00
G01 X58.3482 Y-43.6294 F100.00
G01 X58.3636 Y-43.6136 F100.00
G01 X58.3794 Y-43.5982 F100.00
G01 X58.3956 Y-43.5831 F100.00
G01 X58.4121 Y-43.5685 F100.00
G01 X58.4290 Y-43.5543 F100.00
G01 X58.4463 Y-43.5405 F100.00
G01 X58.4639 Y-43.5271 F100.00
G01 X58.4818 Y-43.5142 F100.00
G01 X58.5000 Y-43.5017 F100.00
G01 X58.5185 Y-43.4896 F100.00
G01 X58.5373 Y-43.4780 F100.00
G01 X58.5564 Y-43.4669 F100.00
G01 X58.5757 Y-43.4563 F100.00
G01 X58.5953 Y-43.4461 F100.00
G01 X58.6152 Y-43.4364 F100.00
G01 X58.6353 Y-43.4272 F100.00
G01 X58.6556 Y-43.4185 F100.00
G01 X58.6761 Y-43.4103 F100.00
G01 X58.6968 Y-43.4026 F100.00
G01 X58.7177 Y-43.3954 F100.00
G01 X58.7387 Y-43.3888 F100.00
G01 X58.7600 Y-43.3826 F100.00
G01 X58.7813 Y-43.3770 F100.00
G01 X58.8028 Y-43.3719 F100.00
G01 X58.8244 Y-43.3673 F100.00
G01 X58.8461 Y-43.3633 F100.00
G01 X58.8679 Y-43.3597 F100.00
G01 X58.8898 Y-43.3568 F100.00
G01 X58.9118 Y-43.3543 F100.00
G01 X58.9338 Y-43.3524 F100.00
G01 X58.9558 Y-43.3511 F100.00
G01 X58.9779 Y-43.3503 F100.00
G01 X59.0000 Y-43.3500 F100.00
G01 X59.0221 Y-43.3503 F100.00
G01 X59.0442 Y-43.3511 F100.00
G01 X59.0662 Y-43.3524 F100.00
G01 X59.0882 Y-43.3543 F100.00
G01 X59.1102 Y-43.3568 F100.00
G01 X59.1321 Y-43.3597 F100.00
G01 X59.1539 Y-43.3633 F100.00
G01 X59.1756 Y-43.3673 F100.00
G01 X59.1972 Y-43.3719 F100.00
G01 X59.2187 Y-43.3770 F100.00
G01 X59.2400 Y-43.3826 F100.00
G01 X59.2613 Y-43.3888 F100.00
G01 X59.2823 Y-43.3954 F100.00
G01 X59.3032 Y-43.4026 F100.00
G01 X59.3239 Y-43.4103 F100.00
G01 X59.3444 Y-43.4185 F100.00
G01 X59.3647 Y-43.4272 F100.00
G01 X59.3848 Y-43.4364 F100.00
G01 X59.4047 Y-43.4461 F100.00
G01 X59.4243 Y-43.4563 F100.00
G01 X59.4436 Y-43.4669 F100.00
G01 X59.4627 Y-43.4780 F100.00
G01 X59.4815 Y-43.4896 F100.00
G01 X59.5000 Y-43.5017 F100.00
G01 X59.5182 Y-43.5142 F100.00
G01 X59.5361 Y-43.5271 F100.00
G01 X59.5537 Y-43.5405 F100.00
G01 X59.5710 Y-43.5543 F100.00
G01 X59.5879 Y-43.5685 F100.00
G01 X59.6044 Y-43.5831 F100.00
G01 X59.6206 Y-43.5982 F100.00
G01 X59.6364 Y-43.6136 F100.00
G01 X59.6518 Y-43.6294 F100.00
G01 X59.6669 Y-43.6456 F100.00
G01 X59.6815 Y-43.6621 F100.00
G01 X59.6957 Y-43.6790 F100.00
G01 X59.7095 Y-43.6963 F100.00
G01 X59.7229 Y-43.7139 F100.00
G01 X59.7358 Y-43.7318 F100.00
G01 X59.7483 Y-43.7500 F100.00
G01 X59.7604 Y-43.7685 F100.00
G01 X59.7720 Y-43.7873 F100.00
G01 X59.7831 Y-43.8064 F100.00
G01 X59.7937 Y-43.8257 F100.00
G01 X59.8039 Y-43.8453 F100.00
G01 X59.8136 Y-43.8652 F100.00
G01 X59.8228 Y-43.8853 F100.00
G01 X59.8315 Y-43.9056 F100.00
G01 X59.8397 Y-43.9261 F100.00
G01 X59.8474 Y-43.9468 F100.00
G01 X59.8546 Y-43.9677 F100.00
G01 X59.8612 Y-43.9887 F100.00
G01 X59.8674 Y-44.0100 F100.00
G01 X59.8730 Y-44.0313 F100.00
G01 X59.8781 Y-44.0528 F100.00
G01 X59.8827 Y-44.0744 F100.00
G01 X59.8867 Y-44.0961 F100.00
G01 X59.8903 Y-44.1179 F100.00
G01 X59.8932 Y-44.1398 F100.00
G01 X59.8957 Y-44.1618 F100.00
G01 X59.8976 Y-44.1838 F100.00
G01 X59.8989 Y-44.2058 F100.00
G01 X59.8997 Y-44.2279 F100.00
G01 X59.9000 Y-44.2500 F100.00
G00 X59.9000 Y-44.2500
G01 F60.00
G01 Z-1.2000
G01 F100.00
G01 X59.8997 Y-44.2279 F100.00
G01 X59.8989 Y-44.2058 F100.00
G01 X59.8976 Y-44.1838 F100.00
G01 X59.8957 Y-44.1618 F100.00
G01 X59.8932 Y-44.1398 F100.00
G01 X59.8903 Y-44.1179 F100.00
G01 X59.8867 Y-44.0961 F100.00
G01 X59.8827 Y-44.0744 F100.00
G01 X59.8781 Y-44.0528 F100.00
G01 X59.8730 Y-44.0313 F100.00
G01 X59.8674 Y-44.0100 F100.00
G01 X59.8612 Y-43.9887 F100.00
G01 X59.8546 Y-43.9677 F100.00
G01 X59.8474 Y-43.9468 F100.00
G01 X59.8397 Y-43.9261 F100.00
G01 X59.8315 Y-43.9056 F100.00
G01 X59.8228 Y-43.8853 F100.00
G01 X59.8136 Y-43.8652 F100.00
G01 X59.8039 Y-43.8453 F100.00
G01 X59.7937 Y-43.8257 F100.00
G01 X59.7831 Y-43.8064 F100.00
G01 X59.7720 Y-43.7873 F100.00
G01 X59.7604 Y-43.7685 F100.00
G01 X59.7483 Y-43.7500 F100.00
G01 X59.7358 Y-43.7318 F100.00
G01 X59.7229 Y-43.7139 F100.00
G01 X59.7095 Y-43.6963 F100.00
G01 X59.6957 Y-43.6790 F100.00
G01 X59.6815 Y-43.6621 F100.00
G01 X59.6669 Y-43.6456 F100.00
G01 X59.6518 Y-43.6294 F100.00
G01 X59.6364 Y-43.6136 F100.00
G01 X59.6206 Y-43.5982 F100.00
G01 X59.6044 Y-43.5831 F100.00
G01 X59.5879 Y-43.5685 F100.00
G01 X59.5710 Y-43.5543 F100.00
G01 X59.5537 Y-43.5405 F100.00
G01 X59.5361 Y-43.5271 F100.00
G01 X59.5182 Y-43.5142 F100.00
G01 X59.5000 Y-43.5017 F100.00
G01 X59.4815 Y-43.4896 F100.00
G01 X59.4627 Y-43.4780 F100.00
G01 X59.4436 Y-43.4669 F100.00
G01 X59.4243 Y-43.4563 F100.00
G01 X59.4047 Y-43.4461 F100.00
G01 X59.3848 Y-43.4364 F100.00
G01 X59.3647 Y-43.4272 F100.00
G01 X59.3444 Y-43.4185 F100.00
G01 X59.3239 Y-43.4103 F100.00
G01 X59.3032 Y-43.4026 F100.00
G01 X59.2823 Y-43.3954 F100.00
G01 X59.2613 Y-43.3888 F100.00
G01 X59.2400 Y-43.3826 F100.00
G01 X59.2187 Y-43.3770 F100.00
G01 X59.1972 Y-43.3719 F100.00
G01 X59.1756 Y-43.3673 F100.00
G01 X59.1539 Y-43.3633 F100.00
G01 X59.1321 Y-43.3597 F100.00
G01 X59.1102 Y-43.3568 F100.00
G01 X59.0882 Y-43.3543 F100.00
G01 X59.0662 Y-43.3524 F100.00
G01 X59.0442 Y-43.3511 F100.00
G01 X59.0221 Y-43.3503 F100.00
G01 X59.0000 Y-43.3500 F100.00
G01 X58.9779 Y-43.3503 F100.00
G01 X58.9558 Y-43.3511 F100.00
G01 X58.9338 Y-43.3524 F100.00
G01 X58.9118 Y-43.3543 F100.00
G01 X58.8898 Y-43.3568 F100.00
G01 X58.8679 Y-43.3597 F100.00
G01 X58.8461 Y-43.3633 F100.00
G01 X58.8244 Y-43.3673 F100.00
G01 X58.8028 Y-43.3719 F100.00
G01 X58.7813 Y-43.3770 F100.00
G01 X58.7600 Y-43.3826 F100.00
G01 X58.7387 Y-43.3888 F100.00
G01 X58.7177 Y-43.3954 F100.00
G01 X58.6968 Y-43.4026 F100.00
G01 X58.6761 Y-43.4103 F100.00
G01 X58.6556 Y-43.4185 F100.00
G01 X58.6353 Y-43.4272 F100.00
G01 X58.6152 Y-43.4364 F100.00
G01 X58.5953 Y-43.4461 F100.00
G01 X58.5757 Y-43.4563 F100.00
G01 X58.5564 Y-43.4669 F100.00
G01 X58.5373 Y-43.4780 F100.00
G01 X58.5185 Y-43.4896 F100.00
G01 X58.5000 Y-43.5017 F100.00
G01 X58.4818 Y-43.5142 F100.00
G01 X58.4639 Y-43.5271 F100.00
G01 X58.4463 Y-43.5405 F100.00
G01 X58.4290 Y-43.5543 F100.00
G01 X58.4121 Y-43.5685 F100.00
G01 X58.3956 Y-43.5831 F100.00
G01 X58.3794 Y-43.5982 F100.00
G01 X58.3636 Y-43.6136 F100.00
G01 X58.3482 Y-43.6294 F100.00
G01 X58.3331 Y-43.6456 F100.00
G01 X58.3185 Y-43.6621 F100.00
G01 X58.3043 Y-43.6790 F100.00
G01 X58.2905 Y-43.6963 F100.00
G01 X58.2771 Y-43.7139 F100.00
G01 X58.2642 Y-43.7318 F100.00
G01 X58.2517 Y-43.7500 F100.00
G01 X58.2396 Y-43.7685 F100.00
G01 X58.2280 Y-43.7873 F100.00
G01 X58.2169 Y-43.8064 F100.00
G01 X58.2063 Y-43.8257 F100.00
G01 X58.1961 Y-43.8453 F100.00
G01 X58.1864 Y-43.8652 F100.00
G01 X58.1772 Y-43.8853 F100.00
G01 X58.1685 Y-43.9056 F100.00
G01 X58.1603 Y-43.9261 F100.00
G01 X58.1526 Y-43.9468 F100.00
G01 X58.1454 Y-43.9677 F100.00
G01 X58.1388 Y-43.9887 F100.00
G01 X58.1326 Y-44.0100 F100.00
G01 X58.1270 Y-44.0313 F100.00
G01 X58.1219 Y-44.0528 F100.00
G01 X58.1173 Y-44.0744 F100.00
G01 X58.1133 Y-44.0961 F100.00
G01 X58.1097 Y-44.1179 F100.00
G01 X58.1068 Y-44.1398 F100.00
G01 X58.1043 Y-44.1618 F100.00
G01 X58.1024 Y-44.1838 F100.00
G01 X58.1011 Y-44.2058 F100.00
G01 X58.1003 Y-44.2279 F100.00
G01 X58.1000 Y-44.2500 F100.00
G01 X58.1003 Y-44.2721 F100.00
G01 X58.1011 Y-44.2942 F100.00
G01 X58.1024 Y-44.3162 F100.00
G01 X58.1043 Y-44.3382 F100.00
G01 X58.1068 Y-44.3602 F100.00
G01 X58.1097 Y-44.3821 F100.00
G01 X58.1133 Y-44.4039 F100.00
G01 X58.1173 Y-44.4256 F100.00
G01 X58.1219 Y-44.4472 F100.00
G01 X58.1270 Y-44.4687 F100.00
G01 X58.1326 Y-44.4900 F100.00
G01 X58.1388 Y-44.5113 F100.00
G01 X58.1454 Y-44.5323 F100.00
G01 X58.1526 Y-44.5532 F100.00
G01 X58.1603 Y-44.5739 F100.00
G01 X58.1685 Y-44.5944 F100.00
G01 X58.1772 Y-44.6147 F100.00
G01 X58.1864 Y-44.6348 F100.00
G01 X58.1961 Y-44.6547 F100.00
G01 X58.2063 Y-44.6743 F100.00
G01 X58.2169 Y-44.6936 F100.00
G01 X58.2280 Y-44.7127 F100.00
G01 X58.2396 Y-44.7315 F100.00
G01 X58.2517 Y-44.7500 F100.00
G01 X58.2642 Y-44.7682 F100.00
G01 X58.2771 Y-44.7861 F100.00
G01 X58.2905 Y-44.8037 F100.00
G01 X58.3043 Y-44.8210 F100.00
G01 X58.3185 Y-44.8379 F100.00
G01 X58.3331 Y-44.8544 F100.00
G01 X58.3482 Y-44.8706 F100.00
G01 X58.3636 Y-44.8864 F100.00
G01 X58.3794 Y-44.9018 F100.00
G01 X58.3956 Y-44.9169 F100.00
G01 X58.4121 Y-44.9315 F100.00
G01 X58.4290 Y-44.9457 F100.00
G01 X58.4463 Y-44.9595 F100.00
G01 X58.4639 Y-44.9729 F100.00
G01 X58.4818 Y-44.9858 F100.00
G01 X58.5000 Y-44.9983 F100.00
G01 X58.5185 Y-45.0104 F100.00
G01 X58.5373 Y-45.0220 F100.00
G01 X58.5564 Y-45.0331 F100.00
G01 X58.5757 Y-45.0437 F100.00
G01 X58.5953 Y-45.0539 F100.00
G01 X58.6152 Y-45.0636 F100.00
G01 X58.6353 Y-45.0728 F100.00
G01 X58.6556 Y-45.0815 F100.00
G01 X58.6761 Y-45.0897 F100.00
G01 X58.6968 Y-45.0974 F100.00
G01 X58.7177 Y-45.1046 F100.00
G01 X58.7387 Y-45.1112 F100.00
G01 X58.7600 Y-45.1174 F100.00
G01 X58.7813 Y-45.1230 F100.00
G01 X58.8028 Y-45.1281 F100.00
G01 X58.8244 Y-45.1327 F100.00
G01 X58.8461 Y-45.1367 F100.00
G01 X58.8679 Y-45.1403 F100.00
G01 X58.8898 Y-45.1432 F100.00
G01 X58.9118 Y-45.1457 F100.00
G01 X58.9338 Y-45.1476 F100.00
G01 X58.9558 Y-45.1489 F100.00
G01 X58.9779 Y-45.1497 F100.00
G01 X59.0000 Y-45.1500 F100.00
G01 X59.0221 Y-45.1497 F100.00
G01 X59.0442 Y-45.1489 F100.00
G01 X59.0662 Y-45.1476 F100.00
G01 X59.0882 Y-45.1457 F100.00
G01 X59.1102 Y-45.1432 F100.00
G01 X59.1321 Y-45.1403 F100.00
G01 X59.1539 Y-45.1367 F100.00
G01 X59.1756 Y-45.1327 F100.00
G01 X59.1972 Y-45.1281 F100.00
G01 X59.2187 Y-45.1230 F100.00
G01 X59.2400 Y-45.1174 F100.00
G01 X59.2613 Y-45.1112 F100.00
G01 X59.2823 Y-45.1046 F100.00
G01 X59.3032 Y-45.0974 F100.00
G01 X59.3239 Y-45.0897 F100.00
G01 X59.3444 Y-45.0815 F100.00
G01 X59.3647 Y-45.0728 F100.00
G01 X59.3848 Y-45.0636 F100.00
G01 X59.4047 Y-45.0539 F100.00
G01 X59.4243 Y-45.0437 F100.00
G01 X59.4436 Y-45.0331 F100.00
G01 X59.4627 Y-45.0220 F100.00
G01 X59.4815 Y-45.0104 F100.00
G01 X59.5000 Y-44.9983 F100.00
G01 X59.5182 Y-44.9858 F100.00
G01 X59.5361 Y-44.9729 F100.00
G01 X59.5537 Y-44.9595 F100.00
G01 X59.5710 Y-44.9457 F100.00
G01 X59.5879 Y-44.9315 F100.00
G01 X59.6044 Y-44.9169 F100.00
G01 X59.6206 Y-44.9018 F100.00
G01 X59.6364 Y-44.8864 F100.00
G01 X59.6518 Y-44.8706 F100.00
G01 X59.6669 Y-44.8544 F100.00
G01 X59.6815 Y-44.8379 F100.00
G01 X59.6957 Y-44.8210 F100.00
G01 X59.7095 Y-44.8037 F100.00
G01 X59.7229 Y-44.7861 F100.00
G01 X59.7358 Y-44.7682 F100.00
G01 X59.7483 Y-44.7500 F100.00
G01 X59.7604 Y-44.7315 F100.00
G01 X59.7720 Y-44.7127 F100.00
G01 X59.7831 Y-44.6936 F100.00
G01 X59.7937 Y-44.6743 F100.00
G01 X59.8039 Y-44.6547 F100.00
G01 X59.8136 Y-44.6348 F100.00
G01 X59.8228 Y-44.6147 F100.00
G01 X59.8315 Y-44.5944 F100.00
G01 X59.8397 Y-44.5739 F100.00
G01 X59.8474 Y-44.5532 F100.00
G01 X59.8546 Y-44.5323 F100.00
G01 X59.8612 Y-44.5113 F100.00
G01 X59.8674 Y-44.4900 F100.00
G01 X59.8730 Y-44.4687 F100.00
G01 X59.8781 Y-44.4472 F100.00
G01 X59.8827 Y-44.4256 F100.00
G01 X59.8867 Y-44.4039 F100.00
G01 X59.8903 Y-44.3821 F100.00
G01 X59.8932 Y-44.3602 F100.00
G01 X59.8957 Y-44.3382 F100.00
G01 X59.8976 Y-44.3162 F100.00
G01 X59.8989 Y-44.2942 F100.00
G01 X59.8997 Y-44.2721 F100.00
G01 X59.9000 Y-44.2500 F100.00
G01 X59.3000 Y-44.2500 F100.00
G01 X59.2996 Y-44.2353 F100.00
G01 X59.2986 Y-44.2206 F100.00
G01 X59.2956 Y-44.1987 F100.00
G01 X59.2927 Y-44.1843 F100.00
G01 X59.2871 Y-44.1629 F100.00
G01 X59.2825 Y-44.1489 F100.00
G01 X59.2743 Y-44.1284 F100.00
G01 X59.2680 Y-44.1151 F100.00
G01 X59.2610 Y-44.1021 F100.00
G01 X59.2535 Y-44.0895 F100.00
G01 X59.2453 Y-44.0773 F100.00
G01 X59.2319 Y-44.0597 F100.00
G01 X59.2173 Y-44.0431 F100.00
G01 X59.2069 Y-44.0327 F100.00
G01 X59.1903 Y-44.0181 F100.00
G01 X59.1787 Y-44.0090 F100.00
G01 X59.1667 Y-44.0006 F100.00
G01 X59.1542 Y-43.9927 F100.00
G01 X59.1414 Y-43.9854 F100.00
G01 X59.1216 Y-43.9757 F100.00
G01 X59.1080 Y-43.9701 F100.00
G01 X59.0871 Y-43.9629 F100.00
G01 X59.0657 Y-43.9573 F100.00
G01 X59.0513 Y-43.9544 F100.00
G01 X59.0294 Y-43.9514 F100.00
G01 X59.0147 Y-43.9504 F100.00
G01 X59.0000 Y-43.9500 F100.00
G01 X58.9853 Y-43.9504 F100.00
G01 X58.9706 Y-43.9514 F100.00
G01 X58.9487 Y-43.9544 F100.00
G01 X58.9343 Y-43.9573 F100.00
G01 X58.9129 Y-43.9629 F100.00
G01 X58.8920 Y-43.9701 F100.00
G01 X58.8784 Y-43.9757 F100.00
G01 X58.8651 Y-43.9820 F100.00
G01 X58.8458 Y-43.9927 F100.00
G01 X58.8273 Y-44.0047 F100.00
G01 X58.8154 Y-44.0135 F100.00
G01 X58.8040 Y-44.0228 F100.00
G01 X58.7879 Y-44.0379 F100.00
G01 X58.7777 Y-44.0485 F100.00
G01 X58.7681 Y-44.0597 F100.00
G01 X58.7547 Y-44.0773 F100.00
G01 X58.7427 Y-44.0958 F100.00
G01 X58.7354 Y-44.1086 F100.00
G01 X58.7320 Y-44.1151 F100.00
G01 X58.7288 Y-44.1217 F100.00
G01 X58.7201 Y-44.1420 F100.00
G01 X58.7129 Y-44.1629 F100.00
G01 X58.7073 Y-44.1843 F100.00
G01 X58.7044 Y-44.1987 F100.00
G01 X58.7023 Y-44.2133 F100.00
G01 X58.7008 Y-44.2279 F100.00
G01 X58.7001 Y-44.2426 F100.00
G01 X58.7004 Y-44.2647 F100.00
G01 X58.7014 Y-44.2794 F100.00
G01 X58.7032 Y-44.2940 F100.00
G01 X58.7073 Y-44.3157 F100.00
G01 X58.7129 Y-44.3371 F100.00
G01 X58.7175 Y-44.3511 F100.00
G01 X58.7228 Y-44.3648 F100.00
G01 X58.7288 Y-44.3783 F100.00
G01 X58.7354 Y-44.3914 F100.00
G01 X58.7465 Y-44.4105 F100.00
G01 X58.7590 Y-44.4287 F100.00
G01 X58.7681 Y-44.4403 F100.00
G01 X58.7777 Y-44.4515 F100.00
G01 X58.7931 Y-44.4673 F100.00
G01 X58.8040 Y-44.4772 F100.00
G01 X58.8154 Y-44.4865 F100.00
G01 X58.8333 Y-44.4994 F100.00
G01 X58.8458 Y-44.5073 F100.00
G01 X58.8586 Y-44.5146 F100.00
G01 X58.8717 Y-44.5212 F100.00
G01 X58.8852 Y-44.5272 F100.00
G01 X58.9059 Y-44.5349 F100.00
G01 X58.9271 Y-44.5410 F100.00
G01 X58.9487 Y-44.5456 F100.00
G01 X58.9706 Y-44.5486 F100.00
G01 X58.9853 Y-44.5496 F100.00
G01 X59.0000 Y-44.5500 F100.00
G01 X59.0147 Y-44.5496 F100.00
G01 X59.0294 Y-44.5486 F100.00
G01 X59.0513 Y-44.5456 F100.00
G01 X59.0657 Y-44.5427 F100.00
G01 X59.0800 Y-44.5391 F100.00
G01 X59.0941 Y-44.5349 F100.00
G01 X59.1080 Y-44.5299 F100.00
G01 X59.1283 Y-44.5212 F100.00
G01 X59.1414 Y-44.5146 F100.00
G01 X59.1542 Y-44.5073 F100.00
G01 X59.1667 Y-44.4994 F100.00
G01 X59.1787 Y-44.4910 F100.00
G01 X59.1903 Y-44.4819 F100.00
G01 X59.2015 Y-44.4723 F100.00
G01 X59.2121 Y-44.4621 F100.00
G01 X59.2223 Y-44.4515 F100.00
G01 X59.2365 Y-44.4346 F100.00
G01 X59.2494 Y-44.4167 F100.00
G01 X59.2573 Y-44.4042 F100.00
G01 X59.2646 Y-44.3914 F100.00
G01 X59.2712 Y-44.3783 F100.00
G01 X59.2772 Y-44.3648 F100.00
G01 X59.2825 Y-44.3511 F100.00
G01 X59.2871 Y-44.3371 F100.00
G01 X59.2927 Y-44.3157 F100.00
G01 X59.2956 Y-44.3013 F100.00
G01 X59.2986 Y-44.2794 F100.00
G01 X59.2996 Y-44.2647 F100.00
G01 X59.3000 Y-44.2500 F100.00
G01 X57.7500 Y-43.8708 F100.00
G01 X57.7000 Y-44.1220 F100.00
G01 X57.7000 Y-44.3780 F100.00
G01 X57.7500 Y-44.6292 F100.00
G01 X57.8480 Y-44.8658 F100.00
G01 X57.9903 Y-45.0787 F100.00
G01 X58.1713 Y-45.2597 F100.00
G01 X58.3842 Y-45.4020 F100.00
G01 X58.6208 Y-45.5000 F100.00
G01 X58.8720 Y-45.5500 F100.00
G01 X59.1280 Y-45.5500 F100.00
G01 X59.3792 Y-45.5000 F100.00
G01 X59.6158 Y-45.4020 F100.00
G01 X59.8287 Y-45.2597 F100.00
G01 X60.0097 Y-45.0787 F100.00
G01 X60.1520 Y-44.8658 F100.00
G01 X60.2500 Y-44.6292 F100.00
G01 X60.3000 Y-44.3780 F100.00
G01 X60.3000 Y-44.1220 F100.00
G01 X60.2500 Y-43.8708 F100.00
G01 X60.1520 Y-43.6342 F100.00
G01 X60.0097 Y-43.4213 F100.00
G01 X59.8287 Y-43.2403 F100.00
G01 X59.6158 Y-43.0980 F100.00
G01 X59.3792 Y-43.0000 F100.00
G01 X59.1280 Y-42.9500 F100.00
G01 X58.8720 Y-42.9500 F100.00
G01 X58.6208 Y-43.0000 F100.00
G01 X58.3842 Y-43.0980 F100.00
G01 X58.1713 Y-43.2403 F100.00
G01 X57.9903 Y-43.4213 F100.00
G01 X57.8480 Y-43.6342 F100.00
G01 X57.7500 Y-43.8708 F100.00
G00 X57.7500 Y-43.8708
G01 F60.00
G01 Z-1.8000
G01 F100.00
G01 X57.8480 Y-43.6342 F100.00
G01 X57.9903 Y-43.4213 F100.00
G01 X58.1713 Y-43.2403 F100.00
G01 X58.3842 Y-43.0980 F100.00
G01 X58.6208 Y-43.0000 F100.00
G01 X58.8720 Y-42.9500 F100.00
G01 X59.1280 Y-42.9500 F100.00
G01 X59.3792 Y-43.0000 F100.00
G01 X59.6158 Y-43.0980 F100.00
G01 X59.8287 Y-43.2403 F100.00
G01 X60.0097 Y-43.4213 F100.00
G01 X60.1520 Y-43.6342 F100.00
G01 X60.2500 Y-43.8708 F100.00
G01 X60.3000 Y-44.1220 F100.00
G01 X60.3000 Y-44.3780 F100.00
G01 X60.2500 Y-44.6292 F100.00
G01 X60.1520 Y-44.8658 F100.00
G01 X60.0097 Y-45.0787 F100.00
G01 X59.8287 Y-45.2597 F100.00
G01 X59.6158 Y-45.4020 F100.00
G01 X59.3792 Y-45.5000 F100.00
G01 X59.1280 Y-45.5500 F100.00
G01 X58.8720 Y-45.5500 F100.00
G01 X58.6208 Y-45.5000 F100.00
G01 X58.3842 Y-45.4020 F100.00
G01 X58.1713 Y-45.2597 F100.00
G01 X57.9903 Y-45.0787 F100.00
G01 X57.8480 Y-44.8658 F100.00
G01 X57.7500 Y-44.6292 F100.00
G01 X57.7000 Y-44.3780 F100.00
G01 X57.7000 Y-44.1220 F100.00
G01 X57.7500 Y-43.8708 F100.00
G01 X59.3000 Y-44.2500 F100.00
G01 X59.2996 Y-44.2647 F100.00
G01 X59.2986 Y-44.2794 F100.00
G01 X59.2956 Y-44.3013 F100.00
G01 X59.2927 Y-44.3157 F100.00
G01 X59.2871 Y-44.3371 F100.00
G01 X59.2825 Y-44.3511 F100.00
G01 X59.2772 Y-44.3648 F100.00
G01 X59.2712 Y-44.3783 F100.00
G01 X59.2646 Y-44.3914 F100.00
G01 X59.2573 Y-44.4042 F100.00
G01 X59.2494 Y-44.4167 F100.00
G01 X59.2365 Y-44.4346 F100.00
G01 X59.2223 Y-44.4515 F100.00
G01 X59.2121 Y-44.4621 F100.00
G01 X59.2015 Y-44.4723 F100.00
G01 X59.1903 Y-44.4819 F100.00
G01 X59.1787 Y-44.4910 F100.00
G01 X59.1667 Y-44.4994 F100.00
G01 X59.1542 Y-44.5073 F100.00
G01 X59.1414 Y-44.5146 F100.00
G01 X59.1283 Y-44.5212 F100.00
G01 X59.1080 Y-44.5299 F100.00
G01 X59.0941 Y-44.5349 F100.00
G01 X59.0800 Y-44.5391 F100.00
G01 X59.0657 Y-44.5427 F100.00
G01 X59.0513 Y-44.5456 F100.00
G01 X59.0294 Y-44.5486 F100.00
G01 X59.0147 Y-44.5496 F100.00
G01 X59.0000 Y-44.5500 F100.00
G01 X58.9853 Y-44.5496 F100.00
G01 X58.9706 Y-44.5486 F100.00
G01 X58.9487 Y-44.5456 F100.00
G01 X58.9271 Y-44.5410 F100.00
G01 X58.9059 Y-44.5349 F100.00
G01 X58.8852 Y-44.5272 F100.00
G01 X58.8717 Y-44.5212 F100.00
G01 X58.8586 Y-44.5146 F100.00
G01 X58.8458 Y-44.5073 F100.00
G01 X58.8333 Y-44.4994 F100.00
G01 X58.8154 Y-44.4865 F100.00
G01 X58.8040 Y-44.4772 F100.00
G01 X58.7931 Y-44.4673 F100.00
G01 X58.7777 Y-44.4515 F100.00
G01 X58.7681 Y-44.4403 F100.00
G01 X58.7590 Y-44.4287 F100.00
G01 X58.7465 Y-44.4105 F100.00
G01 X58.7354 Y-44.3914 F100.00
G01 X58.7288 Y-44.3783 F100.00
G01 X58.7228 Y-44.3648 F100.00
G01 X58.7175 Y-44.3511 F100.00
G01 X58.7129 Y-44.3371 F100.00
G01 X58.7073 Y-44.3157 F100.00
G01 X58.7032 Y-44.2940 F100.00
G01 X58.7014 Y-44.2794 F100.00
G01 X58.7004 Y-44.2647 F100.00
G01 X58.7001 Y-44.2426 F100.00
G01 X58.7008 Y-44.2279 F100.00
G01 X58.7023 Y-44.2133 F100.00
G01 X58.7044 Y-44.1987 F100.00
G01 X58.7073 Y-44.1843 F100.00
G01 X58.7129 Y-44.1629 F100.00
G01 X58.7201 Y-44.1420 F100.00
G01 X58.7288 Y-44.1217 F100.00
G01 X58.7320 Y-44.1151 F100.00
G01 X58.7354 Y-44.1086 F100.00
G01 X58.7427 Y-44.0958 F100.00
G01 X58.7547 Y-44.0773 F100.00
G01 X58.7681 Y-44.0597 F100.00
G01 X58.7777 Y-44.0485 F100.00
G01 X58.7879 Y-44.0379 F100.00
G01 X58.8040 Y-44.0228 F100.00
G01 X58.8154 Y-44.0135 F100.00
G01 X58.8273 Y-44.0047 F100.00
G01 X58.8458 Y-43.9927 F100.00
G01 X58.8651 Y-43.9820 F100.00
G01 X58.8784 Y-43.9757 F100.00
