(G-CODE GENERATED BY FLATCAM v8.994 - www.flatcam.org - Version Date: 2020/11/7)

(Name: esp8266-sd-file-server-F_Cu.gbr_iso_combined_cnc)
(Type: G-code from Geometry)
(Units: MM)

(Created on Monday, 09 December 2024 at 21:45)

(This preprocessor is used with a motion controller loaded with GRBL firmware.)
(It is configured to be compatible with almost any version of GRBL firmware.)

(TOOL DIAMETER: 0.1105 mm)
(Feedrate_XY: 100.0 mm/min)
(Feedrate_Z: 25.0 mm/min)
(Feedrate rapids 1500.0 mm/min)

(Z_Cut: -0.06 mm)
(Z_Move: 1.0 mm)
(Z Start: None mm)
(Z End: 2.0 mm)
(X,Y End: 0.0000, 0.0000 mm)
(Steps per circle: 64)
(Steps per circle: 64)
(Preprocessor Geometry: GRBL_11_no_M6)

(X range:    0.0000 ...    0.0000  mm)
(Y range:    0.0000 ...    0.0000  mm)

(Spindle Speed: 10000.0 RPM)
G21
G90
G17
G94


G01 F100.00

M5             
G00 Z2.0000
G00 X0.0000 Y0.0000                
T1
(MSG, Change to Tool Dia = 0.1105)
M0
G00 Z2.0000
        
M03 S10000.0
G01 F100.00
G00 X4.8679 Y-4.9292
G01 F25.00
G01 Z-0.0600
G01 F100.00
G01 X4.8662 Y-4.9643 F100.00
G01 X4.8662 Y-6.6738 F100.00
G01 X4.8370 Y-6.6812 F100.00
G01 X4.8050 Y-6.6927 F100.00
G01 X4.7743 Y-6.7072 F100.00
G01 X4.7497 Y-6.7218 F100.00
G01 X4.7408 Y-6.7277 F100.00
G01 X4.7200 Y-6.7432 F100.00
G01 X4.7138 Y-6.7484 F100.00
G01 X4.6927 Y-6.7677 F100.00
G01 X4.6699 Y-6.7929 F100.00
G01 X4.6496 Y-6.8202 F100.00
G01 X4.6322 Y-6.8493 F100.00
G01 X4.6177 Y-6.8800 F100.00
G01 X4.6079 Y-6.9069 F100.00
G01 X4.6055 Y-6.9146 F100.00
G01 X4.5991 Y-6.9398 F100.00
G01 X4.5970 Y-6.9502 F100.00
G01 X4.5930 Y-6.9786 F100.00
G01 X4.5913 Y-7.0125 F100.00
G01 X4.5913 Y-7.4902 F100.00
G01 X4.5930 Y-7.5214 F100.00
G01 X4.5970 Y-7.5498 F100.00
G01 X4.5991 Y-7.5602 F100.00
G01 X4.6070 Y-7.5905 F100.00
G01 X4.6167 Y-7.6175 F100.00
G01 X4.6198 Y-7.6249 F100.00
G01 X4.6322 Y-7.6507 F100.00
G01 X4.6468 Y-7.6753 F100.00
G01 X4.6527 Y-7.6842 F100.00
G01 X4.6699 Y-7.7071 F100.00
G01 X4.6890 Y-7.7284 F100.00
G01 X4.6966 Y-7.7360 F100.00
G01 X4.7179 Y-7.7551 F100.00
G01 X4.7408 Y-7.7723 F100.00
G01 X4.7497 Y-7.7782 F100.00
G01 X4.7743 Y-7.7928 F100.00
G01 X4.8001 Y-7.8052 F100.00
G01 X4.8100 Y-7.8093 F100.00
G01 X4.8370 Y-7.8188 F100.00
G01 X4.8662 Y-7.8262 F100.00
G01 X4.8662 Y-8.6738 F100.00
G01 X4.8370 Y-8.6812 F100.00
G01 X4.8100 Y-8.6907 F100.00
G01 X4.8001 Y-8.6948 F100.00
G01 X4.7743 Y-8.7072 F100.00
G01 X4.7497 Y-8.7218 F100.00
G01 X4.7408 Y-8.7277 F100.00
G01 X4.7179 Y-8.7449 F100.00
G01 X4.6966 Y-8.7640 F100.00
G01 X4.6890 Y-8.7716 F100.00
G01 X4.6699 Y-8.7929 F100.00
G01 X4.6527 Y-8.8158 F100.00
G01 X4.6468 Y-8.8247 F100.00
G01 X4.6322 Y-8.8493 F100.00
G01 X4.6198 Y-8.8751 F100.00
G01 X4.6167 Y-8.8825 F100.00
G01 X4.6070 Y-8.9095 F100.00
G01 X4.5991 Y-8.9398 F100.00
G01 X4.5970 Y-8.9502 F100.00
G01 X4.5930 Y-8.9786 F100.00
G01 X4.5913 Y-9.0098 F100.00
G01 X4.5913 Y-9.4875 F100.00
G01 X4.5926 Y-9.5161 F100.00
G01 X4.5936 Y-9.5267 F100.00
G01 X4.5980 Y-9.5550 F100.00
G01 X4.6048 Y-9.5829 F100.00
G01 X4.6079 Y-9.5931 F100.00
G01 X4.6177 Y-9.6200 F100.00
G01 X4.6322 Y-9.6507 F100.00
G01 X4.6468 Y-9.6753 F100.00
G01 X4.6527 Y-9.6842 F100.00
G01 X4.6699 Y-9.7071 F100.00
G01 X4.6890 Y-9.7284 F100.00
G01 X4.6966 Y-9.7360 F100.00
G01 X4.7179 Y-9.7551 F100.00
G01 X4.7452 Y-9.7754 F100.00
G01 X4.7697 Y-9.7902 F100.00
G01 X4.7791 Y-9.7952 F100.00
G01 X4.8050 Y-9.8073 F100.00
G01 X4.8345 Y-9.8180 F100.00
G01 X4.8648 Y-9.8259 F100.00
G01 X4.8752 Y-9.8280 F100.00
G01 X4.9036 Y-9.8320 F100.00
G01 X4.9348 Y-9.8337 F100.00
G01 X5.5125 Y-9.8337 F100.00
G01 X5.5411 Y-9.8324 F100.00
G01 X5.5517 Y-9.8314 F100.00
G01 X5.5800 Y-9.8270 F100.00
G01 X5.6130 Y-9.8188 F100.00
G01 X5.6450 Y-9.8073 F100.00
G01 X5.6757 Y-9.7928 F100.00
G01 X5.7048 Y-9.7754 F100.00
G01 X5.7321 Y-9.7551 F100.00
G01 X5.7573 Y-9.7323 F100.00
G01 X5.7766 Y-9.7112 F100.00
G01 X5.7818 Y-9.7050 F100.00
G01 X5.7973 Y-9.6842 F100.00
G01 X5.8032 Y-9.6753 F100.00
G01 X5.8190 Y-9.6483 F100.00
G01 X5.8313 Y-9.6224 F100.00
G01 X5.8343 Y-9.6150 F100.00
G01 X5.8438 Y-9.5880 F100.00
G01 X5.8520 Y-9.5550 F100.00
G01 X5.8570 Y-9.5214 F100.00
G01 X5.8587 Y-9.4875 F100.00
G01 X5.8587 Y-9.0098 F100.00
G01 X5.8570 Y-8.9786 F100.00
G01 X5.8530 Y-8.9502 F100.00
G01 X5.8509 Y-8.9398 F100.00
G01 X5.8430 Y-8.9095 F100.00
G01 X5.8333 Y-8.8825 F100.00
G01 X5.8302 Y-8.8751 F100.00
G01 X5.8178 Y-8.8493 F100.00
G01 X5.8032 Y-8.8247 F100.00
G01 X5.7973 Y-8.8158 F100.00
G01 X5.7801 Y-8.7929 F100.00
G01 X5.7610 Y-8.7716 F100.00
G01 X5.7534 Y-8.7640 F100.00
G01 X5.7321 Y-8.7449 F100.00
G01 X5.7092 Y-8.7277 F100.00
G01 X5.7003 Y-8.7218 F100.00
G01 X5.6757 Y-8.7072 F100.00
G01 X5.6499 Y-8.6948 F100.00
G01 X5.6400 Y-8.6907 F100.00
G01 X5.6130 Y-8.6812 F100.00
G01 X5.5838 Y-8.6738 F100.00
G01 X5.5838 Y-7.8262 F100.00
G01 X5.6130 Y-7.8188 F100.00
G01 X5.6450 Y-7.8073 F100.00
G01 X5.6757 Y-7.7928 F100.00
G01 X5.7003 Y-7.7782 F100.00
G01 X5.7092 Y-7.7723 F100.00
G01 X5.7300 Y-7.7568 F100.00
G01 X5.7362 Y-7.7516 F100.00
G01 X5.7573 Y-7.7323 F100.00
G01 X5.7801 Y-7.7071 F100.00
G01 X5.8004 Y-7.6798 F100.00
G01 X5.8178 Y-7.6507 F100.00
G01 X5.8323 Y-7.6200 F100.00
G01 X5.8421 Y-7.5931 F100.00
G01 X5.8445 Y-7.5854 F100.00
G01 X5.8509 Y-7.5602 F100.00
G01 X5.8530 Y-7.5498 F100.00
G01 X5.8570 Y-7.5214 F100.00
G01 X5.8587 Y-7.4875 F100.00
G01 X5.8587 Y-7.0098 F100.00
G01 X5.8570 Y-6.9786 F100.00
G01 X5.8530 Y-6.9502 F100.00
G01 X5.8509 Y-6.9398 F100.00
G01 X5.8430 Y-6.9095 F100.00
G01 X5.8333 Y-6.8825 F100.00
G01 X5.8302 Y-6.8751 F100.00
G01 X5.8178 Y-6.8493 F100.00
G01 X5.8032 Y-6.8247 F100.00
G01 X5.7973 Y-6.8158 F100.00
G01 X5.7801 Y-6.7929 F100.00
G01 X5.7610 Y-6.7716 F100.00
G01 X5.7534 Y-6.7640 F100.00
G01 X5.7321 Y-6.7449 F100.00
G01 X5.7092 Y-6.7277 F100.00
G01 X5.7003 Y-6.7218 F100.00
G01 X5.6757 Y-6.7072 F100.00
G01 X5.6499 Y-6.6948 F100.00
G01 X5.6400 Y-6.6907 F100.00
G01 X5.6130 Y-6.6812 F100.00
G01 X5.5838 Y-6.6738 F100.00
G01 X5.5838 Y-5.1130 F100.00
G01 X8.5880 Y-2.1088 F100.00
G01 X11.8514 Y-2.1088 F100.00
G01 X12.6412 Y-2.8986 F100.00
G01 X12.6412 Y-15.8514 F100.00
G01 X12.1014 Y-16.3912 F100.00
G01 X11.5000 Y-16.3912 F100.00
G01 X11.4648 Y-16.3929 F100.00
G01 X11.4300 Y-16.3981 F100.00
G01 X11.3958 Y-16.4066 F100.00
G01 X11.3627 Y-16.4185 F100.00
G01 X11.3309 Y-16.4335 F100.00
G01 X11.3052 Y-16.4488 F100.00
G01 X11.2984 Y-16.4532 F100.00
G01 X11.2724 Y-16.4726 F100.00
G01 X11.2477 Y-16.4949 F100.00
G01 X11.1512 Y-16.5913 F100.00
G01 X9.0447 Y-16.5914 F100.00
G01 X9.0341 Y-16.5925 F100.00
G01 X9.0262 Y-16.5939 F100.00
G01 X9.0159 Y-16.5968 F100.00
G01 X9.0084 Y-16.5996 F100.00
G01 X9.0011 Y-16.6029 F100.00
G01 X8.9918 Y-16.6082 F100.00
G01 X8.9831 Y-16.6143 F100.00
G01 X8.9750 Y-16.6213 F100.00
G01 X8.9695 Y-16.6270 F100.00
G01 X8.9627 Y-16.6352 F100.00
G01 X8.9568 Y-16.6441 F100.00
G01 X8.9529 Y-16.6511 F100.00
G01 X8.9496 Y-16.6584 F100.00
G01 X8.9460 Y-16.6684 F100.00
G01 X8.9434 Y-16.6788 F100.00
G01 X8.9421 Y-16.6867 F100.00
G01 X8.9413 Y-16.7000 F100.00
G01 X8.9413 Y-17.8000 F100.00
G01 X8.9421 Y-17.8133 F100.00
G01 X8.9446 Y-17.8264 F100.00
G01 X8.9486 Y-17.8391 F100.00
G01 X8.9517 Y-17.8465 F100.00
G01 X8.9554 Y-17.8536 F100.00
G01 X8.9627 Y-17.8648 F100.00
G01 X8.9713 Y-17.8750 F100.00
G01 X8.9810 Y-17.8840 F100.00
G01 X8.9918 Y-17.8918 F100.00
G01 X9.0035 Y-17.8983 F100.00
G01 X9.0159 Y-17.9032 F100.00
G01 X9.0288 Y-17.9066 F100.00
G01 X9.0420 Y-17.9084 F100.00
G01 X9.0500 Y-17.9087 F100.00
G01 X9.6243 Y-17.9087 F100.00
G01 X9.6158 Y-17.9189 F100.00
G01 X9.5924 Y-17.9504 F100.00
G01 X9.5865 Y-17.9593 F100.00
G01 X9.5637 Y-17.9976 F100.00
G01 X9.5445 Y-18.0379 F100.00
G01 X9.5404 Y-18.0477 F100.00
G01 X9.5255 Y-18.0898 F100.00
G01 X9.5134 Y-18.1382 F100.00
G01 X9.5061 Y-18.1876 F100.00
G01 X9.5036 Y-18.2348 F100.00
G01 X9.5034 Y-21.6403 F100.00
G01 X9.5000 Y-21.6553 F100.00
G01 X9.4938 Y-21.6976 F100.00
G01 X9.4930 Y-21.7076 F100.00
G01 X9.4911 Y-21.7502 F100.00
G01 X9.4976 Y-23.3204 F100.00
G01 X9.4774 Y-23.3237 F100.00
G01 X9.4433 Y-23.3326 F100.00
G01 X9.4127 Y-23.3436 F100.00
G01 X9.3833 Y-23.3574 F100.00
G01 X9.3763 Y-23.3613 F100.00
G01 X9.3507 Y-23.3768 F100.00
G01 X9.3267 Y-23.3944 F100.00
G01 X9.3184 Y-23.4012 F100.00
G01 X9.2945 Y-23.4233 F100.00
G01 X9.2727 Y-23.4474 F100.00
G01 X9.2518 Y-23.4757 F100.00
G01 X9.2337 Y-23.5059 F100.00
G01 X9.2208 Y-23.5329 F100.00
G01 X9.2167 Y-23.5427 F100.00
G01 X9.2076 Y-23.5683 F100.00
G01 X9.2053 Y-23.5760 F100.00
G01 X9.1982 Y-23.6050 F100.00
G01 X9.1933 Y-23.6372 F100.00
G01 X9.1926 Y-23.6452 F100.00
G01 X9.1913 Y-23.6750 F100.00
G01 X9.1913 Y-25.8250 F100.00
G01 X9.1930 Y-25.8602 F100.00
G01 X9.1982 Y-25.8950 F100.00
G01 X9.2067 Y-25.9291 F100.00
G01 X9.2167 Y-25.9573 F100.00
G01 X9.2208 Y-25.9671 F100.00
G01 X9.2324 Y-25.9917 F100.00
G01 X9.2363 Y-25.9987 F100.00
G01 X9.2518 Y-26.0243 F100.00
G01 X9.2694 Y-26.0483 F100.00
G01 X9.2744 Y-26.0546 F100.00
G01 X9.2964 Y-26.0786 F100.00
G01 X9.3224 Y-26.1023 F100.00
G01 X9.3507 Y-26.1232 F100.00
G01 X9.3786 Y-26.1401 F100.00
G01 X9.3857 Y-26.1437 F100.00
G01 X9.4127 Y-26.1564 F100.00
G01 X9.4433 Y-26.1674 F100.00
G01 X9.4774 Y-26.1763 F100.00
G01 X9.4965 Y-26.1794 F100.00
G01 X9.4933 Y-26.2028 F100.00
G01 X9.4911 Y-26.2473 F100.00
G01 X9.4912 Y-26.2553 F100.00
G01 X9.4933 Y-26.2972 F100.00
G01 X9.4942 Y-26.3052 F100.00
G01 X9.5009 Y-26.3493 F100.00
G01 X9.5116 Y-26.3926 F100.00
G01 X9.5138 Y-26.4003 F100.00
G01 X9.5279 Y-26.4398 F100.00
G01 X9.5320 Y-26.4496 F100.00
G01 X9.5512 Y-26.4899 F100.00
G01 X9.5740 Y-26.5282 F100.00
G01 X9.5799 Y-26.5371 F100.00
G01 X9.6066 Y-26.5728 F100.00
G01 X9.6383 Y-26.6079 F100.00
G01 X10.6402 Y-27.6099 F100.00
G01 X10.6751 Y-27.6417 F100.00
G01 X10.7129 Y-27.6701 F100.00
G01 X10.7218 Y-27.6760 F100.00
G01 X10.7601 Y-27.6988 F100.00
G01 X10.8053 Y-27.7202 F100.00
G01 X10.8472 Y-27.7353 F100.00
G01 X10.8574 Y-27.7384 F100.00
G01 X10.9007 Y-27.7491 F100.00
G01 X10.9501 Y-27.7564 F100.00
G01 X11.0000 Y-27.7589 F100.00
G01 X26.7892 Y-27.7589 F100.00
G01 X27.4911 Y-28.4608 F100.00
G01 X27.4911 Y-44.7500 F100.00
G01 X27.4932 Y-44.7946 F100.00
G01 X27.4942 Y-44.8052 F100.00
G01 X27.5000 Y-44.8440 F100.00
G01 X27.5020 Y-44.8545 F100.00
G01 X27.5130 Y-44.8977 F100.00
G01 X27.5298 Y-44.9447 F100.00
G01 X27.5512 Y-44.9899 F100.00
G01 X27.5740 Y-45.0282 F100.00
G01 X27.5799 Y-45.0371 F100.00
G01 X27.6083 Y-45.0749 F100.00
G01 X27.6402 Y-45.1098 F100.00
G01 X28.4690 Y-45.9385 F100.00
G01 X28.5021 Y-45.9684 F100.00
G01 X28.5423 Y-45.9981 F100.00
G01 X28.5851 Y-46.0238 F100.00
G01 X28.6302 Y-46.0452 F100.00
G01 X28.6773 Y-46.0620 F100.00
G01 X28.7257 Y-46.0741 F100.00
G01 X28.7751 Y-46.0814 F100.00
G01 X28.8250 Y-46.0839 F100.00
G01 X47.9377 Y-46.0839 F100.00
G01 X47.9849 Y-46.0814 F100.00
G01 X48.0290 Y-46.0750 F100.00
G01 X48.0395 Y-46.0729 F100.00
G01 X48.0776 Y-46.0634 F100.00
G01 X48.0878 Y-46.0603 F100.00
G01 X48.1298 Y-46.0452 F100.00
G01 X48.1749 Y-46.0238 F100.00
G01 X48.2177 Y-45.9981 F100.00
G01 X48.2558 Y-45.9700 F100.00
G01 X48.2619 Y-45.9649 F100.00
G01 X48.2949 Y-45.9348 F100.00
G01 X48.8235 Y-45.4060 F100.00
G01 X48.8534 Y-45.3728 F100.00
G01 X48.8831 Y-45.3327 F100.00
G01 X48.9088 Y-45.2899 F100.00
G01 X48.9280 Y-45.2496 F100.00
G01 X48.9321 Y-45.2398 F100.00
G01 X48.9453 Y-45.2028 F100.00
G01 X48.9484 Y-45.1926 F100.00
G01 X48.9591 Y-45.1493 F100.00
G01 X48.9662 Y-45.1025 F100.00
G01 X48.9668 Y-45.0946 F100.00
G01 X48.9689 Y-45.0500 F100.00
G01 X48.9689 Y-44.2397 F100.00
G01 X49.0085 Y-44.2206 F100.00
G01 X49.1015 Y-44.1649 F100.00
G01 X49.1081 Y-44.1604 F100.00
G01 X49.1909 Y-44.0990 F100.00
G01 X49.1971 Y-44.0940 F100.00
G01 X49.2793 Y-44.0193 F100.00
G01 X49.3522 Y-43.9391 F100.00
G01 X49.3590 Y-43.9309 F100.00
G01 X49.4204 Y-43.8481 F100.00
G01 X49.4249 Y-43.8415 F100.00
G01 X49.4819 Y-43.7462 F100.00
G01 X49.5283 Y-43.6483 F100.00
G01 X49.5324 Y-43.6384 F100.00
G01 X49.5688 Y-43.5364 F100.00
G01 X49.5953 Y-43.4313 F100.00
G01 X49.5973 Y-43.4208 F100.00
G01 X49.6131 Y-43.3136 F100.00
G01 X49.6187 Y-43.2027 F100.00
G01 X49.6187 Y-41.3000 F100.00
G01 X49.6131 Y-41.1864 F100.00
G01 X49.5964 Y-41.0739 F100.00
G01 X49.5688 Y-40.9636 F100.00
G01 X49.5305 Y-40.8566 F100.00
G01 X49.4819 Y-40.7538 F100.00
G01 X49.4263 Y-40.6608 F100.00
G01 X49.4219 Y-40.6541 F100.00
G01 X49.3557 Y-40.5649 F100.00
G01 X49.2830 Y-40.4845 F100.00
G01 X49.2774 Y-40.4788 F100.00
G01 X49.1991 Y-40.4078 F100.00
G01 X49.1930 Y-40.4026 F100.00
G01 X49.1059 Y-40.3381 F100.00
G01 X49.0690 Y-40.3156 F100.00
G01 X49.0690 Y-33.6422 F100.00
G01 X52.9523 Y-29.7589 F100.00
G01 X55.6228 Y-29.7589 F100.00
G01 X55.6452 Y-29.7754 F100.00
G01 X55.6697 Y-29.7902 F100.00
G01 X55.6791 Y-29.7952 F100.00
G01 X55.7050 Y-29.8073 F100.00
G01 X55.7370 Y-29.8188 F100.00
G01 X55.7648 Y-29.8259 F100.00
G01 X55.7752 Y-29.8280 F100.00
G01 X55.8036 Y-29.8320 F100.00
G01 X55.8375 Y-29.8337 F100.00
G01 X56.4125 Y-29.8337 F100.00
G01 X56.4411 Y-29.8324 F100.00
G01 X56.4491 Y-29.8317 F100.00
G01 X56.4748 Y-29.8280 F100.00
G01 X56.4852 Y-29.8259 F100.00
G01 X56.5130 Y-29.8188 F100.00
G01 X56.5450 Y-29.8073 F100.00
G01 X56.5757 Y-29.7928 F100.00
G01 X56.6003 Y-29.7782 F100.00
G01 X56.6092 Y-29.7723 F100.00
G01 X56.6300 Y-29.7568 F100.00
G01 X56.6362 Y-29.7516 F100.00
G01 X56.6573 Y-29.7323 F100.00
G01 X56.6801 Y-29.7071 F100.00
G01 X56.7004 Y-29.6798 F100.00
G01 X56.7152 Y-29.6553 F100.00
G01 X56.7202 Y-29.6459 F100.00
G01 X56.7313 Y-29.6224 F100.00
G01 X56.7343 Y-29.6150 F100.00
G01 X56.7438 Y-29.5880 F100.00
G01 X56.7515 Y-29.5577 F100.00
G01 X56.7530 Y-29.5498 F100.00
G01 X56.7570 Y-29.5214 F100.00
G01 X56.7587 Y-29.4902 F100.00
G01 X56.7587 Y-29.0125 F100.00
G01 X56.7570 Y-28.9786 F100.00
G01 X56.7530 Y-28.9502 F100.00
G01 X56.7509 Y-28.9398 F100.00
G01 X56.7438 Y-28.9120 F100.00
G01 X56.7343 Y-28.8850 F100.00
G01 X56.7302 Y-28.8751 F100.00
G01 X56.7178 Y-28.8493 F100.00
G01 X56.7032 Y-28.8247 F100.00
G01 X56.6973 Y-28.8158 F100.00
G01 X56.6801 Y-28.7929 F100.00
G01 X56.6610 Y-28.7716 F100.00
G01 X56.6534 Y-28.7640 F100.00
G01 X56.6321 Y-28.7449 F100.00
G01 X56.6092 Y-28.7277 F100.00
G01 X56.6003 Y-28.7218 F100.00
G01 X56.5757 Y-28.7072 F100.00
G01 X56.5499 Y-28.6948 F100.00
G01 X56.5400 Y-28.6907 F100.00
G01 X56.5130 Y-28.6812 F100.00
G01 X56.4827 Y-28.6735 F100.00
G01 X56.4748 Y-28.6720 F100.00
G01 X56.4464 Y-28.6680 F100.00
G01 X56.4125 Y-28.6663 F100.00
G01 X55.8375 Y-28.6663 F100.00
G01 X55.8062 Y-28.6677 F100.00
G01 X55.7752 Y-28.6720 F100.00
G01 X55.7648 Y-28.6741 F100.00
G01 X55.7370 Y-28.6812 F100.00
G01 X55.7075 Y-28.6917 F100.00
G01 X55.6791 Y-28.7048 F100.00
G01 X55.6697 Y-28.7098 F100.00
G01 X55.6452 Y-28.7246 F100.00
G01 X55.6228 Y-28.7411 F100.00
G01 X53.1590 Y-28.7411 F100.00
G01 X53.1590 Y-24.1222 F100.00
G01 X53.6675 Y-23.6137 F100.00
G01 X53.8760 Y-23.6137 F100.00
G01 X53.8760 Y-24.0663 F100.00
G01 X53.6547 Y-24.0664 F100.00
G01 X53.6346 Y-24.0675 F100.00
G01 X53.6122 Y-24.0708 F100.00
G01 X53.5900 Y-24.0760 F100.00
G01 X53.5798 Y-24.0791 F100.00
G01 X53.5585 Y-24.0870 F100.00
G01 X53.5404 Y-24.0956 F100.00
G01 X53.5334 Y-24.0995 F100.00
G01 X53.5163 Y-24.1099 F100.00
G01 X53.5001 Y-24.1217 F100.00
G01 X53.4938 Y-24.1267 F100.00
G01 X53.4809 Y-24.1384 F100.00
G01 X53.4752 Y-24.1440 F100.00
G01 X53.4600 Y-24.1609 F100.00
G01 X53.4449 Y-24.1813 F100.00
G01 X53.4318 Y-24.2030 F100.00
G01 X53.4210 Y-24.2260 F100.00
G01 X53.4124 Y-24.2499 F100.00
G01 X53.4063 Y-24.2745 F100.00
G01 X53.4025 Y-24.2996 F100.00
G01 X53.4013 Y-24.3223 F100.00
G01 X53.4013 Y-24.6277 F100.00
G01 X53.4025 Y-24.6504 F100.00
G01 X53.4054 Y-24.6702 F100.00
G01 X53.4074 Y-24.6807 F100.00
G01 X53.4132 Y-24.7026 F100.00
G01 X53.4220 Y-24.7265 F100.00
G01 X53.4306 Y-24.7446 F100.00
G01 X53.4345 Y-24.7516 F100.00
G01 X53.4449 Y-24.7687 F100.00
G01 X53.4567 Y-24.7849 F100.00
G01 X53.4617 Y-24.7912 F100.00
G01 X53.4734 Y-24.8041 F100.00
G01 X53.4790 Y-24.8098 F100.00
G01 X53.4959 Y-24.8250 F100.00
G01 X53.5163 Y-24.8401 F100.00
G01 X53.5380 Y-24.8532 F100.00
G01 X53.5635 Y-24.8650 F100.00
G01 X53.5849 Y-24.8726 F100.00
G01 X53.6095 Y-24.8787 F100.00
G01 X53.6346 Y-24.8825 F100.00
G01 X53.6547 Y-24.8836 F100.00
G01 X54.0344 Y-24.8837 F100.00
G01 X54.0563 Y-24.9075 F100.00
G01 X54.0946 Y-24.9422 F100.00
G01 X54.1008 Y-24.9474 F100.00
G01 X54.1467 Y-24.9813 F100.00
G01 X54.1956 Y-25.0108 F100.00
G01 X54.2027 Y-25.0144 F100.00
G01 X54.2471 Y-25.0354 F100.00
G01 X54.2569 Y-25.0395 F100.00
G01 X54.3082 Y-25.0577 F100.00
G01 X54.3636 Y-25.0717 F100.00
G01 X54.3715 Y-25.0732 F100.00
G01 X54.4253 Y-25.0810 F100.00
G01 X54.4797 Y-25.0838 F100.00
G01 X54.4903 Y-25.0838 F100.00
G01 X54.5447 Y-25.0810 F100.00
G01 X54.5985 Y-25.0732 F100.00
G01 X54.6090 Y-25.0711 F100.00
G01 X54.6566 Y-25.0592 F100.00
G01 X54.6643 Y-25.0569 F100.00
G01 X54.7131 Y-25.0395 F100.00
G01 X54.7229 Y-25.0354 F100.00
G01 X54.7721 Y-25.0120 F100.00
G01 X54.8211 Y-24.9828 F100.00
G01 X54.8277 Y-24.9783 F100.00
G01 X54.8671 Y-24.9490 F100.00
G01 X54.8734 Y-24.9440 F100.00
G01 X54.9137 Y-24.9075 F100.00
G01 X54.9356 Y-24.8837 F100.00
G01 X55.3127 Y-24.8837 F100.00
G01 X55.3354 Y-24.8825 F100.00
G01 X55.3552 Y-24.8796 F100.00
G01 X55.3657 Y-24.8776 F100.00
G01 X55.3876 Y-24.8718 F100.00
G01 X55.4090 Y-24.8640 F100.00
G01 X55.4272 Y-24.8556 F100.00
G01 X55.4343 Y-24.8519 F100.00
G01 X55.4537 Y-24.8401 F100.00
G01 X55.4720 Y-24.8266 F100.00
G01 X55.4782 Y-24.8215 F100.00
G01 X55.4929 Y-24.8079 F100.00
G01 X55.5065 Y-24.7932 F100.00
G01 X55.5116 Y-24.7870 F100.00
G01 X55.5251 Y-24.7687 F100.00
G01 X55.5369 Y-24.7493 F100.00
G01 X55.5406 Y-24.7422 F100.00
G01 X55.5490 Y-24.7240 F100.00
G01 X55.5568 Y-24.7026 F100.00
G01 X55.5626 Y-24.6807 F100.00
G01 X55.5642 Y-24.6728 F100.00
G01 X55.5675 Y-24.6504 F100.00
G01 X55.5687 Y-24.6250 F100.00
G01 X55.5687 Y-24.3250 F100.00
G01 X55.5675 Y-24.2996 F100.00
G01 X55.5642 Y-24.2772 F100.00
G01 X55.5626 Y-24.2693 F100.00
G01 X55.5576 Y-24.2499 F100.00
G01 X55.5490 Y-24.2260 F100.00
G01 X55.5394 Y-24.2054 F100.00
G01 X55.5355 Y-24.1984 F100.00
G01 X55.5251 Y-24.1813 F100.00
G01 X55.5116 Y-24.1630 F100.00
G01 X55.4948 Y-24.1440 F100.00
G01 X55.4782 Y-24.1285 F100.00
G01 X55.4699 Y-24.1217 F100.00
G01 X55.4559 Y-24.1114 F100.00
G01 X55.4492 Y-24.1070 F100.00
G01 X55.4320 Y-24.0968 F100.00
G01 X55.4090 Y-24.0860 F100.00
G01 X55.3851 Y-24.0774 F100.00
G01 X55.3631 Y-24.0718 F100.00
G01 X55.3354 Y-24.0675 F100.00
G01 X55.3127 Y-24.0663 F100.00
G01 X55.0940 Y-24.0663 F100.00
G01 X55.0940 Y-23.6137 F100.00
G01 X55.3100 Y-23.6137 F100.00
G01 X55.3354 Y-23.6125 F100.00
G01 X55.3605 Y-23.6087 F100.00
G01 X55.3851 Y-23.6026 F100.00
G01 X55.4090 Y-23.5940 F100.00
G01 X55.4320 Y-23.5832 F100.00
G01 X55.4515 Y-23.5716 F100.00
G01 X55.4581 Y-23.5670 F100.00
G01 X55.4741 Y-23.5550 F100.00
G01 X55.4891 Y-23.5416 F100.00
G01 X55.4948 Y-23.5360 F100.00
G01 X55.5100 Y-23.5191 F100.00
G01 X55.5236 Y-23.5009 F100.00
G01 X55.5280 Y-23.4942 F100.00
G01 X55.5382 Y-23.4770 F100.00
G01 X55.5468 Y-23.4589 F100.00
G01 X55.5500 Y-23.4515 F100.00
G01 X55.5576 Y-23.4301 F100.00
G01 X55.5632 Y-23.4081 F100.00
G01 X55.5646 Y-23.4002 F100.00
G01 X55.5675 Y-23.3804 F100.00
G01 X55.5687 Y-23.3577 F100.00
G01 X55.5687 Y-23.0550 F100.00
G01 X55.5672 Y-23.0270 F100.00
G01 X55.5637 Y-23.0045 F100.00
G01 X55.5590 Y-22.9850 F100.00
G01 X55.5568 Y-22.9774 F100.00
G01 X55.5490 Y-22.9560 F100.00
G01 X55.5382 Y-22.9330 F100.00
G01 X55.5280 Y-22.9158 F100.00
G01 X55.5220 Y-22.9069 F100.00
G01 X55.5083 Y-22.8888 F100.00
G01 X55.4929 Y-22.8721 F100.00
G01 X55.4741 Y-22.8550 F100.00
G01 X55.4537 Y-22.8399 F100.00
G01 X55.4366 Y-22.8295 F100.00
G01 X55.4272 Y-22.8244 F100.00
G01 X55.4065 Y-22.8150 F100.00
G01 X55.3851 Y-22.8074 F100.00
G01 X55.3631 Y-22.8018 F100.00
G01 X55.3354 Y-22.7975 F100.00
G01 X55.3127 Y-22.7963 F100.00
G01 X55.0940 Y-22.7963 F100.00
G01 X55.0940 Y-22.3437 F100.00
G01 X55.3100 Y-22.3437 F100.00
G01 X55.3354 Y-22.3425 F100.00
G01 X55.3605 Y-22.3387 F100.00
G01 X55.3851 Y-22.3326 F100.00
G01 X55.4090 Y-22.3240 F100.00
G01 X55.4320 Y-22.3132 F100.00
G01 X55.4515 Y-22.3016 F100.00
G01 X55.4581 Y-22.2970 F100.00
G01 X55.4741 Y-22.2850 F100.00
G01 X55.4891 Y-22.2716 F100.00
G01 X55.4948 Y-22.2660 F100.00
G01 X55.5100 Y-22.2491 F100.00
G01 X55.5236 Y-22.2309 F100.00
G01 X55.5280 Y-22.2242 F100.00
G01 X55.5382 Y-22.2070 F100.00
G01 X55.5468 Y-22.1889 F100.00
G01 X55.5500 Y-22.1815 F100.00
G01 X55.5576 Y-22.1601 F100.00
G01 X55.5632 Y-22.1381 F100.00
G01 X55.5646 Y-22.1302 F100.00
G01 X55.5675 Y-22.1104 F100.00
G01 X55.5687 Y-22.0877 F100.00
G01 X55.5687 Y-21.7850 F100.00
G01 X55.5672 Y-21.7570 F100.00
G01 X55.5637 Y-21.7345 F100.00
G01 X55.5590 Y-21.7150 F100.00
G01 X55.5568 Y-21.7074 F100.00
G01 X55.5490 Y-21.6860 F100.00
G01 X55.5382 Y-21.6630 F100.00
G01 X55.5280 Y-21.6458 F100.00
G01 X55.5220 Y-21.6369 F100.00
G01 X55.5083 Y-21.6188 F100.00
G01 X55.4929 Y-21.6021 F100.00
G01 X55.4741 Y-21.5850 F100.00
G01 X55.4537 Y-21.5699 F100.00
G01 X55.4366 Y-21.5595 F100.00
G01 X55.4272 Y-21.5544 F100.00
G01 X55.4065 Y-21.5450 F100.00
G01 X55.3851 Y-21.5374 F100.00
G01 X55.3631 Y-21.5318 F100.00
G01 X55.3354 Y-21.5275 F100.00
G01 X55.3127 Y-21.5263 F100.00
G01 X55.0940 Y-21.5263 F100.00
G01 X55.0940 Y-20.1631 F100.00
G01 X55.1147 Y-20.1553 F100.00
G01 X55.1464 Y-20.1401 F100.00
G01 X55.1743 Y-20.1232 F100.00
G01 X55.2005 Y-20.1039 F100.00
G01 X55.2248 Y-20.0823 F100.00
G01 X55.2323 Y-20.0748 F100.00
G01 X55.2523 Y-20.0526 F100.00
G01 X55.2717 Y-20.0265 F100.00
G01 X55.2887 Y-19.9987 F100.00
G01 X55.2937 Y-19.9893 F100.00
G01 X55.3064 Y-19.9623 F100.00
G01 X55.3183 Y-19.9291 F100.00
G01 X55.3256 Y-19.9002 F100.00
G01 X55.3277 Y-19.8897 F100.00
G01 X55.3320 Y-19.8602 F100.00
G01 X55.3337 Y-19.8277 F100.00
G01 X55.3336 Y-17.6697 F100.00
G01 X55.3320 Y-17.6398 F100.00
G01 X55.3268 Y-17.6050 F100.00
G01 X55.3183 Y-17.5709 F100.00
G01 X55.3083 Y-17.5427 F100.00
G01 X55.3053 Y-17.5353 F100.00
G01 X55.2913 Y-17.5059 F100.00
G01 X55.2732 Y-17.4757 F100.00
G01 X55.2523 Y-17.4474 F100.00
G01 X55.2323 Y-17.4252 F100.00
G01 X55.2248 Y-17.4177 F100.00
G01 X55.2026 Y-17.3977 F100.00
G01 X55.1743 Y-17.3768 F100.00
G01 X55.1441 Y-17.3587 F100.00
G01 X55.1171 Y-17.3458 F100.00
G01 X55.1073 Y-17.3417 F100.00
G01 X55.0817 Y-17.3326 F100.00
G01 X55.0740 Y-17.3303 F100.00
G01 X55.0450 Y-17.3232 F100.00
G01 X55.0155 Y-17.3187 F100.00
G01 X55.0075 Y-17.3178 F100.00
G01 X54.9750 Y-17.3163 F100.00
G01 X54.0500 Y-17.3163 F100.00
G01 X54.0202 Y-17.3176 F100.00
G01 X54.0095 Y-17.3187 F100.00
G01 X53.9800 Y-17.3232 F100.00
G01 X53.9510 Y-17.3303 F100.00
G01 X53.9408 Y-17.3334 F100.00
G01 X53.9127 Y-17.3436 F100.00
G01 X53.8857 Y-17.3563 F100.00
G01 X53.8763 Y-17.3613 F100.00
G01 X53.8507 Y-17.3768 F100.00
G01 X53.8224 Y-17.3977 F100.00
G01 X53.8002 Y-17.4177 F100.00
G01 X53.7927 Y-17.4252 F100.00
G01 X53.7727 Y-17.4474 F100.00
G01 X53.7548 Y-17.4714 F100.00
G01 X53.7489 Y-17.4802 F100.00
G01 X53.7337 Y-17.5059 F100.00
G01 X53.7186 Y-17.5377 F100.00
G01 X53.7084 Y-17.5658 F100.00
G01 X53.7053 Y-17.5760 F100.00
G01 X53.6982 Y-17.6050 F100.00
G01 X53.6937 Y-17.6345 F100.00
G01 X53.6928 Y-17.6425 F100.00
G01 X53.6913 Y-17.6723 F100.00
G01 X53.6913 Y-19.8277 F100.00
G01 X53.6928 Y-19.8575 F100.00
G01 X53.6937 Y-19.8655 F100.00
G01 X53.6982 Y-19.8950 F100.00
G01 X53.7053 Y-19.9240 F100.00
G01 X53.7084 Y-19.9342 F100.00
G01 X53.7186 Y-19.9623 F100.00
G01 X53.7313 Y-19.9893 F100.00
G01 X53.7363 Y-19.9987 F100.00
G01 X53.7518 Y-20.0243 F100.00
G01 X53.7694 Y-20.0483 F100.00
G01 X53.7762 Y-20.0566 F100.00
G01 X53.7964 Y-20.0786 F100.00
G01 X53.8184 Y-20.0988 F100.00
G01 X53.8267 Y-20.1056 F100.00
G01 X53.8507 Y-20.1232 F100.00
G01 X53.8760 Y-20.1386 F100.00
G01 X53.8760 Y-21.5263 F100.00
G01 X53.6573 Y-21.5263 F100.00
G01 X53.6346 Y-21.5275 F100.00
G01 X53.6069 Y-21.5318 F100.00
G01 X53.5849 Y-21.5374 F100.00
G01 X53.5635 Y-21.5450 F100.00
G01 X53.5428 Y-21.5544 F100.00
G01 X53.5334 Y-21.5595 F100.00
G01 X53.5163 Y-21.5699 F100.00
G01 X53.4959 Y-21.5850 F100.00
G01 X53.4771 Y-21.6021 F100.00
G01 X53.4617 Y-21.6188 F100.00
G01 X53.4480 Y-21.6369 F100.00
G01 X53.4420 Y-21.6458 F100.00
G01 X53.4318 Y-21.6630 F100.00
G01 X53.4210 Y-21.6860 F100.00
G01 X53.4124 Y-21.7099 F100.00
G01 X53.4074 Y-21.7293 F100.00
G01 X53.4058 Y-21.7372 F100.00
G01 X53.4025 Y-21.7596 F100.00
G01 X53.4013 Y-21.7850 F100.00
G01 X53.4013 Y-22.0877 F100.00
G01 X53.4028 Y-22.1130 F100.00
G01 X53.4058 Y-22.1328 F100.00
G01 X53.4096 Y-22.1492 F100.00
G01 X52.1175 Y-23.4413 F100.00
G01 X52.0828 Y-23.4796 F100.00
G01 X52.0760 Y-23.4879 F100.00
G01 X52.0437 Y-23.5317 F100.00
G01 X52.0156 Y-23.5783 F100.00
G01 X52.0106 Y-23.5877 F100.00
G01 X51.9874 Y-23.6370 F100.00
G01 X51.9689 Y-23.6882 F100.00
G01 X51.9665 Y-23.6958 F100.00
G01 X51.9528 Y-23.7512 F100.00
G01 X51.9446 Y-23.8050 F100.00
G01 X51.9436 Y-23.8156 F100.00
G01 X51.9410 Y-23.8700 F100.00
G01 X51.9410 Y-29.0478 F100.00
G01 X48.0275 Y-32.9613 F100.00
G01 X47.9928 Y-32.9996 F100.00
G01 X47.9860 Y-33.0079 F100.00
G01 X47.9537 Y-33.0517 F100.00
G01 X47.9256 Y-33.0983 F100.00
G01 X47.9206 Y-33.1077 F100.00
G01 X47.8974 Y-33.1570 F100.00
G01 X47.8789 Y-33.2082 F100.00
G01 X47.8765 Y-33.2158 F100.00
G01 X47.8628 Y-33.2712 F100.00
G01 X47.8546 Y-33.3250 F100.00
G01 X47.8536 Y-33.3356 F100.00
G01 X47.8510 Y-33.3900 F100.00
G01 X47.8510 Y-40.3156 F100.00
G01 X47.8141 Y-40.3381 F100.00
G01 X47.7270 Y-40.4026 F100.00
G01 X47.7209 Y-40.4078 F100.00
G01 X47.6426 Y-40.4788 F100.00
G01 X47.6370 Y-40.4845 F100.00
G01 X47.5643 Y-40.5649 F100.00
G01 X47.4981 Y-40.6541 F100.00
G01 X47.4937 Y-40.6608 F100.00
G01 X47.4381 Y-40.7538 F100.00
G01 X47.3895 Y-40.8566 F100.00
G01 X47.3512 Y-40.9636 F100.00
G01 X47.3236 Y-41.0739 F100.00
G01 X47.3069 Y-41.1864 F100.00
G01 X47.3013 Y-41.3000 F100.00
G01 X47.3013 Y-43.2000 F100.00
G01 X47.3065 Y-43.3083 F100.00
G01 X47.3075 Y-43.3189 F100.00
G01 X47.3236 Y-43.4261 F100.00
G01 X47.3512 Y-43.5364 F100.00
G01 X47.3876 Y-43.6384 F100.00
G01 X47.3917 Y-43.6483 F100.00
G01 X47.4381 Y-43.7462 F100.00
G01 X47.4951 Y-43.8415 F100.00
G01 X47.4996 Y-43.8481 F100.00
G01 X47.5610 Y-43.9309 F100.00
G01 X47.5678 Y-43.9391 F100.00
G01 X47.6407 Y-44.0193 F100.00
G01 X47.7229 Y-44.0940 F100.00
G01 X47.7291 Y-44.0990 F100.00
G01 X47.8119 Y-44.1604 F100.00
G01 X47.8185 Y-44.1649 F100.00
G01 X47.9115 Y-44.2206 F100.00
G01 X47.9511 Y-44.2397 F100.00
G01 X47.9511 Y-44.8392 F100.00
G01 X47.7242 Y-45.0661 F100.00
G01 X29.0358 Y-45.0661 F100.00
G01 X28.5089 Y-44.5392 F100.00
G01 X28.5089 Y-28.2486 F100.00
G01 X31.2537 Y-25.5037 F100.00
G01 X31.2739 Y-25.4817 F100.00
G01 X31.2807 Y-25.4734 F100.00
G01 X31.2984 Y-25.4494 F100.00
G01 X31.3138 Y-25.4238 F100.00
G01 X31.3189 Y-25.4144 F100.00
G01 X31.3315 Y-25.3873 F100.00
G01 X31.3434 Y-25.3542 F100.00
G01 X31.3519 Y-25.3200 F100.00
G01 X31.3564 Y-25.2905 F100.00
G01 X31.3575 Y-25.2799 F100.00
G01 X31.3588 Y-25.2500 F100.00
G01 X31.3588 Y-17.8986 F100.00
G01 X31.7537 Y-17.5037 F100.00
G01 X31.7774 Y-17.4776 F100.00
G01 X31.7984 Y-17.4494 F100.00
G01 X31.8165 Y-17.4191 F100.00
G01 X31.8315 Y-17.3873 F100.00
G01 X31.8426 Y-17.3567 F100.00
G01 X31.8448 Y-17.3490 F100.00
G01 X31.8519 Y-17.3200 F100.00
G01 X31.8568 Y-17.2878 F100.00
G01 X31.8587 Y-17.2553 F100.00
G01 X31.8588 Y-17.2365 F100.00
G01 X31.8724 Y-17.2313 F100.00
G01 X31.8983 Y-17.2190 F100.00
G01 X31.9276 Y-17.2018 F100.00
G01 X31.9342 Y-17.1973 F100.00
G01 X31.9571 Y-17.1801 F100.00
G01 X31.9804 Y-17.1592 F100.00
G01 X31.9860 Y-17.1534 F100.00
G01 X32.0051 Y-17.1321 F100.00
G01 X32.0254 Y-17.1048 F100.00
G01 X32.0428 Y-17.0757 F100.00
G01 X32.0552 Y-17.0499 F100.00
G01 X32.0583 Y-17.0425 F100.00
G01 X32.0688 Y-17.0130 F100.00
G01 X32.0770 Y-16.9800 F100.00
G01 X32.0820 Y-16.9464 F100.00
G01 X32.0837 Y-16.9152 F100.00
G01 X32.0837 Y-16.3348 F100.00
G01 X32.0820 Y-16.3036 F100.00
G01 X32.0780 Y-16.2752 F100.00
G01 X32.0759 Y-16.2648 F100.00
G01 X32.0688 Y-16.2370 F100.00
G01 X32.0593 Y-16.2100 F100.00
G01 X32.0552 Y-16.2001 F100.00
G01 X32.0428 Y-16.1743 F100.00
G01 X32.0282 Y-16.1497 F100.00
G01 X32.0223 Y-16.1408 F100.00
G01 X32.0051 Y-16.1179 F100.00
G01 X31.9823 Y-16.0927 F100.00
G01 X31.9571 Y-16.0699 F100.00
G01 X31.9298 Y-16.0496 F100.00
G01 X31.9007 Y-16.0322 F100.00
G01 X31.8700 Y-16.0177 F100.00
G01 X31.8380 Y-16.0062 F100.00
G01 X31.8050 Y-15.9980 F100.00
G01 X31.7714 Y-15.9930 F100.00
G01 X31.7375 Y-15.9913 F100.00
G01 X31.2625 Y-15.9913 F100.00
G01 X31.2339 Y-15.9926 F100.00
G01 X31.2259 Y-15.9933 F100.00
G01 X31.1950 Y-15.9980 F100.00
G01 X31.1620 Y-16.0062 F100.00
G01 X31.1300 Y-16.0177 F100.00
G01 X31.0993 Y-16.0322 F100.00
G01 X31.0702 Y-16.0496 F100.00
G01 X31.0429 Y-16.0699 F100.00
G01 X31.0177 Y-16.0927 F100.00
G01 X30.9949 Y-16.1179 F100.00
G01 X30.9746 Y-16.1452 F100.00
G01 X30.9572 Y-16.1743 F100.00
G01 X30.9427 Y-16.2050 F100.00
G01 X30.9312 Y-16.2370 F100.00
G01 X30.9230 Y-16.2700 F100.00
G01 X30.9183 Y-16.3009 F100.00
G01 X30.9163 Y-16.3348 F100.00
G01 X30.9163 Y-16.3662 F100.00
G01 X30.0837 Y-16.3662 F100.00
G01 X30.0837 Y-16.3348 F100.00
G01 X30.0820 Y-16.3036 F100.00
G01 X30.0770 Y-16.2700 F100.00
G01 X30.0702 Y-16.2421 F100.00
G01 X30.0671 Y-16.2319 F100.00
G01 X30.0563 Y-16.2026 F100.00
G01 X30.0428 Y-16.1743 F100.00
G01 X30.0282 Y-16.1497 F100.00
G01 X30.0223 Y-16.1408 F100.00
G01 X30.0068 Y-16.1200 F100.00
G01 X30.0016 Y-16.1138 F100.00
G01 X29.9823 Y-16.0927 F100.00
G01 X29.9571 Y-16.0699 F100.00
G01 X29.9342 Y-16.0527 F100.00
G01 X29.9253 Y-16.0468 F100.00
G01 X29.9007 Y-16.0322 F100.00
G01 X29.8724 Y-16.0187 F100.00
G01 X29.8650 Y-16.0157 F100.00
G01 X29.8380 Y-16.0062 F100.00
G01 X29.8050 Y-15.9980 F100.00
G01 X29.7714 Y-15.9930 F100.00
G01 X29.7428 Y-15.9914 F100.00
G01 X29.2598 Y-15.9913 F100.00
G01 X29.2286 Y-15.9930 F100.00
G01 X29.2002 Y-15.9970 F100.00
G01 X29.1898 Y-15.9991 F100.00
G01 X29.1620 Y-16.0062 F100.00
G01 X29.1300 Y-16.0177 F100.00
G01 X29.1041 Y-16.0298 F100.00
G01 X29.0970 Y-16.0335 F100.00
G01 X29.0747 Y-16.0468 F100.00
G01 X29.0658 Y-16.0527 F100.00
G01 X29.0429 Y-16.0699 F100.00
G01 X29.0177 Y-16.0927 F100.00
G01 X28.9949 Y-16.1179 F100.00
G01 X28.9777 Y-16.1408 F100.00
G01 X28.9718 Y-16.1497 F100.00
G01 X28.9585 Y-16.1720 F100.00
G01 X28.9548 Y-16.1791 F100.00
G01 X28.9427 Y-16.2050 F100.00
G01 X28.9320 Y-16.2345 F100.00
G01 X28.9241 Y-16.2648 F100.00
G01 X28.9220 Y-16.2752 F100.00
G01 X28.9180 Y-16.3036 F100.00
G01 X28.9163 Y-16.3375 F100.00
G01 X28.9163 Y-16.9125 F100.00
G01 X28.9180 Y-16.9464 F100.00
G01 X28.9230 Y-16.9800 F100.00
G01 X28.9298 Y-17.0079 F100.00
G01 X28.9329 Y-17.0181 F100.00
G01 X28.9427 Y-17.0450 F100.00
G01 X28.9548 Y-17.0709 F100.00
G01 X28.9598 Y-17.0803 F100.00
G01 X28.9746 Y-17.1048 F100.00
G01 X28.9949 Y-17.1321 F100.00
G01 X29.0177 Y-17.1573 F100.00
G01 X29.0388 Y-17.1766 F100.00
G01 X29.0471 Y-17.1834 F100.00
G01 X29.0702 Y-17.2004 F100.00
G01 X29.0947 Y-17.2152 F100.00
G01 X29.1017 Y-17.2190 F100.00
G01 X29.1276 Y-17.2313 F100.00
G01 X29.1350 Y-17.2343 F100.00
G01 X29.1620 Y-17.2438 F100.00
G01 X29.1950 Y-17.2520 F100.00
G01 X29.2286 Y-17.2570 F100.00
G01 X29.2625 Y-17.2587 F100.00
G01 X29.7428 Y-17.2586 F100.00
G01 X29.7714 Y-17.2570 F100.00
G01 X29.8050 Y-17.2520 F100.00
G01 X29.8380 Y-17.2438 F100.00
G01 X29.8650 Y-17.2343 F100.00
G01 X29.8724 Y-17.2313 F100.00
G01 X29.8959 Y-17.2202 F100.00
G01 X29.9053 Y-17.2152 F100.00
G01 X29.9298 Y-17.2004 F100.00
G01 X29.9571 Y-17.1801 F100.00
G01 X29.9823 Y-17.1573 F100.00
G01 X30.0016 Y-17.1362 F100.00
G01 X30.0084 Y-17.1279 F100.00
G01 X30.0268 Y-17.1026 F100.00
G01 X30.0428 Y-17.0757 F100.00
G01 X30.0552 Y-17.0499 F100.00
G01 X30.0583 Y-17.0425 F100.00
G01 X30.0671 Y-17.0181 F100.00
G01 X30.0702 Y-17.0079 F100.00
G01 X30.0770 Y-16.9800 F100.00
G01 X30.0820 Y-16.9464 F100.00
G01 X30.0837 Y-16.9152 F100.00
G01 X30.0837 Y-16.8838 F100.00
G01 X30.9163 Y-16.8838 F100.00
G01 X30.9163 Y-16.9152 F100.00
G01 X30.9177 Y-16.9438 F100.00
G01 X30.9225 Y-16.9774 F100.00
G01 X30.9241 Y-16.9852 F100.00
G01 X30.9312 Y-17.0130 F100.00
G01 X30.9407 Y-17.0400 F100.00
G01 X30.9437 Y-17.0474 F100.00
G01 X30.9572 Y-17.0757 F100.00
G01 X30.9718 Y-17.1003 F100.00
G01 X30.9762 Y-17.1070 F100.00
G01 X30.9932 Y-17.1300 F100.00
G01 X31.0140 Y-17.1534 F100.00
G01 X31.0196 Y-17.1592 F100.00
G01 X31.0408 Y-17.1784 F100.00
G01 X31.0540 Y-17.1885 F100.00
G01 X30.7463 Y-17.4963 F100.00
G01 X30.7261 Y-17.5183 F100.00
G01 X30.7210 Y-17.5244 F100.00
G01 X30.7016 Y-17.5506 F100.00
G01 X30.6862 Y-17.5762 F100.00
G01 X30.6811 Y-17.5856 F100.00
G01 X30.6685 Y-17.6127 F100.00
G01 X30.6566 Y-17.6458 F100.00
G01 X30.6492 Y-17.6748 F100.00
G01 X30.6472 Y-17.6853 F100.00
G01 X30.6432 Y-17.7122 F100.00
G01 X30.6425 Y-17.7201 F100.00
G01 X30.6412 Y-17.7500 F100.00
G01 X30.6412 Y-25.1014 F100.00
G01 X28.1061 Y-27.6364 F100.00
G01 X27.3598 Y-26.8902 F100.00
G01 X27.3249 Y-26.8583 F100.00
G01 X27.2871 Y-26.8299 F100.00
G01 X27.2782 Y-26.8240 F100.00
G01 X27.2399 Y-26.8012 F100.00
G01 X27.1947 Y-26.7798 F100.00
G01 X27.1477 Y-26.7630 F100.00
G01 X27.1045 Y-26.7520 F100.00
G01 X27.0940 Y-26.7500 F100.00
G01 X27.0472 Y-26.7433 F100.00
G01 X27.0000 Y-26.7411 F100.00
G01 X17.5089 Y-26.7411 F100.00
G01 X17.5089 Y-25.7344 F100.00
G01 X17.5203 Y-25.7290 F100.00
G01 X17.5273 Y-25.7252 F100.00
G01 X17.6160 Y-25.6719 F100.00
G01 X17.7034 Y-25.6070 F100.00
G01 X17.7840 Y-25.5340 F100.00
G01 X17.8536 Y-25.4574 F100.00
G01 X17.8603 Y-25.4491 F100.00
G01 X17.9188 Y-25.3703 F100.00
G01 X17.9247 Y-25.3615 F100.00
G01 X17.9778 Y-25.2726 F100.00
G01 X18.0221 Y-25.1792 F100.00
G01 X18.0262 Y-25.1693 F100.00
G01 X18.0610 Y-25.0718 F100.00
G01 X18.0874 Y-24.9663 F100.00
G01 X18.1034 Y-24.8587 F100.00
G01 X18.1087 Y-24.7500 F100.00
G01 X18.1087 Y-23.7500 F100.00
G01 X18.1034 Y-23.6413 F100.00
G01 X18.0874 Y-23.5337 F100.00
G01 X18.0624 Y-23.4333 F100.00
G01 X18.0593 Y-23.4231 F100.00
G01 X18.0262 Y-23.3307 F100.00
G01 X18.0221 Y-23.3208 F100.00
G01 X17.9778 Y-23.2274 F100.00
G01 X17.9219 Y-23.1340 F100.00
G01 X17.8570 Y-23.0466 F100.00
G01 X17.7840 Y-22.9660 F100.00
G01 X17.7034 Y-22.8930 F100.00
G01 X17.6160 Y-22.8281 F100.00
G01 X17.5226 Y-22.7722 F100.00
G01 X17.4292 Y-22.7279 F100.00
G01 X17.4193 Y-22.7238 F100.00
G01 X17.3218 Y-22.6890 F100.00
G01 X17.2215 Y-22.6638 F100.00
G01 X17.2110 Y-22.6617 F100.00
G01 X17.1140 Y-22.6473 F100.00
G01 X17.1034 Y-22.6462 F100.00
G01 X17.0000 Y-22.6413 F100.00
G01 X16.8913 Y-22.6466 F100.00
G01 X16.7837 Y-22.6626 F100.00
G01 X16.6782 Y-22.6890 F100.00
G01 X16.5757 Y-22.7257 F100.00
G01 X16.4774 Y-22.7722 F100.00
G01 X16.3840 Y-22.8281 F100.00
G01 X16.3009 Y-22.8897 F100.00
G01 X16.2926 Y-22.8964 F100.00
G01 X16.2160 Y-22.9660 F100.00
G01 X16.1464 Y-23.0426 F100.00
G01 X16.1397 Y-23.0509 F100.00
G01 X16.0812 Y-23.1297 F100.00
G01 X16.0753 Y-23.1385 F100.00
G01 X16.0222 Y-23.2274 F100.00
G01 X15.9757 Y-23.3257 F100.00
G01 X15.9390 Y-23.4282 F100.00
G01 X15.9138 Y-23.5285 F100.00
G01 X15.9117 Y-23.5390 F100.00
G01 X15.8966 Y-23.6413 F100.00
G01 X15.8913 Y-23.7473 F100.00
G01 X15.8913 Y-24.7500 F100.00
G01 X15.8966 Y-24.8587 F100.00
G01 X15.9121 Y-24.9637 F100.00
G01 X15.9138 Y-24.9715 F100.00
G01 X15.9390 Y-25.0718 F100.00
G01 X15.9738 Y-25.1693 F100.00
G01 X15.9779 Y-25.1792 F100.00
G01 X16.0222 Y-25.2726 F100.00
G01 X16.0753 Y-25.3615 F100.00
G01 X16.0812 Y-25.3703 F100.00
G01 X16.1397 Y-25.4491 F100.00
G01 X16.1464 Y-25.4574 F100.00
G01 X16.2160 Y-25.5340 F100.00
G01 X16.2966 Y-25.6070 F100.00
G01 X16.3840 Y-25.6719 F100.00
G01 X16.4727 Y-25.7252 F100.00
G01 X16.4797 Y-25.7290 F100.00
G01 X16.4911 Y-25.7344 F100.00
G01 X16.4911 Y-26.7411 F100.00
G01 X11.2108 Y-26.7411 F100.00
G01 X10.6217 Y-26.1521 F100.00
G01 X10.6441 Y-26.1413 F100.00
G01 X10.6698 Y-26.1261 F100.00
G01 X10.6786 Y-26.1202 F100.00
G01 X10.7026 Y-26.1023 F100.00
G01 X10.7248 Y-26.0823 F100.00
G01 X10.7323 Y-26.0748 F100.00
G01 X10.7523 Y-26.0526 F100.00
G01 X10.7717 Y-26.0265 F100.00
G01 X10.7761 Y-26.0198 F100.00
G01 X10.7913 Y-25.9941 F100.00
G01 X10.8042 Y-25.9671 F100.00
G01 X10.8083 Y-25.9573 F100.00
G01 X10.8183 Y-25.9291 F100.00
G01 X10.8256 Y-25.9002 F100.00
G01 X10.8277 Y-25.8897 F100.00
G01 X10.8322 Y-25.8575 F100.00
G01 X10.8337 Y-25.8250 F100.00
G01 X10.8337 Y-23.6723 F100.00
G01 X10.8320 Y-23.6398 F100.00
G01 X10.8268 Y-23.6050 F100.00
G01 X10.8183 Y-23.5709 F100.00
G01 X10.8083 Y-23.5427 F100.00
G01 X10.8053 Y-23.5353 F100.00
G01 X10.7926 Y-23.5083 F100.00
G01 X10.7761 Y-23.4802 F100.00
G01 X10.7702 Y-23.4714 F100.00
G01 X10.7539 Y-23.4495 F100.00
G01 X10.7488 Y-23.4434 F100.00
G01 X10.7286 Y-23.4214 F100.00
G01 X10.7026 Y-23.3977 F100.00
G01 X10.6743 Y-23.3768 F100.00
G01 X10.6441 Y-23.3587 F100.00
G01 X10.6123 Y-23.3436 F100.00
G01 X10.5791 Y-23.3317 F100.00
G01 X10.5450 Y-23.3232 F100.00
G01 X10.5154 Y-23.3187 F100.00
G01 X10.5123 Y-22.5587 F100.00
G01 X10.8053 Y-22.5586 F100.00
G01 X10.8352 Y-22.5570 F100.00
G01 X10.8647 Y-22.5527 F100.00
G01 X10.8752 Y-22.5506 F100.00
G01 X10.9067 Y-22.5424 F100.00
G01 X10.9373 Y-22.5314 F100.00
G01 X10.9691 Y-22.5163 F100.00
G01 X10.9993 Y-22.4982 F100.00
G01 X11.0276 Y-22.4773 F100.00
G01 X11.0536 Y-22.4536 F100.00
G01 X11.0773 Y-22.4276 F100.00
G01 X11.0982 Y-22.3993 F100.00
G01 X11.1137 Y-22.3737 F100.00
G01 X11.1176 Y-22.3667 F100.00
G01 X11.1314 Y-22.3373 F100.00
G01 X11.1416 Y-22.3092 F100.00
G01 X11.1447 Y-22.2990 F100.00
G01 X11.1518 Y-22.2700 F100.00
G01 X11.1563 Y-22.2405 F100.00
G01 X11.1572 Y-22.2325 F100.00
G01 X11.1586 Y-22.2053 F100.00
G01 X11.1587 Y-21.2973 F100.00
G01 X11.1570 Y-21.2648 F100.00
G01 X11.1527 Y-21.2353 F100.00
G01 X11.1506 Y-21.2248 F100.00
G01 X11.1433 Y-21.1959 F100.00
G01 X11.1333 Y-21.1677 F100.00
G01 X11.1292 Y-21.1579 F100.00
G01 X11.1163 Y-21.1309 F100.00
G01 X11.1011 Y-21.1052 F100.00
G01 X11.0952 Y-21.0964 F100.00
G01 X11.0773 Y-21.0724 F100.00
G01 X11.0573 Y-21.0502 F100.00
G01 X11.0498 Y-21.0427 F100.00
G01 X11.0276 Y-21.0227 F100.00
G01 X11.0036 Y-21.0048 F100.00
G01 X10.9970 Y-21.0003 F100.00
G01 X10.9714 Y-20.9849 F100.00
G01 X10.9643 Y-20.9813 F100.00
G01 X10.9373 Y-20.9686 F100.00
G01 X10.9041 Y-20.9567 F100.00
G01 X10.8700 Y-20.9482 F100.00
G01 X10.8352 Y-20.9430 F100.00
G01 X10.8000 Y-20.9413 F100.00
G01 X10.5214 Y-20.9413 F100.00
G01 X10.5214 Y-18.4483 F100.00
G01 X11.0610 Y-17.9087 F100.00
G01 X11.5500 Y-17.9087 F100.00
G01 X11.5580 Y-17.9084 F100.00
G01 X11.5686 Y-17.9071 F100.00
G01 X11.5790 Y-17.9048 F100.00
G01 X11.5891 Y-17.9014 F100.00
G01 X11.5989 Y-17.8971 F100.00
G01 X11.6082 Y-17.8918 F100.00
G01 X11.6169 Y-17.8857 F100.00
G01 X11.6250 Y-17.8787 F100.00
G01 X11.6323 Y-17.8710 F100.00
G01 X11.6373 Y-17.8648 F100.00
G01 X11.6432 Y-17.8559 F100.00
G01 X11.6471 Y-17.8489 F100.00
G01 X11.6514 Y-17.8391 F100.00
G01 X11.6548 Y-17.8290 F100.00
G01 X11.6566 Y-17.8212 F100.00
G01 X11.6579 Y-17.8133 F100.00
G01 X11.6587 Y-17.8027 F100.00
G01 X11.6587 Y-17.1088 F100.00
G01 X12.2500 Y-17.1088 F100.00
G01 X12.2825 Y-17.1073 F100.00
G01 X12.2905 Y-17.1064 F100.00
G01 X12.3200 Y-17.1019 F100.00
G01 X12.3490 Y-17.0948 F100.00
G01 X12.3592 Y-17.0917 F100.00
G01 X12.3848 Y-17.0825 F100.00
G01 X12.3922 Y-17.0793 F100.00
G01 X12.4191 Y-17.0665 F100.00
G01 X12.4448 Y-17.0512 F100.00
G01 X12.4537 Y-17.0453 F100.00
G01 X12.4776 Y-17.0274 F100.00
G01 X12.5037 Y-17.0037 F100.00
G01 X13.2574 Y-16.2499 F100.00
G01 X13.2774 Y-16.2276 F100.00
G01 X13.2953 Y-16.2037 F100.00
G01 X13.3012 Y-16.1948 F100.00
G01 X13.3165 Y-16.1691 F100.00
G01 X13.3315 Y-16.1373 F100.00
G01 X13.3417 Y-16.1092 F100.00
G01 X13.3448 Y-16.0990 F100.00
G01 X13.3524 Y-16.0674 F100.00
G01 X13.3571 Y-16.0352 F100.00
G01 X13.3588 Y-16.0000 F100.00
G01 X13.3588 Y-2.7500 F100.00
G01 X13.3575 Y-2.7201 F100.00
G01 X13.3564 Y-2.7095 F100.00
G01 X13.3519 Y-2.6800 F100.00
G01 X13.3434 Y-2.6458 F100.00
G01 X13.3315 Y-2.6127 F100.00
G01 X13.3189 Y-2.5856 F100.00
G01 X13.3138 Y-2.5762 F100.00
G01 X13.2984 Y-2.5506 F100.00
G01 X13.2807 Y-2.5266 F100.00
G01 X13.2757 Y-2.5203 F100.00
G01 X13.2551 Y-2.4977 F100.00
G01 X12.2537 Y-1.4963 F100.00
G01 X12.2317 Y-1.4761 F100.00
G01 X12.2234 Y-1.4693 F100.00
G01 X12.1994 Y-1.4516 F100.00
G01 X12.1691 Y-1.4335 F100.00
G01 X12.1422 Y-1.4207 F100.00
G01 X12.1323 Y-1.4166 F100.00
G01 X12.1042 Y-1.4066 F100.00
G01 X12.0752 Y-1.3992 F100.00
G01 X12.0647 Y-1.3972 F100.00
G01 X12.0352 Y-1.3929 F100.00
G01 X12.0000 Y-1.3912 F100.00
G01 X8.4393 Y-1.3912 F100.00
G01 X8.4095 Y-1.3925 F100.00
G01 X8.3989 Y-1.3936 F100.00
G01 X8.3693 Y-1.3981 F100.00
G01 X8.3377 Y-1.4059 F100.00
G01 X8.3301 Y-1.4083 F100.00
G01 X8.3020 Y-1.4185 F100.00
G01 X8.2749 Y-1.4311 F100.00
G01 X8.2655 Y-1.4362 F100.00
G01 X8.2400 Y-1.4516 F100.00
G01 X8.2159 Y-1.4693 F100.00
G01 X8.2076 Y-1.4761 F100.00
G01 X8.1856 Y-1.4963 F100.00
G01 X4.9713 Y-4.7106 F100.00
G01 X4.9476 Y-4.7367 F100.00
G01 X4.9297 Y-4.7606 F100.00
G01 X4.9252 Y-4.7672 F100.00
G01 X4.9112 Y-4.7905 F100.00
G01 X4.9061 Y-4.7999 F100.00
G01 X4.8935 Y-4.8270 F100.00
G01 X4.8816 Y-4.8602 F100.00
G01 X4.8731 Y-4.8943 F100.00
G01 X4.8679 Y-4.9292 F100.00
G00 Z1.0000
G00 X4.9220 Y-4.9345
G01 F25.00
G01 Z-0.0600
G01 F100.00
G01 X4.9205 Y-4.9643 F100.00
G01 X4.9205 Y-6.7214 F100.00
G01 X4.9076 Y-6.7222 F100.00
G01 X4.8793 Y-6.7265 F100.00
G01 X4.8528 Y-6.7332 F100.00
G01 X4.8246 Y-6.7434 F100.00
G01 X4.7999 Y-6.7551 F100.00
G01 X4.7754 Y-6.7698 F100.00
G01 X4.7524 Y-6.7869 F100.00
G01 X4.7302 Y-6.8071 F100.00
G01 X4.7119 Y-6.8274 F100.00
G01 X4.6948 Y-6.8504 F100.00
G01 X4.6801 Y-6.8749 F100.00
G01 X4.6679 Y-6.9008 F100.00
G01 X4.6582 Y-6.9278 F100.00
G01 X4.6513 Y-6.9556 F100.00
G01 X4.6471 Y-6.9839 F100.00
G01 X4.6457 Y-7.0125 F100.00
G01 X4.6457 Y-7.4888 F100.00
G01 X4.6471 Y-7.5161 F100.00
G01 X4.6513 Y-7.5444 F100.00
G01 X4.6582 Y-7.5722 F100.00
G01 X4.6669 Y-7.5967 F100.00
G01 X4.6789 Y-7.6227 F100.00
G01 X4.6814 Y-7.6274 F100.00
G01 X4.6948 Y-7.6496 F100.00
G01 X4.7119 Y-7.6726 F100.00
G01 X4.7331 Y-7.6957 F100.00
G01 X4.7524 Y-7.7131 F100.00
G01 X4.7743 Y-7.7294 F100.00
G01 X4.8023 Y-7.7461 F100.00
G01 X4.8258 Y-7.7571 F100.00
G01 X4.8515 Y-7.7664 F100.00
G01 X4.8819 Y-7.7740 F100.00
G01 X4.9076 Y-7.7778 F100.00
G01 X4.9205 Y-7.7786 F100.00
G01 X4.9205 Y-8.7214 F100.00
G01 X4.9076 Y-8.7222 F100.00
G01 X4.8793 Y-8.7265 F100.00
G01 X4.8528 Y-8.7332 F100.00
G01 X4.8271 Y-8.7424 F100.00
G01 X4.7976 Y-8.7564 F100.00
G01 X4.7754 Y-8.7698 F100.00
G01 X4.7534 Y-8.7861 F100.00
G01 X4.7293 Y-8.8081 F100.00
G01 X4.7119 Y-8.8274 F100.00
G01 X4.6948 Y-8.8504 F100.00
G01 X4.6789 Y-8.8773 F100.00
G01 X4.6679 Y-8.9008 F100.00
G01 X4.6586 Y-8.9265 F100.00
G01 X4.6508 Y-8.9582 F100.00
G01 X4.6471 Y-8.9839 F100.00
G01 X4.6457 Y-9.0112 F100.00
G01 X4.6457 Y-9.4875 F100.00
G01 X4.6472 Y-9.5174 F100.00
G01 X4.6513 Y-9.5444 F100.00
G01 X4.6575 Y-9.5697 F100.00
G01 X4.6679 Y-9.5992 F100.00
G01 X4.6801 Y-9.6251 F100.00
G01 X4.6934 Y-9.6474 F100.00
G01 X4.7119 Y-9.6726 F100.00
G01 X4.7331 Y-9.6957 F100.00
G01 X4.7524 Y-9.7131 F100.00
G01 X4.7754 Y-9.7302 F100.00
G01 X4.8023 Y-9.7461 F100.00
G01 X4.8258 Y-9.7571 F100.00
G01 X4.8528 Y-9.7668 F100.00
G01 X4.8832 Y-9.7742 F100.00
G01 X4.9089 Y-9.7779 F100.00
G01 X4.9362 Y-9.7793 F100.00
G01 X5.5125 Y-9.7793 F100.00
G01 X5.5424 Y-9.7778 F100.00
G01 X5.5694 Y-9.7737 F100.00
G01 X5.5972 Y-9.7668 F100.00
G01 X5.6242 Y-9.7571 F100.00
G01 X5.6477 Y-9.7461 F100.00
G01 X5.6724 Y-9.7316 F100.00
G01 X5.6768 Y-9.7286 F100.00
G01 X5.6976 Y-9.7131 F100.00
G01 X5.7189 Y-9.6939 F100.00
G01 X5.7381 Y-9.6726 F100.00
G01 X5.7536 Y-9.6518 F100.00
G01 X5.7566 Y-9.6474 F100.00
G01 X5.7711 Y-9.6227 F100.00
G01 X5.7821 Y-9.5992 F100.00
G01 X5.7918 Y-9.5722 F100.00
G01 X5.7987 Y-9.5444 F100.00
G01 X5.8029 Y-9.5161 F100.00
G01 X5.8043 Y-9.4875 F100.00
G01 X5.8043 Y-9.0112 F100.00
G01 X5.8029 Y-8.9839 F100.00
G01 X5.7992 Y-8.9582 F100.00
G01 X5.7982 Y-8.9530 F100.00
G01 X5.7909 Y-8.9252 F100.00
G01 X5.7821 Y-8.9008 F100.00
G01 X5.7711 Y-8.8773 F100.00
G01 X5.7552 Y-8.8504 F100.00
G01 X5.7381 Y-8.8274 F100.00
G01 X5.7207 Y-8.8081 F100.00
G01 X5.6966 Y-8.7861 F100.00
G01 X5.6746 Y-8.7698 F100.00
G01 X5.6524 Y-8.7564 F100.00
G01 X5.6229 Y-8.7424 F100.00
G01 X5.5972 Y-8.7332 F100.00
G01 X5.5707 Y-8.7265 F100.00
G01 X5.5424 Y-8.7222 F100.00
G01 X5.5295 Y-8.7214 F100.00
G01 X5.5295 Y-7.7786 F100.00
G01 X5.5424 Y-7.7778 F100.00
G01 X5.5681 Y-7.7740 F100.00
G01 X5.5985 Y-7.7664 F100.00
G01 X5.6242 Y-7.7571 F100.00
G01 X5.6477 Y-7.7461 F100.00
G01 X5.6757 Y-7.7294 F100.00
G01 X5.6976 Y-7.7131 F100.00
G01 X5.7169 Y-7.6957 F100.00
G01 X5.7381 Y-7.6726 F100.00
G01 X5.7552 Y-7.6496 F100.00
G01 X5.7686 Y-7.6274 F100.00
G01 X5.7711 Y-7.6227 F100.00
G01 X5.7831 Y-7.5967 F100.00
G01 X5.7918 Y-7.5722 F100.00
G01 X5.7987 Y-7.5444 F100.00
G01 X5.8029 Y-7.5161 F100.00
G01 X5.8043 Y-7.4888 F100.00
G01 X5.8043 Y-7.0125 F100.00
G01 X5.8029 Y-6.9839 F100.00
G01 X5.7987 Y-6.9556 F100.00
G01 X5.7918 Y-6.9278 F100.00
G01 X5.7821 Y-6.9008 F100.00
G01 X5.7699 Y-6.8749 F100.00
G01 X5.7552 Y-6.8504 F100.00
G01 X5.7381 Y-6.8274 F100.00
G01 X5.7198 Y-6.8071 F100.00
G01 X5.6976 Y-6.7869 F100.00
G01 X5.6746 Y-6.7698 F100.00
G01 X5.6501 Y-6.7551 F100.00
G01 X5.6254 Y-6.7434 F100.00
G01 X5.5972 Y-6.7332 F100.00
G01 X5.5707 Y-6.7265 F100.00
G01 X5.5424 Y-6.7222 F100.00
G01 X5.5295 Y-6.7214 F100.00
G01 X5.5295 Y-5.0904 F100.00
G01 X8.5654 Y-2.0545 F100.00
G01 X11.8739 Y-2.0545 F100.00
G01 X12.6955 Y-2.8761 F100.00
G01 X12.6955 Y-15.8739 F100.00
G01 X12.1239 Y-16.4455 F100.00
G01 X11.5000 Y-16.4455 F100.00
G01 X11.4702 Y-16.4470 F100.00
G01 X11.4406 Y-16.4514 F100.00
G01 X11.4116 Y-16.4586 F100.00
G01 X11.3835 Y-16.4687 F100.00
G01 X11.3565 Y-16.4815 F100.00
G01 X11.3287 Y-16.4984 F100.00
G01 X11.3068 Y-16.5146 F100.00
G01 X11.2854 Y-16.5340 F100.00
G01 X11.1738 Y-16.6457 F100.00
G01 X9.0487 Y-16.6457 F100.00
G01 X9.0394 Y-16.6467 F100.00
G01 X9.0304 Y-16.6493 F100.00
G01 X9.0256 Y-16.6515 F100.00
G01 X9.0209 Y-16.6541 F100.00
G01 X9.0135 Y-16.6597 F100.00
G01 X9.0072 Y-16.6666 F100.00
G01 X9.0021 Y-16.6744 F100.00
G01 X8.9984 Y-16.6830 F100.00
G01 X8.9970 Y-16.6881 F100.00
G01 X8.9961 Y-16.6933 F100.00
G01 X8.9957 Y-16.7000 F100.00
G01 X8.9957 Y-17.8000 F100.00
G01 X8.9962 Y-17.8080 F100.00
G01 X8.9980 Y-17.8158 F100.00
G01 X9.0009 Y-17.8232 F100.00
G01 X9.0048 Y-17.8302 F100.00
G01 X9.0088 Y-17.8355 F100.00
G01 X9.0135 Y-17.8403 F100.00
G01 X9.0176 Y-17.8437 F100.00
G01 X9.0232 Y-17.8473 F100.00
G01 X9.0292 Y-17.8502 F100.00
G01 X9.0355 Y-17.8524 F100.00
G01 X9.0420 Y-17.8538 F100.00
G01 X9.0487 Y-17.8543 F100.00
G01 X9.7528 Y-17.8544 F100.00
G01 X9.6902 Y-17.9170 F100.00
G01 X9.6611 Y-17.9491 F100.00
G01 X9.6346 Y-17.9850 F100.00
G01 X9.6110 Y-18.0244 F100.00
G01 X9.5916 Y-18.0660 F100.00
G01 X9.5775 Y-18.1056 F100.00
G01 X9.5673 Y-18.1462 F100.00
G01 X9.5601 Y-18.1929 F100.00
G01 X9.5580 Y-18.2362 F100.00
G01 X9.5579 Y-21.6460 F100.00
G01 X9.5536 Y-21.6645 F100.00
G01 X9.5478 Y-21.7041 F100.00
G01 X9.5455 Y-21.7500 F100.00
G01 X9.5522 Y-23.3707 F100.00
G01 X9.5202 Y-23.3721 F100.00
G01 X9.4906 Y-23.3765 F100.00
G01 X9.4617 Y-23.3838 F100.00
G01 X9.4335 Y-23.3938 F100.00
G01 X9.4065 Y-23.4066 F100.00
G01 X9.3809 Y-23.4219 F100.00
G01 X9.3569 Y-23.4397 F100.00
G01 X9.3348 Y-23.4598 F100.00
G01 X9.3147 Y-23.4819 F100.00
G01 X9.2969 Y-23.5059 F100.00
G01 X9.2816 Y-23.5315 F100.00
G01 X9.2688 Y-23.5585 F100.00
G01 X9.2588 Y-23.5867 F100.00
G01 X9.2515 Y-23.6156 F100.00
G01 X9.2471 Y-23.6452 F100.00
G01 X9.2457 Y-23.6750 F100.00
G01 X9.2457 Y-25.8250 F100.00
G01 X9.2471 Y-25.8548 F100.00
G01 X9.2510 Y-25.8817 F100.00
G01 X9.2588 Y-25.9133 F100.00
G01 X9.2679 Y-25.9390 F100.00
G01 X9.2699 Y-25.9439 F100.00
G01 X9.2829 Y-25.9708 F100.00
G01 X9.2969 Y-25.9941 F100.00
G01 X9.3147 Y-26.0181 F100.00
G01 X9.3348 Y-26.0402 F100.00
G01 X9.3569 Y-26.0603 F100.00
G01 X9.3809 Y-26.0781 F100.00
G01 X9.4065 Y-26.0934 F100.00
G01 X9.4335 Y-26.1062 F100.00
G01 X9.4604 Y-26.1158 F100.00
G01 X9.4906 Y-26.1235 F100.00
G01 X9.5175 Y-26.1276 F100.00
G01 X9.5473 Y-26.1293 F100.00
G01 X9.5580 Y-26.1293 F100.00
G01 X9.5579 Y-26.1460 F100.00
G01 X9.5539 Y-26.1626 F100.00
G01 X9.5476 Y-26.2054 F100.00
G01 X9.5455 Y-26.2513 F100.00
G01 X9.5480 Y-26.2972 F100.00
G01 X9.5542 Y-26.3387 F100.00
G01 X9.5647 Y-26.3807 F100.00
G01 X9.5801 Y-26.4239 F100.00
G01 X9.6004 Y-26.4666 F100.00
G01 X9.6221 Y-26.5025 F100.00
G01 X9.6470 Y-26.5363 F100.00
G01 X9.6777 Y-26.5705 F100.00
G01 X10.6786 Y-27.5714 F100.00
G01 X10.7096 Y-27.5996 F100.00
G01 X10.7137 Y-27.6030 F100.00
G01 X10.7497 Y-27.6294 F100.00
G01 X10.7857 Y-27.6509 F100.00
G01 X10.8261 Y-27.6699 F100.00
G01 X10.8706 Y-27.6857 F100.00
G01 X10.9113 Y-27.6958 F100.00
G01 X10.9554 Y-27.7024 F100.00
G01 X11.0000 Y-27.7045 F100.00
G01 X26.8117 Y-27.7046 F100.00
G01 X27.5455 Y-28.4383 F100.00
G01 X27.5455 Y-44.7500 F100.00
G01 X27.5474 Y-44.7919 F100.00
G01 X27.5480 Y-44.7972 F100.00
G01 X27.5548 Y-44.8413 F100.00
G01 X27.5650 Y-44.8819 F100.00
G01 X27.5801 Y-44.9239 F100.00
G01 X27.5991 Y-44.9643 F100.00
G01 X27.6206 Y-45.0003 F100.00
G01 X27.6495 Y-45.0394 F100.00
G01 X27.6786 Y-45.0714 F100.00
G01 X28.5055 Y-45.8982 F100.00
G01 X28.5366 Y-45.9264 F100.00
G01 X28.5725 Y-45.9529 F100.00
G01 X28.6107 Y-45.9759 F100.00
G01 X28.6510 Y-45.9949 F100.00
G01 X28.6930 Y-46.0100 F100.00
G01 X28.7363 Y-46.0208 F100.00
G01 X28.7804 Y-46.0274 F100.00
G01 X28.8250 Y-46.0295 F100.00
G01 X47.9363 Y-46.0295 F100.00
G01 X47.9796 Y-46.0274 F100.00
G01 X48.0211 Y-46.0213 F100.00
G01 X48.0644 Y-46.0107 F100.00
G01 X48.0695 Y-46.0091 F100.00
G01 X48.1090 Y-45.9949 F100.00
G01 X48.1493 Y-45.9759 F100.00
G01 X48.1875 Y-45.9529 F100.00
G01 X48.2223 Y-45.9272 F100.00
G01 X48.2564 Y-45.8964 F100.00
G01 X48.7833 Y-45.3695 F100.00
G01 X48.8114 Y-45.3384 F100.00
G01 X48.8379 Y-45.3025 F100.00
G01 X48.8609 Y-45.2643 F100.00
G01 X48.8789 Y-45.2264 F100.00
G01 X48.8809 Y-45.2215 F100.00
G01 X48.8957 Y-45.1794 F100.00
G01 X48.9058 Y-45.1387 F100.00
G01 X48.9122 Y-45.0959 F100.00
G01 X48.9145 Y-45.0500 F100.00
G01 X48.9146 Y-44.2053 F100.00
G01 X48.9806 Y-44.1739 F100.00
G01 X49.0724 Y-44.1190 F100.00
G01 X49.1616 Y-44.0528 F100.00
G01 X49.2409 Y-43.9809 F100.00
G01 X49.3119 Y-43.9026 F100.00
G01 X49.3153 Y-43.8985 F100.00
G01 X49.3790 Y-43.8124 F100.00
G01 X49.4339 Y-43.7206 F100.00
G01 X49.4792 Y-43.6251 F100.00
G01 X49.4812 Y-43.6201 F100.00
G01 X49.5168 Y-43.5206 F100.00
G01 X49.5425 Y-43.4181 F100.00
G01 X49.5436 Y-43.4128 F100.00
G01 X49.5590 Y-43.3082 F100.00
G01 X49.5643 Y-43.2013 F100.00
G01 X49.5643 Y-41.3000 F100.00
G01 X49.5590 Y-41.1918 F100.00
G01 X49.5431 Y-41.0846 F100.00
G01 X49.5168 Y-40.9794 F100.00
G01 X49.4803 Y-40.8774 F100.00
G01 X49.4339 Y-40.7794 F100.00
G01 X49.3775 Y-40.6854 F100.00
G01 X49.3137 Y-40.5994 F100.00
G01 X49.2399 Y-40.5182 F100.00
G01 X49.1596 Y-40.4455 F100.00
G01 X49.0735 Y-40.3818 F100.00
G01 X49.0146 Y-40.3464 F100.00
G01 X49.0146 Y-33.6197 F100.00
G01 X52.9298 Y-29.7045 F100.00
G01 X55.6428 Y-29.7046 F100.00
G01 X55.6534 Y-29.7139 F100.00
G01 X55.6765 Y-29.7309 F100.00
G01 X55.6999 Y-29.7449 F100.00
G01 X55.7246 Y-29.7566 F100.00
G01 X55.7553 Y-29.7675 F100.00
G01 X55.7806 Y-29.7737 F100.00
G01 X55.8089 Y-29.7779 F100.00
G01 X55.8375 Y-29.7793 F100.00
G01 X56.4152 Y-29.7793 F100.00
G01 X56.4411 Y-29.7779 F100.00
G01 X56.4694 Y-29.7737 F100.00
G01 X56.4972 Y-29.7668 F100.00
G01 X56.5217 Y-29.7581 F100.00
G01 X56.5477 Y-29.7461 F100.00
G01 X56.5524 Y-29.7436 F100.00
G01 X56.5746 Y-29.7302 F100.00
G01 X56.5976 Y-29.7131 F100.00
G01 X56.6189 Y-29.6939 F100.00
G01 X56.6364 Y-29.6747 F100.00
G01 X56.6536 Y-29.6518 F100.00
G01 X56.6566 Y-29.6474 F100.00
G01 X56.6699 Y-29.6251 F100.00
G01 X56.6821 Y-29.5992 F100.00
G01 X56.6918 Y-29.5722 F100.00
G01 X56.6985 Y-29.5457 F100.00
G01 X56.7029 Y-29.5161 F100.00
G01 X56.7043 Y-29.4875 F100.00
G01 X56.7043 Y-29.0125 F100.00
G01 X56.7026 Y-28.9812 F100.00
G01 X56.6987 Y-28.9556 F100.00
G01 X56.6922 Y-28.9291 F100.00
G01 X56.6811 Y-28.8984 F100.00
G01 X56.6699 Y-28.8749 F100.00
G01 X56.6566 Y-28.8526 F100.00
G01 X56.6381 Y-28.8274 F100.00
G01 X56.6169 Y-28.8043 F100.00
G01 X56.5976 Y-28.7869 F100.00
G01 X56.5768 Y-28.7714 F100.00
G01 X56.5501 Y-28.7551 F100.00
G01 X56.5242 Y-28.7429 F100.00
G01 X56.4998 Y-28.7341 F100.00
G01 X56.4694 Y-28.7263 F100.00
G01 X56.4411 Y-28.7221 F100.00
G01 X56.4125 Y-28.7207 F100.00
G01 X55.8375 Y-28.7207 F100.00
G01 X55.8102 Y-28.7219 F100.00
G01 X55.7780 Y-28.7268 F100.00
G01 X55.7528 Y-28.7332 F100.00
G01 X55.7246 Y-28.7434 F100.00
G01 X55.6999 Y-28.7551 F100.00
G01 X55.6765 Y-28.7691 F100.00
G01 X55.6534 Y-28.7861 F100.00
G01 X55.6428 Y-28.7955 F100.00
G01 X53.1046 Y-28.7954 F100.00
G01 X53.1046 Y-24.0997 F100.00
G01 X53.6456 Y-23.5587 F100.00
G01 X53.6600 Y-23.5593 F100.00
G01 X53.9304 Y-23.5593 F100.00
G01 X53.9304 Y-24.1207 F100.00
G01 X53.6587 Y-24.1207 F100.00
G01 X53.6400 Y-24.1216 F100.00
G01 X53.6228 Y-24.1241 F100.00
G01 X53.6007 Y-24.1294 F100.00
G01 X53.5818 Y-24.1362 F100.00
G01 X53.5613 Y-24.1461 F100.00
G01 X53.5465 Y-24.1551 F100.00
G01 X53.5325 Y-24.1654 F100.00
G01 X53.5155 Y-24.1805 F100.00
G01 X53.5004 Y-24.1975 F100.00
G01 X53.4901 Y-24.2115 F100.00
G01 X53.4811 Y-24.2263 F100.00
G01 X53.4712 Y-24.2468 F100.00
G01 X53.4644 Y-24.2657 F100.00
G01 X53.4591 Y-24.2878 F100.00
G01 X53.4566 Y-24.3050 F100.00
G01 X53.4557 Y-24.3237 F100.00
G01 X53.4557 Y-24.6250 F100.00
G01 X53.4566 Y-24.6450 F100.00
G01 X53.4591 Y-24.6622 F100.00
G01 X53.4644 Y-24.6843 F100.00
G01 X53.4712 Y-24.7032 F100.00
G01 X53.4798 Y-24.7213 F100.00
G01 X53.4901 Y-24.7385 F100.00
G01 X53.5020 Y-24.7546 F100.00
G01 X53.5155 Y-24.7695 F100.00
G01 X53.5304 Y-24.7830 F100.00
G01 X53.5454 Y-24.7942 F100.00
G01 X53.5637 Y-24.8052 F100.00
G01 X53.5843 Y-24.8148 F100.00
G01 X53.6007 Y-24.8206 F100.00
G01 X53.6175 Y-24.8248 F100.00
G01 X53.6413 Y-24.8285 F100.00
G01 X53.6600 Y-24.8293 F100.00
G01 X54.0585 Y-24.8293 F100.00
G01 X54.0928 Y-24.8672 F100.00
G01 X54.1311 Y-24.9020 F100.00
G01 X54.1747 Y-24.9346 F100.00
G01 X54.2236 Y-24.9641 F100.00
G01 X54.2728 Y-24.9874 F100.00
G01 X54.3240 Y-25.0057 F100.00
G01 X54.3794 Y-25.0194 F100.00
G01 X54.4306 Y-25.0269 F100.00
G01 X54.4823 Y-25.0295 F100.00
G01 X54.5380 Y-25.0270 F100.00
G01 X54.5932 Y-25.0189 F100.00
G01 X54.6460 Y-25.0057 F100.00
G01 X54.6972 Y-24.9874 F100.00
G01 X54.7464 Y-24.9641 F100.00
G01 X54.7931 Y-24.9361 F100.00
G01 X54.8368 Y-24.9037 F100.00
G01 X54.8772 Y-24.8672 F100.00
G01 X54.9115 Y-24.8293 F100.00
G01 X55.3113 Y-24.8293 F100.00
G01 X55.3300 Y-24.8284 F100.00
G01 X55.3499 Y-24.8254 F100.00
G01 X55.3693 Y-24.8206 F100.00
G01 X55.3870 Y-24.8143 F100.00
G01 X55.4063 Y-24.8052 F100.00
G01 X55.4257 Y-24.7934 F100.00
G01 X55.4396 Y-24.7830 F100.00
G01 X55.4526 Y-24.7713 F100.00
G01 X55.4680 Y-24.7546 F100.00
G01 X55.4813 Y-24.7363 F100.00
G01 X55.4902 Y-24.7213 F100.00
G01 X55.4977 Y-24.7056 F100.00
G01 X55.5056 Y-24.6843 F100.00
G01 X55.5107 Y-24.6636 F100.00
G01 X55.5134 Y-24.6450 F100.00
G01 X55.5143 Y-24.6250 F100.00
G01 X55.5143 Y-24.3250 F100.00
G01 X55.5134 Y-24.3050 F100.00
G01 X55.5098 Y-24.2825 F100.00
G01 X55.5056 Y-24.2657 F100.00
G01 X55.4988 Y-24.2468 F100.00
G01 X55.4902 Y-24.2287 F100.00
G01 X55.4813 Y-24.2137 F100.00
G01 X55.4671 Y-24.1943 F100.00
G01 X55.4545 Y-24.1805 F100.00
G01 X55.4396 Y-24.1670 F100.00
G01 X55.4235 Y-24.1551 F100.00
G01 X55.4087 Y-24.1461 F100.00
G01 X55.3906 Y-24.1373 F100.00
G01 X55.3857 Y-24.1352 F100.00
G01 X55.3693 Y-24.1294 F100.00
G01 X55.3486 Y-24.1243 F100.00
G01 X55.3300 Y-24.1216 F100.00
G01 X55.3100 Y-24.1207 F100.00
G01 X55.0396 Y-24.1207 F100.00
G01 X55.0396 Y-23.5593 F100.00
G01 X55.3127 Y-23.5593 F100.00
G01 X55.3300 Y-23.5584 F100.00
G01 X55.3499 Y-23.5554 F100.00
G01 X55.3693 Y-23.5506 F100.00
G01 X55.3882 Y-23.5438 F100.00
G01 X55.4087 Y-23.5339 F100.00
G01 X55.4235 Y-23.5249 F100.00
G01 X55.4396 Y-23.5130 F100.00
G01 X55.4545 Y-23.4995 F100.00
G01 X55.4662 Y-23.4867 F100.00
G01 X55.4799 Y-23.4685 F100.00
G01 X55.4902 Y-23.4513 F100.00
G01 X55.4977 Y-23.4356 F100.00
G01 X55.5056 Y-23.4143 F100.00
G01 X55.5109 Y-23.3922 F100.00
G01 X55.5134 Y-23.3750 F100.00
G01 X55.5143 Y-23.3563 F100.00
G01 X55.5143 Y-23.0550 F100.00
G01 X55.5132 Y-23.0336 F100.00
G01 X55.5104 Y-23.0151 F100.00
G01 X55.5063 Y-22.9983 F100.00
G01 X55.4998 Y-22.9793 F100.00
G01 X55.4977 Y-22.9744 F100.00
G01 X55.4902 Y-22.9587 F100.00
G01 X55.4799 Y-22.9415 F100.00
G01 X55.4680 Y-22.9254 F100.00
G01 X55.4554 Y-22.9115 F100.00
G01 X55.4396 Y-22.8970 F100.00
G01 X55.4257 Y-22.8866 F100.00
G01 X55.4087 Y-22.8761 F100.00
G01 X55.4039 Y-22.8736 F100.00
G01 X55.3882 Y-22.8662 F100.00
G01 X55.3693 Y-22.8594 F100.00
G01 X55.3499 Y-22.8546 F100.00
G01 X55.3327 Y-22.8520 F100.00
G01 X55.3100 Y-22.8507 F100.00
G01 X55.0396 Y-22.8507 F100.00
G01 X55.0396 Y-22.2893 F100.00
G01 X55.3127 Y-22.2893 F100.00
G01 X55.3300 Y-22.2884 F100.00
G01 X55.3499 Y-22.2854 F100.00
G01 X55.3693 Y-22.2806 F100.00
G01 X55.3882 Y-22.2738 F100.00
G01 X55.4087 Y-22.2639 F100.00
G01 X55.4235 Y-22.2549 F100.00
G01 X55.4396 Y-22.2430 F100.00
G01 X55.4545 Y-22.2295 F100.00
G01 X55.4662 Y-22.2167 F100.00
G01 X55.4799 Y-22.1985 F100.00
G01 X55.4902 Y-22.1813 F100.00
G01 X55.4977 Y-22.1656 F100.00
G01 X55.5056 Y-22.1443 F100.00
G01 X55.5109 Y-22.1222 F100.00
G01 X55.5134 Y-22.1050 F100.00
G01 X55.5143 Y-22.0863 F100.00
G01 X55.5143 Y-21.7850 F100.00
G01 X55.5132 Y-21.7636 F100.00
G01 X55.5104 Y-21.7451 F100.00
G01 X55.5063 Y-21.7283 F100.00
G01 X55.4998 Y-21.7093 F100.00
G01 X55.4977 Y-21.7044 F100.00
G01 X55.4902 Y-21.6887 F100.00
G01 X55.4799 Y-21.6715 F100.00
G01 X55.4680 Y-21.6554 F100.00
G01 X55.4554 Y-21.6415 F100.00
G01 X55.4396 Y-21.6270 F100.00
G01 X55.4257 Y-21.6166 F100.00
G01 X55.4087 Y-21.6061 F100.00
G01 X55.4039 Y-21.6036 F100.00
G01 X55.3882 Y-21.5962 F100.00
G01 X55.3693 Y-21.5894 F100.00
G01 X55.3499 Y-21.5846 F100.00
G01 X55.3327 Y-21.5820 F100.00
G01 X55.3100 Y-21.5807 F100.00
G01 X55.0396 Y-21.5807 F100.00
G01 X55.0396 Y-20.1223 F100.00
G01 X55.0633 Y-20.1162 F100.00
G01 X55.0915 Y-20.1062 F100.00
G01 X55.1185 Y-20.0934 F100.00
G01 X55.1418 Y-20.0795 F100.00
G01 X55.1463 Y-20.0765 F100.00
G01 X55.1701 Y-20.0585 F100.00
G01 X55.1902 Y-20.0402 F100.00
G01 X55.2103 Y-20.0181 F100.00
G01 X55.2281 Y-19.9941 F100.00
G01 X55.2421 Y-19.9708 F100.00
G01 X55.2551 Y-19.9439 F100.00
G01 X55.2571 Y-19.9390 F100.00
G01 X55.2662 Y-19.9133 F100.00
G01 X55.2735 Y-19.8844 F100.00
G01 X55.2779 Y-19.8548 F100.00
G01 X55.2793 Y-19.8263 F100.00
G01 X55.2793 Y-17.6723 F100.00
G01 X55.2779 Y-17.6452 F100.00
G01 X55.2735 Y-17.6156 F100.00
G01 X55.2662 Y-17.5867 F100.00
G01 X55.2562 Y-17.5585 F100.00
G01 X55.2434 Y-17.5315 F100.00
G01 X55.2281 Y-17.5059 F100.00
G01 X55.2103 Y-17.4819 F100.00
G01 X55.1883 Y-17.4580 F100.00
G01 X55.1681 Y-17.4397 F100.00
G01 X55.1441 Y-17.4219 F100.00
G01 X55.1185 Y-17.4066 F100.00
G01 X55.0939 Y-17.3949 F100.00
G01 X55.0890 Y-17.3929 F100.00
G01 X55.0608 Y-17.3830 F100.00
G01 X55.0344 Y-17.3765 F100.00
G01 X55.0035 Y-17.3720 F100.00
G01 X54.9750 Y-17.3707 F100.00
G01 X54.0500 Y-17.3707 F100.00
G01 X54.0228 Y-17.3719 F100.00
G01 X53.9906 Y-17.3765 F100.00
G01 X53.9591 Y-17.3846 F100.00
G01 X53.9335 Y-17.3938 F100.00
G01 X53.9089 Y-17.4054 F100.00
G01 X53.8809 Y-17.4219 F100.00
G01 X53.8549 Y-17.4415 F100.00
G01 X53.8348 Y-17.4598 F100.00
G01 X53.8165 Y-17.4799 F100.00
G01 X53.7969 Y-17.5059 F100.00
G01 X53.7810 Y-17.5327 F100.00
G01 X53.7688 Y-17.5585 F100.00
G01 X53.7580 Y-17.5892 F100.00
G01 X53.7515 Y-17.6156 F100.00
G01 X53.7474 Y-17.6425 F100.00
G01 X53.7457 Y-17.6737 F100.00
G01 X53.7457 Y-19.8277 F100.00
G01 X53.7471 Y-19.8548 F100.00
G01 X53.7510 Y-19.8817 F100.00
G01 X53.7588 Y-19.9133 F100.00
G01 X53.7699 Y-19.9439 F100.00
G01 X53.7816 Y-19.9685 F100.00
G01 X53.7969 Y-19.9941 F100.00
G01 X53.8147 Y-20.0181 F100.00
G01 X53.8330 Y-20.0383 F100.00
G01 X53.8569 Y-20.0603 F100.00
G01 X53.8832 Y-20.0795 F100.00
G01 X53.9065 Y-20.0934 F100.00
G01 X53.9304 Y-20.1048 F100.00
G01 X53.9304 Y-21.5807 F100.00
G01 X53.6600 Y-21.5807 F100.00
G01 X53.6400 Y-21.5816 F100.00
G01 X53.6214 Y-21.5843 F100.00
G01 X53.6007 Y-21.5894 F100.00
G01 X53.5843 Y-21.5952 F100.00
G01 X53.5794 Y-21.5973 F100.00
G01 X53.5613 Y-21.6061 F100.00
G01 X53.5465 Y-21.6151 F100.00
G01 X53.5304 Y-21.6270 F100.00
G01 X53.5155 Y-21.6405 F100.00
G01 X53.5038 Y-21.6533 F100.00
G01 X53.5004 Y-21.6575 F100.00
G01 X53.4887 Y-21.6737 F100.00
G01 X53.4798 Y-21.6887 F100.00
G01 X53.4712 Y-21.7068 F100.00
G01 X53.4644 Y-21.7257 F100.00
G01 X53.4602 Y-21.7425 F100.00
G01 X53.4565 Y-21.7663 F100.00
G01 X53.4557 Y-21.7850 F100.00
G01 X53.4557 Y-22.0877 F100.00
G01 X53.4566 Y-22.1050 F100.00
G01 X53.4596 Y-22.1249 F100.00
G01 X53.4644 Y-22.1443 F100.00
G01 X53.4716 Y-22.1641 F100.00
G01 X52.1569 Y-23.4788 F100.00
G01 X52.1196 Y-23.5203 F100.00
G01 X52.0889 Y-23.5619 F100.00
G01 X52.0622 Y-23.6062 F100.00
G01 X52.0376 Y-23.6578 F100.00
G01 X52.0189 Y-23.7103 F100.00
G01 X52.0061 Y-23.7618 F100.00
G01 X51.9984 Y-23.8130 F100.00
G01 X51.9954 Y-23.8700 F100.00
G01 X51.9954 Y-29.0703 F100.00
G01 X48.0678 Y-32.9978 F100.00
G01 X48.0296 Y-33.0403 F100.00
G01 X47.9989 Y-33.0819 F100.00
G01 X47.9722 Y-33.1262 F100.00
G01 X47.9476 Y-33.1778 F100.00
G01 X47.9286 Y-33.2316 F100.00
G01 X47.9161 Y-33.2818 F100.00
G01 X47.9084 Y-33.3330 F100.00
G01 X47.9054 Y-33.3900 F100.00
G01 X47.9054 Y-40.3464 F100.00
G01 X47.8465 Y-40.3818 F100.00
G01 X47.7604 Y-40.4455 F100.00
G01 X47.6801 Y-40.5182 F100.00
G01 X47.6063 Y-40.5994 F100.00
G01 X47.5425 Y-40.6854 F100.00
G01 X47.4861 Y-40.7794 F100.00
G01 X47.4397 Y-40.8774 F100.00
G01 X47.4032 Y-40.9794 F100.00
G01 X47.3769 Y-41.0846 F100.00
G01 X47.3610 Y-41.1918 F100.00
G01 X47.3557 Y-41.3000 F100.00
G01 X47.3557 Y-43.2000 F100.00
G01 X47.3608 Y-43.3056 F100.00
G01 X47.3613 Y-43.3109 F100.00
G01 X47.3769 Y-43.4154 F100.00
G01 X47.4032 Y-43.5206 F100.00
G01 X47.4388 Y-43.6201 F100.00
G01 X47.4408 Y-43.6251 F100.00
G01 X47.4861 Y-43.7206 F100.00
G01 X47.5410 Y-43.8124 F100.00
G01 X47.6047 Y-43.8985 F100.00
G01 X47.6081 Y-43.9026 F100.00
G01 X47.6791 Y-43.9809 F100.00
G01 X47.7584 Y-44.0528 F100.00
G01 X47.8476 Y-44.1190 F100.00
G01 X47.9394 Y-44.1739 F100.00
G01 X48.0055 Y-44.2053 F100.00
G01 X48.0054 Y-44.8617 F100.00
G01 X47.7467 Y-45.1204 F100.00
G01 X29.0133 Y-45.1204 F100.00
G01 X28.4545 Y-44.5617 F100.00
G01 X28.4545 Y-28.2500 F100.00
G01 X28.4535 Y-28.2271 F100.00
G01 X31.2153 Y-25.4653 F100.00
G01 X31.2370 Y-25.4411 F100.00
G01 X31.2532 Y-25.4192 F100.00
G01 X31.2672 Y-25.3958 F100.00
G01 X31.2813 Y-25.3665 F100.00
G01 X31.2914 Y-25.3384 F100.00
G01 X31.2986 Y-25.3094 F100.00
G01 X31.3027 Y-25.2825 F100.00
G01 X31.3045 Y-25.2500 F100.00
G01 X31.3045 Y-17.8761 F100.00
G01 X31.7153 Y-17.4653 F100.00
G01 X31.7354 Y-17.4432 F100.00
G01 X31.7532 Y-17.4192 F100.00
G01 X31.7685 Y-17.3935 F100.00
G01 X31.7813 Y-17.3665 F100.00
G01 X31.7917 Y-17.3371 F100.00
G01 X31.7986 Y-17.3094 F100.00
G01 X31.8030 Y-17.2798 F100.00
G01 X31.8045 Y-17.2513 F100.00
G01 X31.8045 Y-17.1963 F100.00
G01 X31.8222 Y-17.1918 F100.00
G01 X31.8467 Y-17.1831 F100.00
G01 X31.8739 Y-17.1705 F100.00
G01 X31.8996 Y-17.1552 F100.00
G01 X31.9237 Y-17.1372 F100.00
G01 X31.9457 Y-17.1169 F100.00
G01 X31.9631 Y-17.0976 F100.00
G01 X31.9786 Y-17.0768 F100.00
G01 X31.9949 Y-17.0501 F100.00
G01 X32.0076 Y-17.0229 F100.00
G01 X32.0168 Y-16.9972 F100.00
G01 X32.0237 Y-16.9694 F100.00
G01 X32.0279 Y-16.9411 F100.00
G01 X32.0293 Y-16.9138 F100.00
G01 X32.0293 Y-16.3362 F100.00
G01 X32.0279 Y-16.3089 F100.00
G01 X32.0242 Y-16.2832 F100.00
G01 X32.0168 Y-16.2528 F100.00
G01 X32.0061 Y-16.2234 F100.00
G01 X31.9949 Y-16.1999 F100.00
G01 X31.9816 Y-16.1776 F100.00
G01 X31.9631 Y-16.1524 F100.00
G01 X31.9439 Y-16.1311 F100.00
G01 X31.9226 Y-16.1119 F100.00
G01 X31.8996 Y-16.0948 F100.00
G01 X31.8751 Y-16.0801 F100.00
G01 X31.8492 Y-16.0679 F100.00
G01 X31.8222 Y-16.0582 F100.00
G01 X31.7931 Y-16.0510 F100.00
G01 X31.7661 Y-16.0471 F100.00
G01 X31.7375 Y-16.0457 F100.00
G01 X31.2625 Y-16.0457 F100.00
G01 X31.2339 Y-16.0471 F100.00
G01 X31.2030 Y-16.0518 F100.00
G01 X31.1778 Y-16.0582 F100.00
G01 X31.1508 Y-16.0679 F100.00
G01 X31.1249 Y-16.0801 F100.00
G01 X31.1004 Y-16.0948 F100.00
G01 X31.0774 Y-16.1119 F100.00
G01 X31.0561 Y-16.1311 F100.00
G01 X31.0369 Y-16.1524 F100.00
G01 X31.0191 Y-16.1765 F100.00
G01 X31.0051 Y-16.1999 F100.00
G01 X30.9929 Y-16.2258 F100.00
G01 X30.9832 Y-16.2528 F100.00
G01 X30.9763 Y-16.2806 F100.00
G01 X30.9721 Y-16.3089 F100.00
G01 X30.9707 Y-16.3348 F100.00
G01 X30.9707 Y-16.4206 F100.00
G01 X30.0293 Y-16.4206 F100.00
G01 X30.0293 Y-16.3348 F100.00
G01 X30.0279 Y-16.3089 F100.00
G01 X30.0237 Y-16.2806 F100.00
G01 X30.0168 Y-16.2528 F100.00
G01 X30.0071 Y-16.2258 F100.00
G01 X29.9949 Y-16.1999 F100.00
G01 X29.9794 Y-16.1743 F100.00
G01 X29.9631 Y-16.1524 F100.00
G01 X29.9419 Y-16.1293 F100.00
G01 X29.9226 Y-16.1119 F100.00
G01 X29.9018 Y-16.0964 F100.00
G01 X29.8774 Y-16.0814 F100.00
G01 X29.8492 Y-16.0679 F100.00
G01 X29.8222 Y-16.0582 F100.00
G01 X29.7944 Y-16.0513 F100.00
G01 X29.7648 Y-16.0469 F100.00
G01 X29.7375 Y-16.0457 F100.00
G01 X29.2612 Y-16.0457 F100.00
G01 X29.2312 Y-16.0474 F100.00
G01 X29.2056 Y-16.0513 F100.00
G01 X29.1803 Y-16.0575 F100.00
G01 X29.1508 Y-16.0679 F100.00
G01 X29.1226 Y-16.0814 F100.00
G01 X29.1004 Y-16.0948 F100.00
G01 X29.0795 Y-16.1103 F100.00
G01 X29.0561 Y-16.1311 F100.00
G01 X29.0369 Y-16.1524 F100.00
G01 X29.0184 Y-16.1776 F100.00
G01 X29.0051 Y-16.1999 F100.00
G01 X28.9939 Y-16.2234 F100.00
G01 X28.9836 Y-16.2515 F100.00
G01 X28.9758 Y-16.2832 F100.00
G01 X28.9721 Y-16.3089 F100.00
G01 X28.9707 Y-16.3375 F100.00
G01 X28.9707 Y-16.9125 F100.00
G01 X28.9721 Y-16.9411 F100.00
G01 X28.9760 Y-16.9681 F100.00
G01 X28.9832 Y-16.9972 F100.00
G01 X28.9939 Y-17.0266 F100.00
G01 X29.0051 Y-17.0501 F100.00
G01 X29.0184 Y-17.0724 F100.00
G01 X29.0369 Y-17.0976 F100.00
G01 X29.0561 Y-17.1189 F100.00
G01 X29.0795 Y-17.1397 F100.00
G01 X29.1004 Y-17.1552 F100.00
G01 X29.1226 Y-17.1686 F100.00
G01 X29.1496 Y-17.1816 F100.00
G01 X29.1778 Y-17.1918 F100.00
G01 X29.2056 Y-17.1987 F100.00
G01 X29.2339 Y-17.2029 F100.00
G01 X29.2625 Y-17.2043 F100.00
G01 X29.7402 Y-17.2043 F100.00
G01 X29.7661 Y-17.2029 F100.00
G01 X29.7944 Y-17.1987 F100.00
G01 X29.8222 Y-17.1918 F100.00
G01 X29.8492 Y-17.1821 F100.00
G01 X29.8751 Y-17.1699 F100.00
G01 X29.8996 Y-17.1552 F100.00
G01 X29.9226 Y-17.1381 F100.00
G01 X29.9419 Y-17.1207 F100.00
G01 X29.9457 Y-17.1169 F100.00
G01 X29.9647 Y-17.0955 F100.00
G01 X29.9802 Y-17.0746 F100.00
G01 X29.9955 Y-17.0489 F100.00
G01 X30.0071 Y-17.0242 F100.00
G01 X30.0159 Y-16.9998 F100.00
G01 X30.0232 Y-16.9720 F100.00
G01 X30.0242 Y-16.9668 F100.00
G01 X30.0279 Y-16.9411 F100.00
G01 X30.0293 Y-16.9152 F100.00
G01 X30.0293 Y-16.8294 F100.00
G01 X30.9707 Y-16.8294 F100.00
G01 X30.9707 Y-16.9152 F100.00
G01 X30.9721 Y-16.9411 F100.00
G01 X30.9758 Y-16.9668 F100.00
G01 X30.9768 Y-16.9720 F100.00
G01 X30.9841 Y-16.9998 F100.00
G01 X30.9929 Y-17.0242 F100.00
G01 X31.0045 Y-17.0489 F100.00
G01 X31.0214 Y-17.0768 F100.00
G01 X31.0369 Y-17.0976 F100.00
G01 X31.0571 Y-17.1198 F100.00
G01 X31.0774 Y-17.1381 F100.00
G01 X31.0993 Y-17.1544 F100.00
G01 X31.1238 Y-17.1692 F100.00
G01 X31.1416 Y-17.1778 F100.00
G01 X30.7847 Y-17.5347 F100.00
G01 X30.7646 Y-17.5568 F100.00
G01 X30.7468 Y-17.5808 F100.00
G01 X30.7328 Y-17.6042 F100.00
G01 X30.7187 Y-17.6335 F100.00
G01 X30.7086 Y-17.6616 F100.00
G01 X30.7020 Y-17.6880 F100.00
G01 X30.7009 Y-17.6932 F100.00
G01 X30.6968 Y-17.7228 F100.00
G01 X30.6955 Y-17.7500 F100.00
G01 X30.6955 Y-25.1239 F100.00
G01 X28.1061 Y-27.7133 F100.00
G01 X27.3214 Y-26.9286 F100.00
G01 X27.2894 Y-26.8995 F100.00
G01 X27.2503 Y-26.8706 F100.00
G01 X27.2143 Y-26.8491 F100.00
G01 X27.1739 Y-26.8301 F100.00
G01 X27.1294 Y-26.8143 F100.00
G01 X27.0887 Y-26.8042 F100.00
G01 X27.0446 Y-26.7976 F100.00
G01 X27.0000 Y-26.7955 F100.00
G01 X17.4546 Y-26.7954 F100.00
G01 X17.4546 Y-25.7000 F100.00
G01 X17.4982 Y-25.6792 F100.00
G01 X17.5846 Y-25.6274 F100.00
G01 X17.6678 Y-25.5659 F100.00
G01 X17.7455 Y-25.4955 F100.00
G01 X17.8159 Y-25.4178 F100.00
G01 X17.8781 Y-25.3335 F100.00
G01 X17.9299 Y-25.2470 F100.00
G01 X17.9730 Y-25.1559 F100.00
G01 X17.9751 Y-25.1510 F100.00
G01 X18.0089 Y-25.0561 F100.00
G01 X18.0341 Y-24.9557 F100.00
G01 X18.0493 Y-24.8533 F100.00
G01 X18.0543 Y-24.7500 F100.00
G01 X18.0543 Y-23.7500 F100.00
G01 X18.0493 Y-23.6467 F100.00
G01 X18.0341 Y-23.5443 F100.00
G01 X18.0097 Y-23.4465 F100.00
G01 X17.9751 Y-23.3490 F100.00
G01 X17.9730 Y-23.3441 F100.00
G01 X17.9299 Y-23.2530 F100.00
G01 X17.8767 Y-23.1642 F100.00
G01 X17.8150 Y-23.0811 F100.00
G01 X17.7455 Y-23.0045 F100.00
G01 X17.6689 Y-22.9350 F100.00
G01 X17.5858 Y-22.8733 F100.00
G01 X17.4970 Y-22.8201 F100.00
G01 X17.4059 Y-22.7770 F100.00
G01 X17.4010 Y-22.7749 F100.00
G01 X17.3035 Y-22.7403 F100.00
G01 X17.2057 Y-22.7159 F100.00
G01 X17.1060 Y-22.7011 F100.00
G01 X17.1007 Y-22.7005 F100.00
G01 X17.0000 Y-22.6957 F100.00
G01 X16.8967 Y-22.7007 F100.00
G01 X16.7943 Y-22.7159 F100.00
G01 X16.6939 Y-22.7411 F100.00
G01 X16.5965 Y-22.7759 F100.00
G01 X16.5030 Y-22.8201 F100.00
G01 X16.4142 Y-22.8733 F100.00
G01 X16.3311 Y-22.9350 F100.00
G01 X16.2545 Y-23.0045 F100.00
G01 X16.1850 Y-23.0811 F100.00
G01 X16.1233 Y-23.1642 F100.00
G01 X16.0701 Y-23.2530 F100.00
G01 X16.0259 Y-23.3465 F100.00
G01 X15.9911 Y-23.4439 F100.00
G01 X15.9659 Y-23.5443 F100.00
G01 X15.9509 Y-23.6453 F100.00
G01 X15.9457 Y-23.7500 F100.00
G01 X15.9457 Y-24.7500 F100.00
G01 X15.9507 Y-24.8533 F100.00
G01 X15.9659 Y-24.9557 F100.00
G01 X15.9911 Y-25.0561 F100.00
G01 X16.0249 Y-25.1510 F100.00
G01 X16.0270 Y-25.1559 F100.00
G01 X16.0701 Y-25.2470 F100.00
G01 X16.1219 Y-25.3335 F100.00
G01 X16.1841 Y-25.4178 F100.00
G01 X16.2545 Y-25.4955 F100.00
G01 X16.3322 Y-25.5659 F100.00
G01 X16.4154 Y-25.6274 F100.00
G01 X16.5018 Y-25.6792 F100.00
G01 X16.5454 Y-25.7000 F100.00
G01 X16.5454 Y-26.7955 F100.00
G01 X11.1883 Y-26.7954 F100.00
G01 X10.5187 Y-26.1259 F100.00
G01 X10.5357 Y-26.1232 F100.00
G01 X10.5646 Y-26.1158 F100.00
G01 X10.5915 Y-26.1062 F100.00
G01 X10.6173 Y-26.0940 F100.00
G01 X10.6441 Y-26.0781 F100.00
G01 X10.6660 Y-26.0619 F100.00
G01 X10.6911 Y-26.0393 F100.00
G01 X10.7103 Y-26.0181 F100.00
G01 X10.7281 Y-25.9941 F100.00
G01 X10.7434 Y-25.9685 F100.00
G01 X10.7551 Y-25.9439 F100.00
G01 X10.7571 Y-25.9390 F100.00
G01 X10.7670 Y-25.9108 F100.00
G01 X10.7735 Y-25.8844 F100.00
G01 X10.7779 Y-25.8548 F100.00
G01 X10.7793 Y-25.8250 F100.00
G01 X10.7793 Y-23.6737 F100.00
G01 X10.7779 Y-23.6452 F100.00
G01 X10.7735 Y-23.6156 F100.00
G01 X10.7662 Y-23.5867 F100.00
G01 X10.7562 Y-23.5585 F100.00
G01 X10.7434 Y-23.5315 F100.00
G01 X10.7281 Y-23.5059 F100.00
G01 X10.7103 Y-23.4819 F100.00
G01 X10.6893 Y-23.4589 F100.00
G01 X10.6681 Y-23.4397 F100.00
G01 X10.6441 Y-23.4219 F100.00
G01 X10.6185 Y-23.4066 F100.00
G01 X10.5902 Y-23.3933 F100.00
G01 X10.5633 Y-23.3838 F100.00
G01 X10.5331 Y-23.3763 F100.00
G01 X10.5035 Y-23.3720 F100.00
G01 X10.4763 Y-23.3707 F100.00
G01 X10.4613 Y-23.3707 F100.00
G01 X10.4577 Y-22.5043 F100.00
G01 X10.8013 Y-22.5043 F100.00
G01 X10.8325 Y-22.5026 F100.00
G01 X10.8594 Y-22.4985 F100.00
G01 X10.8858 Y-22.4920 F100.00
G01 X10.9165 Y-22.4812 F100.00
G01 X10.9435 Y-22.4684 F100.00
G01 X10.9691 Y-22.4531 F100.00
G01 X10.9931 Y-22.4353 F100.00
G01 X11.0152 Y-22.4152 F100.00
G01 X11.0353 Y-22.3931 F100.00
G01 X11.0531 Y-22.3691 F100.00
G01 X11.0684 Y-22.3435 F100.00
G01 X11.0812 Y-22.3165 F100.00
G01 X11.0920 Y-22.2858 F100.00
G01 X11.0985 Y-22.2594 F100.00
G01 X11.1026 Y-22.2325 F100.00
G01 X11.1043 Y-22.2013 F100.00
G01 X11.1043 Y-21.3000 F100.00
G01 X11.1026 Y-21.2675 F100.00
G01 X11.0985 Y-21.2406 F100.00
G01 X11.0912 Y-21.2117 F100.00
G01 X11.0801 Y-21.1811 F100.00
G01 X11.0684 Y-21.1565 F100.00
G01 X11.0545 Y-21.1332 F100.00
G01 X11.0515 Y-21.1287 F100.00
G01 X11.0335 Y-21.1049 F100.00
G01 X11.0152 Y-21.0848 F100.00
G01 X10.9951 Y-21.0665 F100.00
G01 X10.9691 Y-21.0469 F100.00
G01 X10.9411 Y-21.0304 F100.00
G01 X10.9165 Y-21.0188 F100.00
G01 X10.8883 Y-21.0088 F100.00
G01 X10.8594 Y-21.0015 F100.00
G01 X10.8285 Y-20.9970 F100.00
G01 X10.8000 Y-20.9957 F100.00
G01 X10.4670 Y-20.9957 F100.00
G01 X10.4671 Y-18.4258 F100.00
G01 X11.0385 Y-17.8543 F100.00
G01 X11.5513 Y-17.8543 F100.00
G01 X11.5567 Y-17.8539 F100.00
G01 X11.5619 Y-17.8530 F100.00
G01 X11.5670 Y-17.8516 F100.00
G01 X11.5732 Y-17.8491 F100.00
G01 X11.5791 Y-17.8459 F100.00
G01 X11.5834 Y-17.8428 F100.00
G01 X11.5875 Y-17.8394 F100.00
G01 X11.5912 Y-17.8355 F100.00
G01 X11.5966 Y-17.8279 F100.00
G01 X11.6007 Y-17.8196 F100.00
G01 X11.6033 Y-17.8106 F100.00
G01 X11.6043 Y-17.8013 F100.00
G01 X11.6043 Y-17.0762 F100.00
G01 X11.6261 Y-17.0545 F100.00
G01 X12.2527 Y-17.0544 F100.00
G01 X12.2825 Y-17.0527 F100.00
G01 X12.3094 Y-17.0486 F100.00
G01 X12.3358 Y-17.0421 F100.00
G01 X12.3665 Y-17.0313 F100.00
G01 X12.3958 Y-17.0172 F100.00
G01 X12.4192 Y-17.0032 F100.00
G01 X12.4411 Y-16.9870 F100.00
G01 X12.4646 Y-16.9660 F100.00
G01 X13.2162 Y-16.2143 F100.00
G01 X13.2354 Y-16.1932 F100.00
G01 X13.2516 Y-16.1713 F100.00
G01 X13.2685 Y-16.1435 F100.00
G01 X13.2813 Y-16.1165 F100.00
G01 X13.2905 Y-16.0909 F100.00
G01 X13.2989 Y-16.0581 F100.00
G01 X13.3030 Y-16.0298 F100.00
G01 X13.3045 Y-16.0000 F100.00
G01 X13.3045 Y-2.7500 F100.00
G01 X13.3027 Y-2.7175 F100.00
G01 X13.2986 Y-2.6906 F100.00
G01 X13.2917 Y-2.6629 F100.00
G01 X13.2813 Y-2.6335 F100.00
G01 X13.2672 Y-2.6042 F100.00
G01 X13.2532 Y-2.5808 F100.00
G01 X13.2370 Y-2.5589 F100.00
G01 X13.2160 Y-2.5354 F100.00
G01 X12.2153 Y-1.5347 F100.00
G01 X12.1911 Y-1.5130 F100.00
G01 X12.1692 Y-1.4968 F100.00
G01 X12.1435 Y-1.4815 F100.00
G01 X12.1140 Y-1.4677 F100.00
G01 X12.0884 Y-1.4586 F100.00
G01 X12.0620 Y-1.4520 F100.00
G01 X12.0298 Y-1.4470 F100.00
G01 X12.0000 Y-1.4455 F100.00
G01 X8.4393 Y-1.4455 F100.00
G01 X8.4068 Y-1.4473 F100.00
G01 X8.3799 Y-1.4514 F100.00
G01 X8.3522 Y-1.4583 F100.00
G01 X8.3228 Y-1.4687 F100.00
G01 X8.2935 Y-1.4828 F100.00
G01 X8.2702 Y-1.4968 F100.00
G01 X8.2483 Y-1.5130 F100.00
G01 X8.2240 Y-1.5347 F100.00
G01 X5.0097 Y-4.7490 F100.00
G01 X4.9896 Y-4.7712 F100.00
G01 X4.9734 Y-4.7930 F100.00
G01 X4.9578 Y-4.8185 F100.00
G01 X4.9553 Y-4.8232 F100.00
G01 X4.9437 Y-4.8478 F100.00
G01 X4.9336 Y-4.8759 F100.00
G01 X4.9264 Y-4.9049 F100.00
G01 X4.9220 Y-4.9345 F100.00
G00 Z1.0000
G00 X4.8089 Y-6.6073
G01 F25.00
G01 Z-0.0600
G01 F100.00
G01 X4.8118 Y-6.6011 F100.00
G01 X4.8118 Y-6.6324 F100.00
G01 X4.7881 Y-6.6409 F100.00
G01 X4.7959 Y-6.6296 F100.00
G01 X4.8051 Y-6.6143 F100.00
G01 X4.8089 Y-6.6073 F100.00
G00 Z1.0000
G00 X5.6583 Y-6.6396
G01 F25.00
G01 Z-0.0600
G01 F100.00
G01 X5.6382 Y-6.6324 F100.00
G01 X5.6382 Y-5.1355 F100.00
G01 X6.5679 Y-4.2058 F100.00
G01 X6.5638 Y-4.2345 F100.00
G01 X6.5618 Y-4.2750 F100.00
G01 X6.5618 Y-6.6324 F100.00
G01 X6.5342 Y-6.6424 F100.00
G01 X6.5058 Y-6.6556 F100.00
G01 X6.4952 Y-6.6612 F100.00
G01 X6.4650 Y-6.6795 F100.00
G01 X6.4365 Y-6.7004 F100.00
G01 X6.4273 Y-6.7081 F100.00
G01 X6.4043 Y-6.7293 F100.00
G01 X6.3831 Y-6.7523 F100.00
G01 X6.3754 Y-6.7615 F100.00
G01 X6.3545 Y-6.7900 F100.00
G01 X6.3382 Y-6.8167 F100.00
G01 X6.3324 Y-6.8272 F100.00
G01 X6.3190 Y-6.8555 F100.00
G01 X6.3146 Y-6.8667 F100.00
G01 X6.3042 Y-6.8962 F100.00
G01 X6.2964 Y-6.9265 F100.00
G01 X6.2939 Y-6.9383 F100.00
G01 X6.2893 Y-6.9693 F100.00
G01 X6.2883 Y-6.9812 F100.00
G01 X6.2870 Y-7.0085 F100.00
G01 X6.2870 Y-7.4915 F100.00
G01 X6.2889 Y-7.5268 F100.00
G01 X6.2946 Y-7.5656 F100.00
G01 X6.3042 Y-7.6038 F100.00
G01 X6.3174 Y-7.6408 F100.00
G01 X6.3342 Y-7.6763 F100.00
G01 X6.3502 Y-7.7033 F100.00
G01 X6.3567 Y-7.7133 F100.00
G01 X6.3779 Y-7.7416 F100.00
G01 X6.4015 Y-7.7679 F100.00
G01 X6.4101 Y-7.7763 F100.00
G01 X6.4334 Y-7.7971 F100.00
G01 X6.4650 Y-7.8205 F100.00
G01 X6.4952 Y-7.8388 F100.00
G01 X6.5058 Y-7.8444 F100.00
G01 X6.5342 Y-7.8576 F100.00
G01 X6.5712 Y-7.8708 F100.00
G01 X6.6054 Y-7.8795 F100.00
G01 X6.6172 Y-7.8817 F100.00
G01 X6.6482 Y-7.8861 F100.00
G01 X6.6875 Y-7.8880 F100.00
G01 X7.2705 Y-7.8879 F100.00
G01 X7.3018 Y-7.8861 F100.00
G01 X7.3406 Y-7.8804 F100.00
G01 X7.3788 Y-7.8708 F100.00
G01 X7.4121 Y-7.8590 F100.00
G01 X7.4195 Y-7.8560 F100.00
G01 X7.4442 Y-7.8444 F100.00
G01 X7.4583 Y-7.8368 F100.00
G01 X7.4850 Y-7.8205 F100.00
G01 X7.5166 Y-7.7971 F100.00
G01 X7.5429 Y-7.7735 F100.00
G01 X7.5513 Y-7.7649 F100.00
G01 X7.5721 Y-7.7416 F100.00
G01 X7.5933 Y-7.7133 F100.00
G01 X7.5977 Y-7.7067 F100.00
G01 X7.6118 Y-7.6833 F100.00
G01 X7.6194 Y-7.6692 F100.00
G01 X7.6326 Y-7.6408 F100.00
G01 X7.6446 Y-7.6076 F100.00
G01 X7.6469 Y-7.5999 F100.00
G01 X7.6536 Y-7.5735 F100.00
G01 X7.6561 Y-7.5617 F100.00
G01 X7.6607 Y-7.5307 F100.00
G01 X7.6621 Y-7.5117 F100.00
G01 X7.6718 Y-7.5314 F100.00
G01 X7.6810 Y-7.5466 F100.00
G01 X7.6854 Y-7.5533 F100.00
G01 X7.6986 Y-7.5707 F100.00
G01 X7.7159 Y-7.5899 F100.00
G01 X7.7350 Y-7.6072 F100.00
G01 X7.7558 Y-7.6226 F100.00
G01 X7.7779 Y-7.6359 F100.00
G01 X7.7976 Y-7.6453 F100.00
G01 X7.8050 Y-7.6484 F100.00
G01 X7.8217 Y-7.6544 F100.00
G01 X7.8294 Y-7.6567 F100.00
G01 X7.8467 Y-7.6610 F100.00
G01 X7.8545 Y-7.6626 F100.00
G01 X7.8722 Y-7.6652 F100.00
G01 X7.8801 Y-7.6660 F100.00
G01 X7.8979 Y-7.6669 F100.00
G01 X7.9059 Y-7.6669 F100.00
G01 X7.9237 Y-7.6660 F100.00
G01 X7.9317 Y-7.6652 F100.00
G01 X7.9493 Y-7.6626 F100.00
G01 X7.9572 Y-7.6610 F100.00
G01 X7.9745 Y-7.6567 F100.00
G01 X7.9885 Y-7.6521 F100.00
G01 X7.0287 Y-8.6120 F100.00
G01 X6.6835 Y-8.6120 F100.00
G01 X6.6482 Y-8.6139 F100.00
G01 X6.6172 Y-8.6183 F100.00
G01 X6.6054 Y-8.6205 F100.00
G01 X6.5712 Y-8.6292 F100.00
G01 X6.5379 Y-8.6410 F100.00
G01 X6.5305 Y-8.6440 F100.00
G01 X6.5058 Y-8.6556 F100.00
G01 X6.4917 Y-8.6632 F100.00
G01 X6.4650 Y-8.6795 F100.00
G01 X6.4334 Y-8.7029 F100.00
G01 X6.4043 Y-8.7293 F100.00
G01 X6.3831 Y-8.7523 F100.00
G01 X6.3754 Y-8.7615 F100.00
G01 X6.3591 Y-8.7834 F100.00
G01 X6.3502 Y-8.7967 F100.00
G01 X6.3342 Y-8.8237 F100.00
G01 X6.3174 Y-8.8592 F100.00
G01 X6.3042 Y-8.8962 F100.00
G01 X6.2964 Y-8.9265 F100.00
G01 X6.2939 Y-8.9383 F100.00
G01 X6.2889 Y-8.9732 F100.00
G01 X6.2870 Y-9.0125 F100.00
G01 X6.2870 Y-9.4875 F100.00
G01 X6.2889 Y-9.5268 F100.00
G01 X6.2937 Y-9.5604 F100.00
G01 X6.2832 Y-9.5495 F100.00
G01 X6.2700 Y-9.5375 F100.00
G01 X6.2638 Y-9.5324 F100.00
G01 X6.2495 Y-9.5218 F100.00
G01 X6.2428 Y-9.5174 F100.00
G01 X6.2275 Y-9.5082 F100.00
G01 X6.2205 Y-9.5044 F100.00
G01 X6.2044 Y-9.4968 F100.00
G01 X6.1932 Y-9.4923 F100.00
G01 X6.1764 Y-9.4865 F100.00
G01 X6.1513 Y-9.4803 F100.00
G01 X6.1258 Y-9.4765 F100.00
G01 X6.1000 Y-9.4752 F100.00
G01 X6.0742 Y-9.4765 F100.00
G01 X6.0487 Y-9.4803 F100.00
G01 X6.0236 Y-9.4865 F100.00
G01 X6.0068 Y-9.4923 F100.00
G01 X5.9956 Y-9.4968 F100.00
G01 X5.9795 Y-9.5044 F100.00
G01 X5.9725 Y-9.5082 F100.00
G01 X5.9572 Y-9.5174 F100.00
G01 X5.9505 Y-9.5218 F100.00
G01 X5.9362 Y-9.5324 F100.00
G01 X5.9300 Y-9.5375 F100.00
G01 X5.9168 Y-9.5495 F100.00
G01 X5.9063 Y-9.5604 F100.00
G01 X5.9111 Y-9.5268 F100.00
G01 X5.9130 Y-9.4875 F100.00
G01 X5.9130 Y-9.0085 F100.00
G01 X5.9111 Y-8.9732 F100.00
G01 X5.9067 Y-8.9422 F100.00
G01 X5.9045 Y-8.9304 F100.00
G01 X5.8969 Y-8.9001 F100.00
G01 X5.8933 Y-8.8886 F100.00
G01 X5.8826 Y-8.8592 F100.00
G01 X5.8676 Y-8.8272 F100.00
G01 X5.8618 Y-8.8167 F100.00
G01 X5.8455 Y-8.7900 F100.00
G01 X5.8271 Y-8.7647 F100.00
G01 X5.8196 Y-8.7553 F100.00
G01 X5.7985 Y-8.7321 F100.00
G01 X5.7899 Y-8.7237 F100.00
G01 X5.7666 Y-8.7029 F100.00
G01 X5.7416 Y-8.6841 F100.00
G01 X5.7317 Y-8.6773 F100.00
G01 X5.7048 Y-8.6612 F100.00
G01 X5.6942 Y-8.6556 F100.00
G01 X5.6658 Y-8.6424 F100.00
G01 X5.6382 Y-8.6324 F100.00
G01 X5.6382 Y-7.8676 F100.00
G01 X5.6658 Y-7.8576 F100.00
G01 X5.7013 Y-7.8408 F100.00
G01 X5.7350 Y-7.8205 F100.00
G01 X5.7603 Y-7.8021 F100.00
G01 X5.7727 Y-7.7919 F100.00
G01 X5.7929 Y-7.7735 F100.00
G01 X5.7985 Y-7.7679 F100.00
G01 X5.8221 Y-7.7416 F100.00
G01 X5.8409 Y-7.7166 F100.00
G01 X5.8498 Y-7.7033 F100.00
G01 X5.8638 Y-7.6798 F100.00
G01 X5.8694 Y-7.6692 F100.00
G01 X5.8826 Y-7.6408 F100.00
G01 X5.8958 Y-7.6038 F100.00
G01 X5.9045 Y-7.5696 F100.00
G01 X5.9067 Y-7.5578 F100.00
G01 X5.9111 Y-7.5268 F100.00
G01 X5.9130 Y-7.4875 F100.00
G01 X5.9130 Y-7.0085 F100.00
G01 X5.9111 Y-6.9732 F100.00
G01 X5.9067 Y-6.9422 F100.00
G01 X5.9045 Y-6.9304 F100.00
G01 X5.8958 Y-6.8962 F100.00
G01 X5.8826 Y-6.8592 F100.00
G01 X5.8676 Y-6.8272 F100.00
G01 X5.8618 Y-6.8167 F100.00
G01 X5.8477 Y-6.7933 F100.00
G01 X5.8409 Y-6.7834 F100.00
G01 X5.8221 Y-6.7584 F100.00
G01 X5.8013 Y-6.7351 F100.00
G01 X5.7929 Y-6.7265 F100.00
G01 X5.7666 Y-6.7029 F100.00
G01 X5.7350 Y-6.6795 F100.00
G01 X5.7013 Y-6.6592 F100.00
G01 X5.6695 Y-6.6440 F100.00
G01 X5.6583 Y-6.6396 F100.00
G00 Z1.0000
G00 X4.7915 Y-7.8638
G01 F25.00
G01 Z-0.0600
G01 F100.00
G01 X4.7881 Y-7.8591 F100.00
G01 X4.8118 Y-7.8676 F100.00
G01 X4.8118 Y-7.8989 F100.00
G01 X4.8051 Y-7.8857 F100.00
G01 X4.7959 Y-7.8704 F100.00
G01 X4.7915 Y-7.8638 F100.00
G00 Z1.0000
G00 X4.8089 Y-8.6073
G01 F25.00
G01 Z-0.0600
G01 F100.00
G01 X4.8118 Y-8.6011 F100.00
G01 X4.8118 Y-8.6324 F100.00
G01 X4.7881 Y-8.6409 F100.00
G01 X4.7959 Y-8.6296 F100.00
G01 X4.8051 Y-8.6143 F100.00
G01 X4.8089 Y-8.6073 F100.00
G00 Z1.0000
G00 X7.4108 Y-6.6395
G01 F25.00
G01 Z-0.0600
G01 F100.00
G01 X7.4119 Y-6.6409 F100.00
G01 X7.3882 Y-6.6324 F100.00
G01 X7.3882 Y-6.6011 F100.00
G01 X7.3930 Y-6.6108 F100.00
G01 X7.3969 Y-6.6178 F100.00
G01 X7.4041 Y-6.6296 F100.00
G01 X7.4108 Y-6.6395 F100.00
G00 Z1.0000
G00 X8.7251 Y-6.9926
G01 F25.00
G01 Z-0.0600
G01 F100.00
G01 X7.0512 Y-8.6663 F100.00
G01 X6.6848 Y-8.6663 F100.00
G01 X6.6536 Y-8.6680 F100.00
G01 X6.6200 Y-8.6730 F100.00
G01 X6.5870 Y-8.6812 F100.00
G01 X6.5550 Y-8.6927 F100.00
G01 X6.5243 Y-8.7072 F100.00
G01 X6.4997 Y-8.7218 F100.00
G01 X6.4908 Y-8.7277 F100.00
G01 X6.4700 Y-8.7432 F100.00
G01 X6.4638 Y-8.7484 F100.00
G01 X6.4427 Y-8.7677 F100.00
G01 X6.4199 Y-8.7929 F100.00
G01 X6.4027 Y-8.8158 F100.00
G01 X6.3968 Y-8.8247 F100.00
G01 X6.3822 Y-8.8493 F100.00
G01 X6.3677 Y-8.8800 F100.00
G01 X6.3562 Y-8.9120 F100.00
G01 X6.3491 Y-8.9398 F100.00
G01 X6.3470 Y-8.9502 F100.00
G01 X6.3430 Y-8.9786 F100.00
G01 X6.3413 Y-9.0125 F100.00
G01 X6.3413 Y-9.4875 F100.00
G01 X6.3426 Y-9.5161 F100.00
G01 X6.3436 Y-9.5267 F100.00
G01 X6.3480 Y-9.5550 F100.00
G01 X6.3562 Y-9.5880 F100.00
G01 X6.3677 Y-9.6200 F100.00
G01 X6.3822 Y-9.6507 F100.00
G01 X6.3996 Y-9.6798 F100.00
G01 X6.4199 Y-9.7071 F100.00
G01 X6.4427 Y-9.7323 F100.00
G01 X6.4679 Y-9.7551 F100.00
G01 X6.4952 Y-9.7754 F100.00
G01 X6.5243 Y-9.7928 F100.00
G01 X6.5550 Y-9.8073 F100.00
G01 X6.5819 Y-9.8171 F100.00
G01 X6.5896 Y-9.8195 F100.00
G01 X6.6148 Y-9.8259 F100.00
G01 X6.6252 Y-9.8280 F100.00
G01 X6.6536 Y-9.8320 F100.00
G01 X6.6875 Y-9.8337 F100.00
G01 X7.2625 Y-9.8337 F100.00
G01 X7.2964 Y-9.8320 F100.00
G01 X7.3248 Y-9.8280 F100.00
G01 X7.3352 Y-9.8259 F100.00
G01 X7.3630 Y-9.8188 F100.00
G01 X7.3950 Y-9.8073 F100.00
G01 X7.4209 Y-9.7952 F100.00
G01 X7.4303 Y-9.7902 F100.00
G01 X7.4548 Y-9.7754 F100.00
G01 X7.4800 Y-9.7568 F100.00
G01 X7.4862 Y-9.7516 F100.00
G01 X7.5073 Y-9.7323 F100.00
G01 X7.5266 Y-9.7112 F100.00
G01 X7.5318 Y-9.7050 F100.00
G01 X7.5473 Y-9.6842 F100.00
G01 X7.5532 Y-9.6753 F100.00
G01 X7.5678 Y-9.6507 F100.00
G01 X7.5823 Y-9.6200 F100.00
G01 X7.5938 Y-9.5880 F100.00
G01 X7.6020 Y-9.5550 F100.00
G01 X7.6070 Y-9.5214 F100.00
G01 X7.6087 Y-9.4902 F100.00
G01 X7.6087 Y-9.1238 F100.00
G01 X8.9413 Y-7.7912 F100.00
G01 X8.9414 Y-7.8053 F100.00
G01 X8.9425 Y-7.8159 F100.00
G01 X8.9446 Y-7.8264 F100.00
G01 X8.9477 Y-7.8366 F100.00
G01 X8.9517 Y-7.8465 F100.00
G01 X8.9568 Y-7.8559 F100.00
G01 X8.9627 Y-7.8648 F100.00
G01 X8.9695 Y-7.8730 F100.00
G01 X8.9770 Y-7.8805 F100.00
G01 X8.9874 Y-7.8889 F100.00
G01 X8.9964 Y-7.8946 F100.00
G01 X9.0060 Y-7.8994 F100.00
G01 X9.0159 Y-7.9032 F100.00
G01 X9.0262 Y-7.9061 F100.00
G01 X9.0367 Y-7.9079 F100.00
G01 X9.0473 Y-7.9087 F100.00
G01 X11.5527 Y-7.9087 F100.00
G01 X11.5633 Y-7.9079 F100.00
G01 X11.5712 Y-7.9066 F100.00
G01 X11.5790 Y-7.9048 F100.00
G01 X11.5866 Y-7.9023 F100.00
G01 X11.5940 Y-7.8994 F100.00
G01 X11.6012 Y-7.8959 F100.00
G01 X11.6104 Y-7.8904 F100.00
G01 X11.6169 Y-7.8857 F100.00
G01 X11.6230 Y-7.8805 F100.00
G01 X11.6305 Y-7.8730 F100.00
G01 X11.6357 Y-7.8669 F100.00
G01 X11.6404 Y-7.8604 F100.00
G01 X11.6459 Y-7.8512 F100.00
G01 X11.6494 Y-7.8440 F100.00
G01 X11.6523 Y-7.8366 F100.00
G01 X11.6548 Y-7.8290 F100.00
G01 X11.6566 Y-7.8212 F100.00
G01 X11.6579 Y-7.8133 F100.00
G01 X11.6587 Y-7.8000 F100.00
G01 X11.6586 Y-6.6947 F100.00
G01 X11.6579 Y-6.6867 F100.00
G01 X11.6566 Y-6.6788 F100.00
G01 X11.6548 Y-6.6710 F100.00
G01 X11.6514 Y-6.6609 F100.00
G01 X11.6483 Y-6.6535 F100.00
G01 X11.6446 Y-6.6464 F100.00
G01 X11.6404 Y-6.6396 F100.00
G01 X11.6357 Y-6.6331 F100.00
G01 X11.6305 Y-6.6270 F100.00
G01 X11.6230 Y-6.6195 F100.00
G01 X11.6169 Y-6.6143 F100.00
G01 X11.6104 Y-6.6096 F100.00
G01 X11.6036 Y-6.6054 F100.00
G01 X11.5965 Y-6.6017 F100.00
G01 X11.5866 Y-6.5977 F100.00
G01 X11.5790 Y-6.5952 F100.00
G01 X11.5659 Y-6.5925 F100.00
G01 X11.5580 Y-6.5916 F100.00
G01 X11.5500 Y-6.5913 F100.00
G01 X9.0500 Y-6.5913 F100.00
G01 X9.0420 Y-6.5916 F100.00
G01 X9.0341 Y-6.5925 F100.00
G01 X9.0262 Y-6.5939 F100.00
G01 X9.0184 Y-6.5960 F100.00
G01 X9.0109 Y-6.5986 F100.00
G01 X9.0035 Y-6.6017 F100.00
G01 X8.9918 Y-6.6082 F100.00
G01 X8.9852 Y-6.6127 F100.00
G01 X8.9790 Y-6.6177 F100.00
G01 X8.9731 Y-6.6231 F100.00
G01 X8.9677 Y-6.6290 F100.00
G01 X8.9627 Y-6.6352 F100.00
G01 X8.9582 Y-6.6418 F100.00
G01 X8.9517 Y-6.6535 F100.00
G01 X8.9486 Y-6.6609 F100.00
G01 X8.9460 Y-6.6684 F100.00
G01 X8.9439 Y-6.6762 F100.00
G01 X8.9425 Y-6.6841 F100.00
G01 X8.9413 Y-6.6973 F100.00
G01 X8.9413 Y-6.8928 F100.00
G01 X8.9050 Y-6.8981 F100.00
G01 X8.8760 Y-6.9052 F100.00
G01 X8.8683 Y-6.9074 F100.00
G01 X8.8427 Y-6.9166 F100.00
G01 X8.8328 Y-6.9207 F100.00
G01 X8.8059 Y-6.9335 F100.00
G01 X8.7756 Y-6.9516 F100.00
G01 X8.7474 Y-6.9726 F100.00
G01 X8.7251 Y-6.9926 F100.00
G00 Z1.0000
G00 X8.7616 Y-7.0329
G01 F25.00
G01 Z-0.0600
G01 F100.00
G01 X7.0738 Y-8.7207 F100.00
G01 X6.6875 Y-8.7207 F100.00
G01 X6.6589 Y-8.7221 F100.00
G01 X6.6319 Y-8.7260 F100.00
G01 X6.6028 Y-8.7332 F100.00
G01 X6.5783 Y-8.7419 F100.00
G01 X6.5523 Y-8.7539 F100.00
G01 X6.5476 Y-8.7564 F100.00
G01 X6.5254 Y-8.7698 F100.00
G01 X6.5024 Y-8.7869 F100.00
G01 X6.4811 Y-8.8061 F100.00
G01 X6.4628 Y-8.8263 F100.00
G01 X6.4434 Y-8.8526 F100.00
G01 X6.4301 Y-8.8749 F100.00
G01 X6.4179 Y-8.9008 F100.00
G01 X6.4082 Y-8.9278 F100.00
G01 X6.4018 Y-8.9530 F100.00
G01 X6.3971 Y-8.9839 F100.00
G01 X6.3957 Y-9.0125 F100.00
G01 X6.3957 Y-9.4902 F100.00
G01 X6.3971 Y-9.5161 F100.00
G01 X6.4018 Y-9.5470 F100.00
G01 X6.4091 Y-9.5748 F100.00
G01 X6.4179 Y-9.5992 F100.00
G01 X6.4289 Y-9.6227 F100.00
G01 X6.4448 Y-9.6496 F100.00
G01 X6.4619 Y-9.6726 F100.00
G01 X6.4811 Y-9.6939 F100.00
G01 X6.5013 Y-9.7122 F100.00
G01 X6.5254 Y-9.7302 F100.00
G01 X6.5476 Y-9.7436 F100.00
G01 X6.5523 Y-9.7461 F100.00
G01 X6.5783 Y-9.7581 F100.00
G01 X6.6028 Y-9.7668 F100.00
G01 X6.6306 Y-9.7737 F100.00
G01 X6.6589 Y-9.7779 F100.00
G01 X6.6875 Y-9.7793 F100.00
G01 X7.2625 Y-9.7793 F100.00
G01 X7.2911 Y-9.7779 F100.00
G01 X7.3220 Y-9.7732 F100.00
G01 X7.3472 Y-9.7668 F100.00
G01 X7.3742 Y-9.7571 F100.00
G01 X7.4001 Y-9.7449 F100.00
G01 X7.4224 Y-9.7316 F100.00
G01 X7.4476 Y-9.7131 F100.00
G01 X7.4689 Y-9.6939 F100.00
G01 X7.4881 Y-9.6726 F100.00
G01 X7.5052 Y-9.6496 F100.00
G01 X7.5186 Y-9.6274 F100.00
G01 X7.5211 Y-9.6227 F100.00
G01 X7.5331 Y-9.5967 F100.00
G01 X7.5418 Y-9.5722 F100.00
G01 X7.5490 Y-9.5431 F100.00
G01 X7.5529 Y-9.5161 F100.00
G01 X7.5543 Y-9.4875 F100.00
G01 X7.5543 Y-9.1012 F100.00
G01 X8.9957 Y-7.6599 F100.00
G01 X8.9957 Y-7.8013 F100.00
G01 X8.9962 Y-7.8080 F100.00
G01 X8.9976 Y-7.8145 F100.00
G01 X9.0003 Y-7.8220 F100.00
G01 X9.0048 Y-7.8302 F100.00
G01 X9.0097 Y-7.8365 F100.00
G01 X9.0166 Y-7.8428 F100.00
G01 X9.0232 Y-7.8473 F100.00
G01 X9.0317 Y-7.8512 F100.00
G01 X9.0394 Y-7.8533 F100.00
G01 X9.0473 Y-7.8543 F100.00
G01 X11.5513 Y-7.8543 F100.00
G01 X11.5593 Y-7.8535 F100.00
G01 X11.5683 Y-7.8512 F100.00
G01 X11.5756 Y-7.8479 F100.00
G01 X11.5834 Y-7.8428 F100.00
G01 X11.5903 Y-7.8365 F100.00
G01 X11.5952 Y-7.8302 F100.00
G01 X11.5997 Y-7.8220 F100.00
G01 X11.6024 Y-7.8145 F100.00
G01 X11.6039 Y-7.8067 F100.00
G01 X11.6043 Y-7.8000 F100.00
G01 X11.6043 Y-6.6987 F100.00
G01 X11.6035 Y-6.6907 F100.00
G01 X11.6012 Y-6.6817 F100.00
G01 X11.5973 Y-6.6732 F100.00
G01 X11.5928 Y-6.6666 F100.00
G01 X11.5875 Y-6.6606 F100.00
G01 X11.5802 Y-6.6548 F100.00
G01 X11.5720 Y-6.6503 F100.00
G01 X11.5645 Y-6.6476 F100.00
G01 X11.5567 Y-6.6461 F100.00
G01 X11.5500 Y-6.6457 F100.00
G01 X9.0500 Y-6.6457 F100.00
G01 X9.0420 Y-6.6462 F100.00
G01 X9.0330 Y-6.6484 F100.00
G01 X9.0256 Y-6.6515 F100.00
G01 X9.0176 Y-6.6563 F100.00
G01 X9.0116 Y-6.6616 F100.00
G01 X9.0063 Y-6.6676 F100.00
G01 X9.0015 Y-6.6756 F100.00
G01 X8.9980 Y-6.6842 F100.00
G01 X8.9962 Y-6.6920 F100.00
G01 X8.9957 Y-6.7000 F100.00
G01 X8.9957 Y-6.9455 F100.00
G01 X8.9737 Y-6.9455 F100.00
G01 X8.9465 Y-6.9469 F100.00
G01 X8.9169 Y-6.9511 F100.00
G01 X8.8866 Y-6.9586 F100.00
G01 X8.8597 Y-6.9682 F100.00
G01 X8.8315 Y-6.9815 F100.00
G01 X8.8058 Y-6.9968 F100.00
G01 X8.7818 Y-7.0146 F100.00
G01 X8.7616 Y-7.0329 F100.00
G00 Z1.0000
G00 X8.8850 Y-6.8039
G01 F25.00
G01 Z-0.0600
G01 F100.00
G01 X8.8870 Y-6.7997 F100.00
G01 X8.8870 Y-6.8464 F100.00
G01 X8.8628 Y-6.8525 F100.00
G01 X8.8511 Y-6.8559 F100.00
G01 X8.8576 Y-6.8476 F100.00
G01 X8.8681 Y-6.8332 F100.00
G01 X8.8794 Y-6.8146 F100.00
G01 X8.8850 Y-6.8039 F100.00
G00 Z1.0000
G00 X8.9129 Y-6.0052
G01 F25.00
G01 Z-0.0600
G01 F100.00
G01 X8.8755 Y-5.9745 F100.00
G01 X8.8448 Y-5.9371 F100.00
G01 X8.8220 Y-5.8944 F100.00
G01 X8.8080 Y-5.8481 F100.00
G01 X8.8025 Y-5.7924 F100.00
G01 X8.8025 Y-4.7076 F100.00
G01 X8.8080 Y-4.6519 F100.00
G01 X8.8220 Y-4.6056 F100.00
G01 X8.8448 Y-4.5629 F100.00
G01 X8.8755 Y-4.5255 F100.00
G01 X8.9129 Y-4.4948 F100.00
G01 X8.9556 Y-4.4720 F100.00
G01 X9.0019 Y-4.4580 F100.00
G01 X9.0576 Y-4.4525 F100.00
G01 X11.5424 Y-4.4525 F100.00
G01 X11.5981 Y-4.4580 F100.00
G01 X11.6444 Y-4.4720 F100.00
G01 X11.6871 Y-4.4948 F100.00
G01 X11.7245 Y-4.5255 F100.00
G01 X11.7552 Y-4.5629 F100.00
G01 X11.7780 Y-4.6056 F100.00
G01 X11.7920 Y-4.6519 F100.00
G01 X11.7975 Y-4.7076 F100.00
G01 X11.7975 Y-5.7924 F100.00
G01 X11.7920 Y-5.8481 F100.00
G01 X11.7780 Y-5.8944 F100.00
G01 X11.7552 Y-5.9371 F100.00
G01 X11.7245 Y-5.9745 F100.00
G01 X11.6871 Y-6.0052 F100.00
G01 X11.6444 Y-6.0280 F100.00
G01 X11.5981 Y-6.0420 F100.00
G01 X11.5424 Y-6.0475 F100.00
G01 X9.0576 Y-6.0475 F100.00
G01 X9.0019 Y-6.0420 F100.00
G01 X8.9556 Y-6.0280 F100.00
G01 X8.9129 Y-6.0052 F100.00
G00 Z1.0000
G00 X8.9432 Y-5.9598
G01 F25.00
G01 Z-0.0600
G01 F100.00
G01 X8.9141 Y-5.9359 F100.00
G01 X8.8902 Y-5.9068 F100.00
G01 X8.8725 Y-5.8735 F100.00
G01 X8.8615 Y-5.8375 F100.00
G01 X8.8568 Y-5.7897 F100.00
G01 X8.8568 Y-4.7103 F100.00
G01 X8.8615 Y-4.6625 F100.00
G01 X8.8725 Y-4.6265 F100.00
G01 X8.8902 Y-4.5932 F100.00
G01 X8.9141 Y-4.5641 F100.00
G01 X8.9432 Y-4.5402 F100.00
G01 X8.9765 Y-4.5225 F100.00
G01 X9.0125 Y-4.5115 F100.00
G01 X9.0603 Y-4.5068 F100.00
G01 X11.5397 Y-4.5068 F100.00
G01 X11.5875 Y-4.5115 F100.00
G01 X11.6235 Y-4.5225 F100.00
G01 X11.6568 Y-4.5402 F100.00
G01 X11.6859 Y-4.5641 F100.00
G01 X11.7098 Y-4.5932 F100.00
G01 X11.7275 Y-4.6265 F100.00
G01 X11.7385 Y-4.6625 F100.00
G01 X11.7432 Y-4.7103 F100.00
G01 X11.7432 Y-5.7897 F100.00
G01 X11.7385 Y-5.8375 F100.00
G01 X11.7275 Y-5.8735 F100.00
G01 X11.7098 Y-5.9068 F100.00
G01 X11.6859 Y-5.9359 F100.00
G01 X11.6568 Y-5.9598 F100.00
G01 X11.6235 Y-5.9775 F100.00
G01 X11.5875 Y-5.9885 F100.00
G01 X11.5397 Y-5.9932 F100.00
G01 X9.0603 Y-5.9932 F100.00
G01 X9.0125 Y-5.9885 F100.00
G01 X8.9765 Y-5.9775 F100.00
G01 X8.9432 Y-5.9598 F100.00
G00 Z1.0000
G00 X9.0367 Y-5.9079
G01 F25.00
G01 Z-0.0600
G01 F100.00
G01 X9.0500 Y-5.9087 F100.00
G01 X11.5500 Y-5.9087 F100.00
G01 X11.5633 Y-5.9079 F100.00
G01 X11.5738 Y-5.9061 F100.00
G01 X11.5866 Y-5.9023 F100.00
G01 X11.5965 Y-5.8983 F100.00
G01 X11.6036 Y-5.8946 F100.00
G01 X11.6104 Y-5.8904 F100.00
G01 X11.6210 Y-5.8823 F100.00
G01 X11.6305 Y-5.8730 F100.00
G01 X11.6357 Y-5.8669 F100.00
G01 X11.6404 Y-5.8604 F100.00
G01 X11.6471 Y-5.8489 F100.00
G01 X11.6504 Y-5.8416 F100.00
G01 X11.6532 Y-5.8341 F100.00
G01 X11.6566 Y-5.8212 F100.00
G01 X11.6579 Y-5.8133 F100.00
G01 X11.6586 Y-5.8053 F100.00
G01 X11.6587 Y-4.7000 F100.00
G01 X11.6582 Y-4.6893 F100.00
G01 X11.6561 Y-4.6762 F100.00
G01 X11.6523 Y-4.6634 F100.00
G01 X11.6483 Y-4.6535 F100.00
G01 X11.6418 Y-4.6418 F100.00
G01 X11.6373 Y-4.6352 F100.00
G01 X11.6323 Y-4.6290 F100.00
G01 X11.6230 Y-4.6195 F100.00
G01 X11.6169 Y-4.6143 F100.00
G01 X11.6104 Y-4.6096 F100.00
G01 X11.6036 Y-4.6054 F100.00
G01 X11.5965 Y-4.6017 F100.00
G01 X11.5841 Y-4.5968 F100.00
G01 X11.5764 Y-4.5946 F100.00
G01 X11.5686 Y-4.5929 F100.00
G01 X11.5607 Y-4.5918 F100.00
G01 X11.5527 Y-4.5913 F100.00
G01 X9.0500 Y-4.5913 F100.00
G01 X9.0393 Y-4.5918 F100.00
G01 X9.0262 Y-4.5939 F100.00
G01 X9.0159 Y-4.5968 F100.00
G01 X9.0035 Y-4.6017 F100.00
G01 X8.9918 Y-4.6082 F100.00
G01 X8.9852 Y-4.6127 F100.00
G01 X8.9790 Y-4.6177 F100.00
G01 X8.9731 Y-4.6231 F100.00
G01 X8.9677 Y-4.6290 F100.00
G01 X8.9596 Y-4.6396 F100.00
G01 X8.9529 Y-4.6511 F100.00
G01 X8.9496 Y-4.6584 F100.00
G01 X8.9468 Y-4.6659 F100.00
G01 X8.9446 Y-4.6736 F100.00
G01 X8.9429 Y-4.6814 F100.00
G01 X8.9414 Y-4.6947 F100.00
G01 X8.9413 Y-5.8027 F100.00
G01 X8.9418 Y-5.8107 F100.00
G01 X8.9434 Y-5.8212 F100.00
G01 X8.9460 Y-5.8316 F100.00
G01 X8.9496 Y-5.8416 F100.00
G01 X8.9529 Y-5.8489 F100.00
G01 X8.9582 Y-5.8582 F100.00
G01 X8.9643 Y-5.8669 F100.00
G01 X8.9695 Y-5.8730 F100.00
G01 X8.9770 Y-5.8805 F100.00
G01 X8.9831 Y-5.8857 F100.00
G01 X8.9896 Y-5.8904 F100.00
G01 X8.9988 Y-5.8959 F100.00
G01 X9.0060 Y-5.8994 F100.00
G01 X9.0159 Y-5.9032 F100.00
G01 X9.0262 Y-5.9061 F100.00
G01 X9.0367 Y-5.9079 F100.00
G00 Z1.0000
G00 X9.0433 Y-5.8539
G01 F25.00
G01 Z-0.0600
G01 F100.00
G01 X9.0500 Y-5.8543 F100.00
G01 X11.5500 Y-5.8543 F100.00
G01 X11.5553 Y-5.8541 F100.00
G01 X11.5619 Y-5.8530 F100.00
G01 X11.5670 Y-5.8516 F100.00
G01 X11.5732 Y-5.8491 F100.00
G01 X11.5791 Y-5.8459 F100.00
G01 X11.5855 Y-5.8412 F100.00
G01 X11.5912 Y-5.8355 F100.00
G01 X11.5952 Y-5.8302 F100.00
G01 X11.5985 Y-5.8244 F100.00
G01 X11.6016 Y-5.8170 F100.00
G01 X11.6035 Y-5.8093 F100.00
G01 X11.6043 Y-5.8013 F100.00
G01 X11.6043 Y-4.7000 F100.00
G01 X11.6039 Y-4.6933 F100.00
G01 X11.6030 Y-4.6881 F100.00
G01 X11.6016 Y-4.6830 F100.00
G01 X11.5991 Y-4.6768 F100.00
G01 X11.5952 Y-4.6698 F100.00
G01 X11.5903 Y-4.6635 F100.00
G01 X11.5855 Y-4.6588 F100.00
G01 X11.5791 Y-4.6541 F100.00
G01 X11.5720 Y-4.6503 F100.00
G01 X11.5658 Y-4.6480 F100.00
G01 X11.5580 Y-4.6462 F100.00
G01 X11.5500 Y-4.6457 F100.00
G01 X9.0500 Y-4.6457 F100.00
G01 X9.0447 Y-4.6459 F100.00
G01 X9.0381 Y-4.6470 F100.00
G01 X9.0317 Y-4.6488 F100.00
G01 X9.0268 Y-4.6509 F100.00
G01 X9.0198 Y-4.6548 F100.00
G01 X9.0135 Y-4.6597 F100.00
G01 X9.0088 Y-4.6645 F100.00
G01 X9.0041 Y-4.6709 F100.00
G01 X9.0009 Y-4.6768 F100.00
G01 X8.9980 Y-4.6842 F100.00
G01 X8.9962 Y-4.6920 F100.00
G01 X8.9957 Y-4.6987 F100.00
G01 X8.9957 Y-5.8013 F100.00
G01 X8.9961 Y-5.8067 F100.00
G01 X8.9970 Y-5.8119 F100.00
G01 X8.9998 Y-5.8208 F100.00
G01 X9.0041 Y-5.8291 F100.00
G01 X9.0097 Y-5.8365 F100.00
G01 X9.0166 Y-5.8428 F100.00
G01 X9.0244 Y-5.8479 F100.00
G01 X9.0292 Y-5.8502 F100.00
G01 X9.0342 Y-5.8520 F100.00
G01 X9.0433 Y-5.8539 F100.00
G00 Z1.0000
G00 X8.8711 Y-7.9399
G01 F25.00
G01 Z-0.0600
G01 F100.00
G01 X8.8684 Y-7.9409 F100.00
G01 X8.9162 Y-7.8931 F100.00
G01 X8.9215 Y-7.9003 F100.00
G01 X8.9292 Y-7.9095 F100.00
G01 X8.9376 Y-7.9181 F100.00
G01 X8.9469 Y-7.9263 F100.00
G01 X8.9293 Y-7.9274 F100.00
G01 X8.9077 Y-7.9304 F100.00
G01 X8.8864 Y-7.9353 F100.00
G01 X8.8711 Y-7.9399 F100.00
G00 Z1.0000
G00 X9.3436 Y-10.5282
G01 F25.00
G01 Z-0.0600
G01 F100.00
G01 X9.3612 Y-10.5370 F100.00
G01 X9.0500 Y-10.5370 F100.00
G01 X9.0380 Y-10.5374 F100.00
G01 X9.0261 Y-10.5387 F100.00
G01 X9.0104 Y-10.5418 F100.00
G01 X8.9989 Y-10.5452 F100.00
G01 X8.9839 Y-10.5509 F100.00
G01 X8.9731 Y-10.5562 F100.00
G01 X8.9594 Y-10.5644 F100.00
G01 X8.9497 Y-10.5715 F100.00
G01 X8.9405 Y-10.5792 F100.00
G01 X8.9292 Y-10.5905 F100.00
G01 X8.9215 Y-10.5997 F100.00
G01 X8.9122 Y-10.6128 F100.00
G01 X8.9044 Y-10.6267 F100.00
G01 X8.8994 Y-10.6376 F100.00
G01 X8.8940 Y-10.6527 F100.00
G01 X8.8909 Y-10.6643 F100.00
G01 X8.8882 Y-10.6800 F100.00
G01 X8.8871 Y-10.6920 F100.00
G01 X8.8870 Y-11.3787 F100.00
G01 X4.9578 Y-15.3078 F100.00
G01 X4.9358 Y-15.3318 F100.00
G01 X4.9257 Y-15.3442 F100.00
G01 X4.9065 Y-15.3705 F100.00
G01 X4.8856 Y-15.4052 F100.00
G01 X4.8715 Y-15.4346 F100.00
G01 X4.8654 Y-15.4493 F100.00
G01 X4.8546 Y-15.4801 F100.00
G01 X4.8456 Y-15.5155 F100.00
G01 X4.8434 Y-15.5273 F100.00
G01 X4.8388 Y-15.5595 F100.00
G01 X4.8368 Y-15.6000 F100.00
G01 X4.8368 Y-29.7500 F100.00
G01 X4.8382 Y-29.7825 F100.00
G01 X4.8398 Y-29.7984 F100.00
G01 X4.8448 Y-29.8306 F100.00
G01 X4.8525 Y-29.8622 F100.00
G01 X4.8571 Y-29.8775 F100.00
G01 X4.8683 Y-29.9081 F100.00
G01 X4.8820 Y-29.9376 F100.00
G01 X4.8875 Y-29.9483 F100.00
G01 X4.9065 Y-29.9795 F100.00
G01 X4.9257 Y-30.0058 F100.00
G01 X4.9358 Y-30.0182 F100.00
G01 X4.9578 Y-30.0422 F100.00
G01 X7.9579 Y-33.0422 F100.00
G01 X7.9879 Y-33.0694 F100.00
G01 X8.0139 Y-33.0889 F100.00
G01 X8.0272 Y-33.0978 F100.00
G01 X8.0552 Y-33.1144 F100.00
G01 X8.0846 Y-33.1285 F100.00
G01 X8.0994 Y-33.1346 F100.00
G01 X8.1301 Y-33.1454 F100.00
G01 X8.1694 Y-33.1552 F100.00
G01 X8.2095 Y-33.1612 F100.00
G01 X8.2500 Y-33.1632 F100.00
G01 X22.5655 Y-33.1632 F100.00
G01 X22.5524 Y-33.1699 F100.00
G01 X22.5371 Y-33.1791 F100.00
G01 X22.5304 Y-33.1835 F100.00
G01 X22.5161 Y-33.1941 F100.00
G01 X22.5099 Y-33.1992 F100.00
G01 X22.4967 Y-33.2112 F100.00
G01 X22.4911 Y-33.2168 F100.00
G01 X22.4765 Y-33.2331 F100.00
G01 X22.4611 Y-33.2538 F100.00
G01 X22.4479 Y-33.2760 F100.00
G01 X22.4368 Y-33.2993 F100.00
G01 X22.4281 Y-33.3236 F100.00
G01 X22.4219 Y-33.3487 F100.00
G01 X22.4181 Y-33.3742 F100.00
G01 X22.4168 Y-33.3960 F100.00
G01 X22.4168 Y-33.4040 F100.00
G01 X22.4177 Y-33.4218 F100.00
G01 X22.4185 Y-33.4298 F100.00
G01 X22.4211 Y-33.4474 F100.00
G01 X22.4227 Y-33.4552 F100.00
G01 X22.4270 Y-33.4725 F100.00
G01 X22.4336 Y-33.4921 F100.00
G01 X22.3939 Y-33.4562 F100.00
G01 X22.3847 Y-33.4484 F100.00
G01 X22.3027 Y-33.3876 F100.00
G01 X22.2928 Y-33.3808 F100.00
G01 X22.1983 Y-33.3243 F100.00
G01 X22.1024 Y-33.2787 F100.00
G01 X22.0914 Y-33.2740 F100.00
G01 X21.9876 Y-33.2370 F100.00
G01 X21.8769 Y-33.2093 F100.00
G01 X21.7640 Y-33.1926 F100.00
G01 X21.6580 Y-33.1871 F100.00
G01 X21.6460 Y-33.1870 F100.00
G01 X21.5440 Y-33.1920 F100.00
G01 X21.5281 Y-33.1935 F100.00
G01 X21.4231 Y-33.2093 F100.00
G01 X21.3201 Y-33.2349 F100.00
G01 X21.3048 Y-33.2395 F100.00
G01 X21.2049 Y-33.2755 F100.00
G01 X21.1089 Y-33.3207 F100.00
G01 X21.0948 Y-33.3282 F100.00
G01 X21.0038 Y-33.3830 F100.00
G01 X20.9185 Y-33.4460 F100.00
G01 X20.9061 Y-33.4562 F100.00
G01 X20.8276 Y-33.5276 F100.00
G01 X20.7562 Y-33.6061 F100.00
G01 X20.7460 Y-33.6185 F100.00
G01 X20.6830 Y-33.7038 F100.00
G01 X20.6330 Y-33.7868 F100.00
G01 X8.1211 Y-33.7868 F100.00
G01 X4.4132 Y-30.0789 F100.00
G01 X4.4132 Y-15.0211 F100.00
G01 X9.2229 Y-10.2115 F100.00
G01 X9.2183 Y-10.2255 F100.00
G01 X9.2140 Y-10.2428 F100.00
G01 X9.2124 Y-10.2507 F100.00
G01 X9.2098 Y-10.2683 F100.00
G01 X9.2090 Y-10.2763 F100.00
G01 X9.2081 Y-10.2941 F100.00
G01 X9.2081 Y-10.3021 F100.00
G01 X9.2093 Y-10.3239 F100.00
G01 X9.2131 Y-10.3494 F100.00
G01 X9.2194 Y-10.3744 F100.00
G01 X9.2266 Y-10.3950 F100.00
G01 X9.2355 Y-10.4149 F100.00
G01 X9.2431 Y-10.4291 F100.00
G01 X9.2547 Y-10.4475 F100.00
G01 X9.2653 Y-10.4618 F100.00
G01 X9.2704 Y-10.4680 F100.00
G01 X9.2851 Y-10.4841 F100.00
G01 X9.3043 Y-10.5014 F100.00
G01 X9.3250 Y-10.5168 F100.00
G01 X9.3436 Y-10.5282 F100.00
G00 Z1.0000
G00 X9.3436 Y-12.5282
G01 F25.00
G01 Z-0.0600
G01 F100.00
G01 X9.3612 Y-12.5370 F100.00
G01 X9.0500 Y-12.5370 F100.00
G01 X9.0380 Y-12.5374 F100.00
G01 X9.0261 Y-12.5387 F100.00
G01 X9.0104 Y-12.5418 F100.00
G01 X8.9989 Y-12.5452 F100.00
G01 X8.9839 Y-12.5509 F100.00
G01 X8.9731 Y-12.5562 F100.00
G01 X8.9594 Y-12.5644 F100.00
G01 X8.9466 Y-12.5740 F100.00
G01 X8.9376 Y-12.5819 F100.00
G01 X8.9265 Y-12.5935 F100.00
